; G-Code originally generated by Simplify3D(R) Version 4.1.2
; This calibration test gcode modified by the Teaching Tech Calibration website: https://teachingtechyt.github.io/calibration.html
;M80 ; power supply on
G90
M82
M106 S0
M140 S80 ; custom bed temp
M190 S80 ; custom bed temp
M104 S185 T0 ; custom hot end temp minus 50 degrees
G28 ; home all axes
;G29 ; probe ABL
M420 S1 ; restore ABL mesh
M109 S235 T0 ; custom hot end temp 
;customstart
G0 Z3; fix for delta printers that home at max
;process Process
;layer 1, Z = 0.280
T0
G92 E0.0000
G1 E-6 F2400 ; custom retraction
;fan1;
G1 Z0.280 F1200
G1 X97.1360 Y98.8140 F11000 ; custom feedrate
G1 E0 F2400 ; custom un-retraction/prime
G92 E0.0000
G1 X98.8140 Y97.1360 E0.1432 F3300 ; custom feedrate
G1 X121.1860 Y97.1360 E1.4933
G1 X122.8640 Y98.8140 E1.6365
G1 X122.8640 Y121.1860 E2.9866
G1 X121.1860 Y122.8640 E3.1298
G1 X98.8140 Y122.8640 E4.4799
G1 X97.1360 Y121.1860 E4.6231
G1 X97.1360 Y98.8140 E5.9732
G92 E0.0000
G1 E-6 F2400 ; custom retraction
;zhop1
G1 X97.7120 Y99.0520 F11000 ; custom feedrate
G1 Z0.280 F1200
G1 E0 F2400 ; custom un-retraction/prime
G92 E0.0000
G1 X99.0520 Y97.7120 E0.1144 F3300 ; custom feedrate
G1 X120.9480 Y97.7120 E1.4357
G1 X122.2880 Y99.0520 E1.5501
G1 X122.2880 Y120.9480 E2.8714
G1 X120.9480 Y122.2880 E2.9858
G1 X99.0520 Y122.2880 E4.3071
G1 X97.7120 Y120.9480 E4.4215
G1 X97.7120 Y99.0520 E5.7429
G92 E0.0000
G1 E-6 F2400 ; custom retraction
;zhop1
G1 X100.2880 Y100.2880 F11000 ; custom feedrate
G1 X100.2880 Y100.7020
G1 X101.4400 Y101.4400
G1 Z0.280 F1200
G1 E0 F2400 ; custom un-retraction/prime
G92 E0.0000
G1 X118.5600 Y101.4400 E1.0331 F2640 ; custom feedrate
G1 X118.5600 Y118.5600 E2.0663
G1 X101.4400 Y118.5600 E3.0994
G1 X101.4400 Y101.4400 E4.1326
G1 X100.8640 Y100.8640 F11000 ; custom feedrate
G92 E0.0000
G1 X119.1360 Y100.8640 E1.1027 F2640 ; custom feedrate
G1 X119.1360 Y119.1360 E2.2053
G1 X100.8640 Y119.1360 E3.3080
G1 X100.8640 Y100.8640 E4.4107
G1 X100.2880 Y100.2880 F11000 ; custom feedrate
G92 E0.0000
G1 X119.7120 Y100.2880 E1.1722 F1980 ; custom feedrate
G1 X119.7120 Y119.7120 E2.3444
G1 X100.2880 Y119.7120 E3.5166
G1 X100.2880 Y100.2880 E4.6887
G1 X118.0770 Y101.7860 F11000 ; custom feedrate
G92 E0.0000
G1 X118.2140 Y101.9230 E0.0117 F2640 ; custom feedrate
G1 X118.2140 Y102.7370 E0.0609
G1 X117.2630 Y101.7860 E0.1421
G1 X116.4480 Y101.7860 E0.1912
G1 X118.2140 Y103.5520 E0.3420
G1 X118.2140 Y104.3660 E0.3911
G1 X115.6340 Y101.7860 E0.6114
G1 X114.8190 Y101.7860 E0.6605
G1 X118.2140 Y105.1810 E0.9503
G1 X118.2140 Y105.9960 E0.9995
G1 X114.0040 Y101.7860 E1.3588
G1 X113.1900 Y101.7860 E1.4079
G1 X118.2140 Y106.8100 E1.8367
G1 X118.2140 Y107.6250 E1.8859
G1 X112.3750 Y101.7860 E2.3842
G1 X111.5610 Y101.7860 E2.4334
G1 X118.2140 Y108.4390 E3.0012
G1 X118.2140 Y109.2540 E3.0504
G1 X110.7460 Y101.7860 E3.6878
G1 X109.9310 Y101.7860 E3.7369
G1 X118.2140 Y110.0690 E4.4438
G1 X118.2140 Y110.8830 E4.4930
G1 X109.1170 Y101.7860 E5.2694
G1 X108.3020 Y101.7860 E5.3186
G1 X118.2140 Y111.6980 E6.1645
G1 X118.2140 Y112.5120 E6.2137
G1 X107.4880 Y101.7860 E7.1291
G1 X106.6730 Y101.7860 E7.1783
G1 X118.2140 Y113.3270 E8.1633
G1 X118.2140 Y114.1410 E8.2124
G1 X105.8590 Y101.7860 E9.2669
G1 X105.0440 Y101.7860 E9.3161
G1 X118.2140 Y114.9560 E10.4401
G1 X118.2140 Y115.7710 E10.4892
G1 X104.2290 Y101.7860 E11.6828
G1 X103.4150 Y101.7860 E11.7319
G1 X118.2140 Y116.5850 E12.9950
G1 X118.2140 Y117.4000 E13.0441
G1 X102.6000 Y101.7860 E14.3767
G1 X101.7860 Y101.7860 E14.4259
G1 X118.2140 Y118.2140 E15.8280
G1 X117.4000 Y118.2140 E15.8771
G1 X101.7860 Y102.6000 E17.2097
G1 X101.7860 Y103.4150 E17.2589
G1 X116.5850 Y118.2140 E18.5219
G1 X115.7710 Y118.2140 E18.5711
G1 X101.7860 Y104.2290 E19.7646
G1 X101.7860 Y105.0440 E19.8138
G1 X114.9560 Y118.2140 E20.9378
G1 X114.1410 Y118.2140 E20.9870
G1 X101.7860 Y105.8590 E22.0414
G1 X101.7860 Y106.6730 E22.0906
G1 X113.3270 Y118.2140 E23.0756
G1 X112.5120 Y118.2140 E23.1247
G1 X101.7860 Y107.4880 E24.0402
G1 X101.7860 Y108.3020 E24.0894
G1 X111.6980 Y118.2140 E24.9353
G1 X110.8830 Y118.2140 E24.9845
G1 X101.7860 Y109.1170 E25.7609
G1 X101.7860 Y109.9310 E25.8100
G1 X110.0690 Y118.2140 E26.5169
G1 X109.2540 Y118.2140 E26.5661
G1 X101.7860 Y110.7460 E27.2035
G1 X101.7860 Y111.5610 E27.2526
G1 X108.4390 Y118.2140 E27.8205
G1 X107.6250 Y118.2140 E27.8696
G1 X101.7860 Y112.3750 E28.3680
G1 X101.7860 Y113.1900 E28.4171
G1 X106.8100 Y118.2140 E28.8460
G1 X105.9960 Y118.2140 E28.8951
G1 X101.7860 Y114.0040 E29.2544
G1 X101.7860 Y114.8190 E29.3036
G1 X105.1810 Y118.2140 E29.5933
G1 X104.3660 Y118.2140 E29.6425
G1 X101.7860 Y115.6340 E29.8628
G1 X101.7860 Y116.4480 E29.9119
G1 X103.5520 Y118.2140 E30.0627
G1 X102.7370 Y118.2140 E30.1118
G1 X101.7860 Y117.2630 E30.1930
G1 X101.7860 Y118.0770 E30.2422
G1 X101.9230 Y118.2140 E30.2539
G92 E0.0000
G1 E-6 F2400 ; custom retraction
;layer 2, Z = 0.560
M106 S255; custom fan 100% from layer 2
G1 Z0.560 F1200
G1 X101.2000 Y118.8000 F11000 ; custom feedrate
G1 E0 F2400 ; custom un-retraction/prime
G92 E0.0000
G1 X101.2000 Y101.2000 E0.8851 F5280 ; custom feedrate
G1 X118.8000 Y101.2000 E1.7702
G1 X118.8000 Y118.8000 E2.6553
G1 X101.2000 Y118.8000 E3.5404
G1 X100.7200 Y119.2800 F11000 ; custom feedrate
G92 E0.0000
G1 X100.7200 Y100.7200 E0.9334 F5280 ; custom feedrate
G1 X119.2800 Y100.7200 E1.8667
G1 X119.2800 Y119.2800 E2.8001
G1 X100.7200 Y119.2800 E3.7335
G1 X100.2400 Y119.7600 F11000 ; custom feedrate
G92 E0.0000
G1 X100.2400 Y100.2400 E0.9816 F3960 ; custom feedrate
G1 X119.7600 Y100.2400 E1.9633
G1 X119.7600 Y119.7600 E2.9449
G1 X100.2400 Y119.7600 E3.9266
G1 X101.4880 Y101.5410 F11000 ; custom feedrate
G92 E0.0000
G1 X101.5410 Y101.4880 E0.0038 F5280 ; custom feedrate
G1 X102.2200 Y101.4880 E0.0379
G1 X101.4880 Y102.2200 E0.0900
G1 X101.4880 Y102.8990 E0.1242
G1 X102.8990 Y101.4880 E0.2245
G1 X103.5780 Y101.4880 E0.2587
G1 X101.4880 Y103.5780 E0.4073
G1 X101.4880 Y104.2570 E0.4414
G1 X104.2570 Y101.4880 E0.6383
G1 X104.9360 Y101.4880 E0.6725
G1 X101.4880 Y104.9360 E0.9177
G1 X101.4880 Y105.6140 E0.9518
G1 X105.6140 Y101.4880 E1.2453
G1 X106.2930 Y101.4880 E1.2794
G1 X101.4880 Y106.2930 E1.6212
G1 X101.4880 Y106.9720 E1.6553
G1 X106.9720 Y101.4880 E2.0453
G1 X107.6510 Y101.4880 E2.0795
G1 X101.4880 Y107.6510 E2.5178
G1 X101.4880 Y108.3300 E2.5519
G1 X108.3300 Y101.4880 E3.0385
G1 X109.0090 Y101.4880 E3.0726
G1 X101.4880 Y109.0090 E3.6075
G1 X101.4880 Y109.6870 E3.6416
G1 X109.6870 Y101.4880 E4.2248
G1 X110.3660 Y101.4880 E4.2589
G1 X101.4880 Y110.3660 E4.8903
G1 X101.4880 Y111.0450 E4.9244
G1 X111.0450 Y101.4880 E5.6041
G1 X111.7240 Y101.4880 E5.6383
G1 X101.4880 Y111.7240 E6.3662
G1 X101.4880 Y112.4030 E6.4004
G1 X112.4030 Y101.4880 E7.1766
G1 X113.0810 Y101.4880 E7.2108
G1 X101.4880 Y113.0810 E8.0353
G1 X101.4880 Y113.7600 E8.0694
G1 X113.7600 Y101.4880 E8.9422
G1 X114.4390 Y101.4880 E8.9764
G1 X101.4880 Y114.4390 E9.8974
G1 X101.4880 Y115.1180 E9.9316
G1 X115.1180 Y101.4880 E10.9009
G1 X115.7970 Y101.4880 E10.9351
G1 X101.4880 Y115.7970 E11.9527
G1 X101.4880 Y116.4760 E11.9868
G1 X116.4760 Y101.4880 E13.0528
G1 X117.1540 Y101.4880 E13.0869
G1 X101.4880 Y117.1540 E14.2011
G1 X101.4880 Y117.8330 E14.2352
G1 X117.8330 Y101.4880 E15.3977
G1 X118.5120 Y101.4880 E15.4318
G1 X101.4880 Y118.5120 E16.6426
G1 X102.1670 Y118.5120 E16.6767
G1 X118.5120 Y102.1670 E17.8392
G1 X118.5120 Y102.8460 E17.8733
G1 X102.8460 Y118.5120 E18.9875
G1 X103.5250 Y118.5120 E19.0216
G1 X118.5120 Y103.5250 E20.0875
G1 X118.5120 Y104.2030 E20.1217
G1 X104.2030 Y118.5120 E21.1393
G1 X104.8820 Y118.5120 E21.1735
G1 X118.5120 Y104.8820 E22.1428
G1 X118.5120 Y105.5610 E22.1769
G1 X105.5610 Y118.5120 E23.0980
G1 X106.2400 Y118.5120 E23.1322
G1 X118.5120 Y106.2400 E24.0050
G1 X118.5120 Y106.9190 E24.0391
G1 X106.9190 Y118.5120 E24.8636
G1 X107.5970 Y118.5120 E24.8977
G1 X118.5120 Y107.5970 E25.6740
G1 X118.5120 Y108.2760 E25.7081
G1 X108.2760 Y118.5120 E26.4361
G1 X108.9550 Y118.5120 E26.4702
G1 X118.5120 Y108.9550 E27.1499
G1 X118.5120 Y109.6340 E27.1841
G1 X109.6340 Y118.5120 E27.8155
G1 X110.3130 Y118.5120 E27.8496
G1 X118.5120 Y110.3130 E28.4327
G1 X118.5120 Y110.9920 E28.4669
G1 X110.9920 Y118.5120 E29.0017
G1 X111.6700 Y118.5120 E29.0359
G1 X118.5120 Y111.6700 E29.5224
G1 X118.5120 Y112.3490 E29.5566
G1 X112.3490 Y118.5120 E29.9949
G1 X113.0280 Y118.5120 E30.0290
G1 X118.5120 Y113.0280 E30.4190
G1 X118.5120 Y113.7070 E30.4532
G1 X113.7070 Y118.5120 E30.7949
G1 X114.3860 Y118.5120 E30.8290
G1 X118.5120 Y114.3860 E31.1225
G1 X118.5120 Y115.0640 E31.1566
G1 X115.0640 Y118.5120 E31.4018
G1 X115.7430 Y118.5120 E31.4360
G1 X118.5120 Y115.7430 E31.6329
G1 X118.5120 Y116.4220 E31.6670
G1 X116.4220 Y118.5120 E31.8157
G1 X117.1010 Y118.5120 E31.8498
G1 X118.5120 Y117.1010 E31.9501
G1 X118.5120 Y117.7800 E31.9843
G1 X117.7800 Y118.5120 E32.0364
G1 X118.4590 Y118.5120 E32.0705
G1 X118.5120 Y118.4590 E32.0743
G92 E0.0000
G1 E-6 F2400 ; custom retraction
;layer 3, Z = 0.840
;fan3;
G1 Z0.840 F1200
G1 X118.8000 Y118.8000 F11000 ; custom feedrate
G1 E0 F2400 ; custom un-retraction/prime
G92 E0.0000
G1 X101.2000 Y118.8000 E0.8851 F5280 ; custom feedrate
G1 X101.2000 Y101.2000 E1.7702
G1 X118.8000 Y101.2000 E2.6553
G1 X118.8000 Y118.8000 E3.5404
G1 X119.2800 Y119.2800 F11000 ; custom feedrate
G92 E0.0000
G1 X100.7200 Y119.2800 E0.9334 F5280 ; custom feedrate
G1 X100.7200 Y100.7200 E1.8667
G1 X119.2800 Y100.7200 E2.8001
G1 X119.2800 Y119.2800 E3.7335
G1 X119.7600 Y119.7600 F11000 ; custom feedrate
G92 E0.0000
G1 X100.2400 Y119.7600 E0.9816 F3960 ; custom feedrate
G1 X100.2400 Y100.2400 E1.9633
G1 X119.7600 Y100.2400 E2.9449
G1 X119.7600 Y119.7600 E3.9266
G1 X101.5410 Y118.5120 F11000 ; custom feedrate
G92 E0.0000
G1 X101.4880 Y118.4590 E0.0038 F5280 ; custom feedrate
G1 X101.4880 Y117.7800 E0.0379
G1 X102.2200 Y118.5120 E0.0900
G1 X102.8990 Y118.5120 E0.1242
G1 X101.4880 Y117.1010 E0.2245
G1 X101.4880 Y116.4220 E0.2586
G1 X103.5780 Y118.5120 E0.4073
G1 X104.2570 Y118.5120 E0.4414
G1 X101.4880 Y115.7430 E0.6383
G1 X101.4880 Y115.0640 E0.6725
G1 X104.9360 Y118.5120 E0.9177
G1 X105.6140 Y118.5120 E0.9518
G1 X101.4880 Y114.3860 E1.2453
G1 X101.4880 Y113.7070 E1.2794
G1 X106.2930 Y118.5120 E1.6212
G1 X106.9720 Y118.5120 E1.6553
G1 X101.4880 Y113.0280 E2.0453
G1 X101.4880 Y112.3490 E2.0794
G1 X107.6510 Y118.5120 E2.5177
G1 X108.3300 Y118.5120 E2.5519
G1 X101.4880 Y111.6700 E3.0385
G1 X101.4880 Y110.9920 E3.0726
G1 X109.0080 Y118.5120 E3.6075
G1 X109.6870 Y118.5120 E3.6416
G1 X101.4880 Y110.3130 E4.2247
G1 X101.4880 Y109.6340 E4.2589
G1 X110.3660 Y118.5120 E4.8903
G1 X111.0450 Y118.5120 E4.9244
G1 X101.4880 Y108.9550 E5.6041
G1 X101.4880 Y108.2760 E5.6382
G1 X111.7240 Y118.5120 E6.3662
G1 X112.4030 Y118.5120 E6.4004
G1 X101.4880 Y107.5970 E7.1766
G1 X101.4880 Y106.9190 E7.2107
G1 X113.0810 Y118.5120 E8.0353
G1 X113.7600 Y118.5120 E8.0694
G1 X101.4880 Y106.2400 E8.9422
G1 X101.4880 Y105.5610 E8.9763
G1 X114.4390 Y118.5120 E9.8974
G1 X115.1180 Y118.5120 E9.9316
G1 X101.4880 Y104.8820 E10.9009
G1 X101.4880 Y104.2030 E10.9350
G1 X115.7970 Y118.5120 E11.9527
G1 X116.4760 Y118.5120 E11.9868
G1 X101.4880 Y103.5240 E13.0527
G1 X101.4880 Y102.8460 E13.0869
G1 X117.1540 Y118.5120 E14.2011
G1 X117.8330 Y118.5120 E14.2352
G1 X101.4880 Y102.1670 E15.3977
G1 X101.4880 Y101.4880 E15.4318
G1 X118.5120 Y118.5120 E16.6425
G1 X118.5120 Y117.8330 E16.6767
G1 X102.1670 Y101.4880 E17.8391
G1 X102.8460 Y101.4880 E17.8733
G1 X118.5120 Y117.1540 E18.9875
G1 X118.5120 Y116.4760 E19.0216
G1 X103.5240 Y101.4880 E20.0875
G1 X104.2030 Y101.4880 E20.1217
G1 X118.5120 Y115.7970 E21.1393
G1 X118.5120 Y115.1180 E21.1734
G1 X104.8820 Y101.4880 E22.1428
G1 X105.5610 Y101.4880 E22.1769
G1 X118.5120 Y114.4390 E23.0980
G1 X118.5120 Y113.7600 E23.1321
G1 X106.2400 Y101.4880 E24.0049
G1 X106.9190 Y101.4880 E24.0391
G1 X118.5120 Y113.0810 E24.8636
G1 X118.5120 Y112.4030 E24.8977
G1 X107.5970 Y101.4880 E25.6740
G1 X108.2760 Y101.4880 E25.7081
G1 X118.5120 Y111.7240 E26.4361
G1 X118.5120 Y111.0450 E26.4702
G1 X108.9550 Y101.4880 E27.1499
G1 X109.6340 Y101.4880 E27.1840
G1 X118.5120 Y110.3660 E27.8154
G1 X118.5120 Y109.6870 E27.8496
G1 X110.3130 Y101.4880 E28.4327
G1 X110.9920 Y101.4880 E28.4669
G1 X118.5120 Y109.0080 E29.0017
G1 X118.5120 Y108.3300 E29.0358
G1 X111.6700 Y101.4880 E29.5224
G1 X112.3490 Y101.4880 E29.5566
G1 X118.5120 Y107.6510 E29.9949
G1 X118.5120 Y106.9720 E30.0290
G1 X113.0280 Y101.4880 E30.4190
G1 X113.7070 Y101.4880 E30.4532
G1 X118.5120 Y106.2930 E30.7949
G1 X118.5120 Y105.6140 E30.8290
G1 X114.3860 Y101.4880 E31.1225
G1 X115.0640 Y101.4880 E31.1566
G1 X118.5120 Y104.9360 E31.4018
G1 X118.5120 Y104.2570 E31.4360
G1 X115.7430 Y101.4880 E31.6329
G1 X116.4220 Y101.4880 E31.6670
G1 X118.5120 Y103.5780 E31.8156
G1 X118.5120 Y102.8990 E31.8498
G1 X117.1010 Y101.4880 E31.9501
G1 X117.7800 Y101.4880 E31.9843
G1 X118.5120 Y102.2200 E32.0364
G1 X118.5120 Y101.5410 E32.0705
G1 X118.4590 Y101.4880 E32.0743
G92 E0.0000
G1 E-6 F2400 ; custom retraction
;layer 4, Z = 1.120
;fan4;
G1 Z1.120 F1200
G1 X118.8000 Y101.2000 F11000 ; custom feedrate
G1 E0 F2400 ; custom un-retraction/prime
G92 E0.0000
G1 X118.8000 Y118.8000 E0.8851 F5280 ; custom feedrate
G1 X101.2000 Y118.8000 E1.7702
G1 X101.2000 Y101.2000 E2.6553
G1 X118.8000 Y101.2000 E3.5404
G1 X119.2800 Y100.7200 F11000 ; custom feedrate
G92 E0.0000
G1 X119.2800 Y119.2800 E0.9334 F5280 ; custom feedrate
G1 X100.7200 Y119.2800 E1.8667
G1 X100.7200 Y100.7200 E2.8001
G1 X119.2800 Y100.7200 E3.7335
G1 X119.7600 Y100.2400 F11000 ; custom feedrate
G92 E0.0000
G1 X119.7600 Y119.7600 E0.9816 F3960 ; custom feedrate
G1 X100.2400 Y119.7600 E1.9633
G1 X100.2400 Y100.2400 E2.9449
G1 X119.7600 Y100.2400 E3.9266
G1 X118.4520 Y114.2760 F11000 ; custom feedrate
G92 E0.0000
G1 X114.2760 Y118.4520 E0.3712 F6600 ; custom feedrate
G1 X110.0330 Y118.4520 E0.6379
G1 X118.4520 Y110.0330 E1.3864
G1 X118.4520 Y105.7910 E1.6531
G1 X105.7910 Y118.4520 E2.7787
G1 X101.5480 Y118.4520 E3.0454
G1 X118.4520 Y101.5480 E4.5481
G1 X114.2090 Y101.5480 E4.8148
G1 X101.5480 Y114.2090 E5.9404
G1 X101.5480 Y109.9670 E6.2071
G1 X109.9670 Y101.5480 E6.9555
G1 X105.7240 Y101.5480 E7.2222
G1 X101.5480 Y105.7240 E7.5935
G92 E0.0000
G1 E-6 F2400 ; custom retraction
;layer 5, Z = 1.400
;fan5;
;
G1 Z1.400 F1200
G1 X101.2000 Y101.2000 F11000 ; custom feedrate
G1 E0 F2400 ; custom un-retraction/prime
G92 E0.0000
G1 X118.8000 Y101.2000 E0.8851 F5280 ; custom feedrate
G1 X118.8000 Y118.8000 E1.7702
G1 X101.2000 Y118.8000 E2.6553
G1 X101.2000 Y101.2000 E3.5404
G1 X100.7200 Y100.7200 F11000 ; custom feedrate
G92 E0.0000
G1 X119.2800 Y100.7200 E0.9334 F5280 ; custom feedrate
G1 X119.2800 Y119.2800 E1.8667
G1 X100.7200 Y119.2800 E2.8001
G1 X100.7200 Y100.7200 E3.7335
G1 X100.2400 Y100.2400 F11000 ; custom feedrate
G92 E0.0000
G1 X119.7600 Y100.2400 E0.9816 F3960 ; custom feedrate
G1 X119.7600 Y119.7600 E1.9633
G1 X100.2400 Y119.7600 E2.9449
G1 X100.2400 Y100.2400 E3.9266
G1 X114.2760 Y101.5480 F11000 ; custom feedrate
G92 E0.0000
G1 X118.4520 Y105.7240 E0.3713 F6600 ; custom feedrate
G1 X118.4520 Y109.9670 E0.6380
G1 X110.0330 Y101.5480 E1.3864
G1 X105.7910 Y101.5480 E1.6531
G1 X118.4520 Y114.2090 E2.7787
G1 X118.4520 Y118.4520 E3.0454
G1 X101.5480 Y101.5480 E4.5481
G1 X101.5480 Y105.7910 E4.8148
G1 X114.2090 Y118.4520 E5.9404
G1 X109.9670 Y118.4520 E6.2071
G1 X101.5480 Y110.0330 E6.9555
G1 X101.5480 Y114.2760 E7.2222
G1 X105.7240 Y118.4520 E7.5935
G92 E0.0000
G1 E-6 F2400 ; custom retraction
;layer 6, Z = 1.680
;fan6;
G1 Z1.680 F1200
G1 X101.2000 Y118.8000 F11000 ; custom feedrate
G1 E0 F2400 ; custom un-retraction/prime
G92 E0.0000
G1 X101.2000 Y101.2000 E0.8851 F5280 ; custom feedrate
G1 X118.8000 Y101.2000 E1.7702
G1 X118.8000 Y118.8000 E2.6553
G1 X101.2000 Y118.8000 E3.5404
G1 X100.7200 Y119.2800 F11000 ; custom feedrate
G92 E0.0000
G1 X100.7200 Y100.7200 E0.9334 F5280 ; custom feedrate
G1 X119.2800 Y100.7200 E1.8667
G1 X119.2800 Y119.2800 E2.8001
G1 X100.7200 Y119.2800 E3.7335
G1 X100.2400 Y119.7600 F11000 ; custom feedrate
G92 E0.0000
G1 X100.2400 Y100.2400 E0.9816 F3960 ; custom feedrate
G1 X119.7600 Y100.2400 E1.9633
G1 X119.7600 Y119.7600 E2.9449
G1 X100.2400 Y119.7600 E3.9266
G1 X101.5480 Y105.7240 F11000 ; custom feedrate
G92 E0.0000
G1 X105.7240 Y101.5480 E0.3713 F6600 ; custom feedrate
G1 X109.9670 Y101.5480 E0.6380
G1 X101.5480 Y109.9670 E1.3864
G1 X101.5480 Y114.2090 E1.6531
G1 X114.2090 Y101.5480 E2.7787
G1 X118.4520 Y101.5480 E3.0454
G1 X101.5480 Y118.4520 E4.5481
G1 X105.7910 Y118.4520 E4.8148
G1 X118.4520 Y105.7910 E5.9404
G1 X118.4520 Y110.0330 E6.2071
G1 X110.0330 Y118.4520 E6.9555
G1 X114.2760 Y118.4520 E7.2222
G1 X118.4520 Y114.2760 E7.5935
G92 E0.0000
G1 E-6 F2400 ; custom retraction
;layer 7, Z = 1.960
;fan7;
G1 Z1.960 F1200
G1 X118.8000 Y118.8000 F11000 ; custom feedrate
G1 E0 F2400 ; custom un-retraction/prime
G92 E0.0000
G1 X101.2000 Y118.8000 E0.8851 F5280 ; custom feedrate
G1 X101.2000 Y101.2000 E1.7702
G1 X118.8000 Y101.2000 E2.6553
G1 X118.8000 Y118.8000 E3.5404
G1 X119.2800 Y119.2800 F11000 ; custom feedrate
G92 E0.0000
G1 X100.7200 Y119.2800 E0.9334 F5280 ; custom feedrate
G1 X100.7200 Y100.7200 E1.8667
G1 X119.2800 Y100.7200 E2.8001
G1 X119.2800 Y119.2800 E3.7335
G1 X119.7600 Y119.7600 F11000 ; custom feedrate
G92 E0.0000
G1 X100.2400 Y119.7600 E0.9816 F3960 ; custom feedrate
G1 X100.2400 Y100.2400 E1.9633
G1 X119.7600 Y100.2400 E2.9449
G1 X119.7600 Y119.7600 E3.9266
G1 X105.7240 Y118.4520 F11000 ; custom feedrate
G92 E0.0000
G1 X101.5480 Y114.2760 E0.3713 F6600 ; custom feedrate
G1 X101.5480 Y110.0330 E0.6380
G1 X109.9670 Y118.4520 E1.3864
G1 X114.2090 Y118.4520 E1.6531
G1 X101.5480 Y105.7910 E2.7787
G1 X101.5480 Y101.5480 E3.0454
G1 X118.4520 Y118.4520 E4.5481
G1 X118.4520 Y114.2090 E4.8148
G1 X105.7910 Y101.5480 E5.9404
G1 X110.0330 Y101.5480 E6.2071
G1 X118.4520 Y109.9670 E6.9555
G1 X118.4520 Y105.7240 E7.2222
G1 X114.2760 Y101.5480 E7.5935
G92 E0.0000
G1 E-6 F2400 ; custom retraction
;layer 8, Z = 2.240
;fan8;
G1 Z2.240 F1200
G1 X118.8000 Y101.2000 F11000 ; custom feedrate
G1 E0 F2400 ; custom un-retraction/prime
G92 E0.0000
G1 X118.8000 Y118.8000 E0.8851 F5280 ; custom feedrate
G1 X101.2000 Y118.8000 E1.7702
G1 X101.2000 Y101.2000 E2.6553
G1 X118.8000 Y101.2000 E3.5404
G1 X119.2800 Y100.7200 F11000 ; custom feedrate
G92 E0.0000
G1 X119.2800 Y119.2800 E0.9334 F5280 ; custom feedrate
G1 X100.7200 Y119.2800 E1.8667
G1 X100.7200 Y100.7200 E2.8001
G1 X119.2800 Y100.7200 E3.7335
G1 X119.7600 Y100.2400 F11000 ; custom feedrate
G92 E0.0000
G1 X119.7600 Y119.7600 E0.9816 F3960 ; custom feedrate
G1 X100.2400 Y119.7600 E1.9633
G1 X100.2400 Y100.2400 E2.9449
G1 X119.7600 Y100.2400 E3.9266
G1 X118.4520 Y114.2760 F11000 ; custom feedrate
G92 E0.0000
G1 X114.2760 Y118.4520 E0.3712 F6600 ; custom feedrate
G1 X110.0330 Y118.4520 E0.6379
G1 X118.4520 Y110.0330 E1.3864
G1 X118.4520 Y105.7910 E1.6531
G1 X105.7910 Y118.4520 E2.7787
G1 X101.5480 Y118.4520 E3.0454
G1 X118.4520 Y101.5480 E4.5481
G1 X114.2090 Y101.5480 E4.8148
G1 X101.5480 Y114.2090 E5.9404
G1 X101.5480 Y109.9670 E6.2071
G1 X109.9670 Y101.5480 E6.9555
G1 X105.7240 Y101.5480 E7.2222
G1 X101.5480 Y105.7240 E7.5935
G92 E0.0000
G1 E-6 F2400 ; custom retraction
;layer 9, Z = 2.520
;fan9;
G1 Z2.520 F1200
G1 X101.2000 Y101.2000 F11000 ; custom feedrate
G1 E0 F2400 ; custom un-retraction/prime
G92 E0.0000
G1 X118.8000 Y101.2000 E0.8851 F5280 ; custom feedrate
G1 X118.8000 Y118.8000 E1.7702
G1 X101.2000 Y118.8000 E2.6553
G1 X101.2000 Y101.2000 E3.5404
G1 X100.7200 Y100.7200 F11000 ; custom feedrate
G92 E0.0000
G1 X119.2800 Y100.7200 E0.9334 F5280 ; custom feedrate
G1 X119.2800 Y119.2800 E1.8667
G1 X100.7200 Y119.2800 E2.8001
G1 X100.7200 Y100.7200 E3.7335
G1 X100.2400 Y100.2400 F11000 ; custom feedrate
G92 E0.0000
G1 X119.7600 Y100.2400 E0.9816 F3960 ; custom feedrate
G1 X119.7600 Y119.7600 E1.9633
G1 X100.2400 Y119.7600 E2.9449
G1 X100.2400 Y100.2400 E3.9266
G1 X114.2760 Y101.5480 F11000 ; custom feedrate
G92 E0.0000
G1 X118.4520 Y105.7240 E0.3713 F6600 ; custom feedrate
G1 X118.4520 Y109.9670 E0.6380
G1 X110.0330 Y101.5480 E1.3864
G1 X105.7910 Y101.5480 E1.6531
G1 X118.4520 Y114.2090 E2.7787
G1 X118.4520 Y118.4520 E3.0454
G1 X101.5480 Y101.5480 E4.5481
G1 X101.5480 Y105.7910 E4.8148
G1 X114.2090 Y118.4520 E5.9404
G1 X109.9670 Y118.4520 E6.2071
G1 X101.5480 Y110.0330 E6.9555
G1 X101.5480 Y114.2760 E7.2222
G1 X105.7240 Y118.4520 E7.5935
G92 E0.0000
G1 E-6 F2400 ; custom retraction
;layer 10, Z = 2.800
;fan10;
G1 Z2.800 F1200
G1 X101.2000 Y118.8000 F11000 ; custom feedrate
G1 E0 F2400 ; custom un-retraction/prime
G92 E0.0000
G1 X101.2000 Y101.2000 E0.8851 F5280 ; custom feedrate
G1 X118.8000 Y101.2000 E1.7702
G1 X118.8000 Y118.8000 E2.6553
G1 X101.2000 Y118.8000 E3.5404
G1 X100.7200 Y119.2800 F11000 ; custom feedrate
G92 E0.0000
G1 X100.7200 Y100.7200 E0.9334 F5280 ; custom feedrate
G1 X119.2800 Y100.7200 E1.8667
G1 X119.2800 Y119.2800 E2.8001
G1 X100.7200 Y119.2800 E3.7335
G1 X100.2400 Y119.7600 F11000 ; custom feedrate
G92 E0.0000
G1 X100.2400 Y100.2400 E0.9816 F3960 ; custom feedrate
G1 X119.7600 Y100.2400 E1.9633
G1 X119.7600 Y119.7600 E2.9449
G1 X100.2400 Y119.7600 E3.9266
G1 X107.5970 Y102.8990 F11000 ; custom feedrate
G92 E0.0000
G1 X107.7210 Y102.7760 E0.0088 F5280 ; custom feedrate
G1 X107.7210 Y102.0970 E0.0429
G1 X106.9180 Y102.8990 E0.1000
G1 X106.2390 Y102.8990 E0.1341
G1 X107.6510 Y101.4880 E0.2345
G1 X106.9720 Y101.4880 E0.2686
G1 X105.5610 Y102.8990 E0.3690
G1 X104.8820 Y102.8990 E0.4032
G1 X106.2930 Y101.4880 E0.5035
G1 X105.6140 Y101.4880 E0.5377
G1 X104.2030 Y102.8990 E0.6381
G1 X104.0890 Y102.8990 E0.6438
G1 X104.0880 Y102.3350 E0.6722
G1 X104.9360 Y101.4880 E0.7324
G1 X104.2570 Y101.4880 E0.7666
G1 X104.0880 Y101.6570 E0.7786
G1 X111.4660 Y101.7460 F11000 ; custom feedrate
G92 E0.0000
G1 X111.7240 Y101.4880 E0.0183 F5280 ; custom feedrate
G1 X112.4030 Y101.4880 E0.0525
G1 X111.4660 Y102.4250 E0.1191
G1 X111.4650 Y102.8990 E0.1430
G1 X111.6700 Y102.8990 E0.1533
G1 X113.0810 Y101.4880 E0.2536
G1 X113.7600 Y101.4880 E0.2878
G1 X112.3490 Y102.8990 E0.3882
G1 X113.0280 Y102.8990 E0.4223
G1 X114.4390 Y101.4880 E0.5227
G1 X115.1180 Y101.4880 E0.5568
G1 X113.7070 Y102.8990 E0.6572
G1 X114.3850 Y102.8990 E0.6913
G1 X115.2610 Y102.0240 E0.7536
G1 X115.2610 Y102.7030 E0.7878
G1 X115.0640 Y102.8990 E0.8017
G1 X117.0470 Y108.3840 F11000 ; custom feedrate
G92 E0.0000
G1 X117.6110 Y107.8200 E0.0401 F5280 ; custom feedrate
G1 X118.2890 Y107.8200 E0.0742
G1 X117.0470 Y109.0630 E0.1626
G1 X117.0460 Y109.7420 E0.1967
G1 X118.5120 Y108.2760 E0.3010
G1 X118.5120 Y108.9550 E0.3351
G1 X117.0460 Y110.4210 E0.4394
G1 X117.0460 Y111.1000 E0.4735
G1 X118.5120 Y109.6340 E0.5778
G1 X118.5120 Y110.3130 E0.6120
G1 X117.3080 Y111.5170 E0.6976
G1 X117.9860 Y111.5170 E0.7317
G1 X118.5120 Y110.9920 E0.7691
G1 X118.4520 Y114.2760 F11000 ; custom feedrate
G92 E0.0000
G1 X114.2760 Y118.4520 E0.3712 F6600 ; custom feedrate
G1 X110.0330 Y118.4520 E0.6379
G1 X116.5050 Y111.9800 E1.2133
G1 X116.5070 Y107.7360 E1.4801
G1 X105.7910 Y118.4520 E2.4328
G1 X101.5480 Y118.4520 E2.6995
G1 X118.4520 Y101.5480 E4.2023
G1 X115.8010 Y101.5480 E4.3689
G1 X115.8000 Y103.4390 E4.4878
G1 X112.3180 Y103.4390 E4.7067
G1 X101.5480 Y114.2090 E5.6641
G1 X101.5480 Y109.9670 E5.9308
G1 X108.0750 Y103.4390 E6.5111
G1 X103.8330 Y103.4390 E6.7778
G1 X101.5480 Y105.7240 E6.9809
G92 E0.0000
G1 E-6 F2400 ; custom retraction
;layer 11, Z = 3.080
;fan11;
G1 Z3.080 F1200
G1 X101.2000 Y101.2000 F11000 ; custom feedrate
G1 E0 F2400 ; custom un-retraction/prime
G92 E0.0000
G1 X118.8000 Y101.2000 E0.8851 F5280 ; custom feedrate
G1 X118.8000 Y118.8000 E1.7702
G1 X101.2000 Y118.8000 E2.6553
G1 X101.2000 Y101.2000 E3.5404
G1 X100.7200 Y100.7200 F11000 ; custom feedrate
G92 E0.0000
G1 X119.2800 Y100.7200 E0.9334 F5280 ; custom feedrate
G1 X119.2800 Y119.2800 E1.8667
G1 X100.7200 Y119.2800 E2.8001
G1 X100.7200 Y100.7200 E3.7335
G1 X100.2400 Y100.2400 F11000 ; custom feedrate
G92 E0.0000
G1 X119.7600 Y100.2400 E0.9816 F3960 ; custom feedrate
G1 X119.7600 Y119.7600 E1.9633
G1 X100.2400 Y119.7600 E2.9449
G1 X100.2400 Y100.2400 E3.9266
G1 X104.0890 Y102.7310 F11000 ; custom feedrate
G92 E0.0000
G1 X104.2570 Y102.9000 E0.0120 F5280 ; custom feedrate
G1 X104.9360 Y102.9000 E0.0461
G1 X104.0880 Y102.0520 E0.1064
G1 X104.0880 Y101.4880 E0.1348
G1 X104.2030 Y101.4880 E0.1406
G1 X105.6150 Y102.9000 E0.2410
G1 X106.2940 Y102.9000 E0.2751
G1 X104.8820 Y101.4880 E0.3755
G1 X105.5610 Y101.4880 E0.4097
G1 X106.9730 Y102.9000 E0.5100
G1 X107.6510 Y102.9000 E0.5442
G1 X106.2400 Y101.4880 E0.6446
G1 X106.9190 Y101.4880 E0.6787
G1 X107.8870 Y102.4560 E0.7476
G1 X107.8860 Y101.7770 E0.7817
G1 X107.5970 Y101.4880 E0.8023
G1 X111.2950 Y102.4700 F11000 ; custom feedrate
G92 E0.0000
G1 X111.7240 Y102.9000 E0.0305 F5280 ; custom feedrate
G1 X112.4030 Y102.9000 E0.0647
G1 X111.2950 Y101.7920 E0.1435
G1 X111.2950 Y101.4880 E0.1587
G1 X111.6700 Y101.4880 E0.1776
G1 X113.0820 Y102.9000 E0.2780
G1 X113.7610 Y102.9000 E0.3121
G1 X112.3490 Y101.4880 E0.4125
G1 X113.0280 Y101.4880 E0.4467
G1 X114.4400 Y102.9000 E0.5471
G1 X115.0830 Y102.9000 E0.5794
G1 X115.1180 Y102.8990 E0.5812
G1 X113.7070 Y101.4880 E0.6816
G1 X114.3860 Y101.4880 E0.7157
G1 X115.2610 Y102.3630 E0.7780
G1 X115.2610 Y101.6850 E0.8121
G1 X115.0640 Y101.4880 E0.8261
G1 X118.0000 Y107.8170 F11000 ; custom feedrate
G92 E0.0000
G1 X118.5120 Y108.3300 E0.0364 F5280 ; custom feedrate
G1 X118.5120 Y109.0080 E0.0706
G1 X117.3200 Y107.8170 E0.1553
G1 X117.0470 Y107.8200 E0.1692
G1 X117.0470 Y108.2220 E0.1895
G1 X118.5120 Y109.6870 E0.2937
G1 X118.5120 Y110.3660 E0.3278
G1 X117.0470 Y108.9010 E0.4320
G1 X117.0460 Y109.5790 E0.4661
G1 X118.5120 Y111.0450 E0.5704
G1 X118.5120 Y111.5170 E0.5941
G1 X118.3050 Y111.5170 E0.6045
G1 X117.0460 Y110.2580 E0.6941
G1 X117.0460 Y110.9360 E0.7282
G1 X117.6260 Y111.5170 E0.7695
G1 X115.8000 Y103.0720 F11000 ; custom feedrate
G92 E0.0000
G1 X118.4520 Y105.7240 E0.2357 F6600 ; custom feedrate
G1 X118.4520 Y107.2770 E0.3334
G1 X116.5070 Y107.2800 E0.4558
G1 X116.5070 Y108.0220 E0.5025
G1 X111.9250 Y103.4400 E0.9098
G1 X110.7550 Y103.4400 E0.9834
G1 X110.7550 Y102.2700 E1.0569
G1 X110.0330 Y101.5480 E1.1211
G1 X108.4260 Y101.5480 E1.2221
G1 X108.4270 Y103.4400 E1.3410
G1 X107.6820 Y103.4400 E1.3878
G1 X118.4520 Y114.2090 E2.3453
G1 X118.4520 Y118.4520 E2.6120
G1 X101.5480 Y101.5480 E4.1147
G1 X101.5480 Y105.7910 E4.3814
G1 X114.2090 Y118.4520 E5.5070
G1 X109.9670 Y118.4520 E5.7737
G1 X101.5480 Y110.0330 E6.5221
G1 X101.5480 Y114.2760 E6.7888
G1 X105.7240 Y118.4520 E7.1601
G92 E0.0000
G1 E-6 F2400 ; custom retraction
;layer 12, Z = 3.360
;fan12;
G1 Z3.360 F1200
G1 X101.2000 Y118.8000 F11000 ; custom feedrate
G1 E0 F2400 ; custom un-retraction/prime
G92 E0.0000
G1 X101.2000 Y101.2000 E0.8851 F5280 ; custom feedrate
G1 X118.8000 Y101.2000 E1.7702
G1 X118.8000 Y118.8000 E2.6553
G1 X101.2000 Y118.8000 E3.5404
G1 X100.7200 Y119.2800 F11000 ; custom feedrate
G92 E0.0000
G1 X100.7200 Y100.7200 E0.9334 F5280 ; custom feedrate
G1 X119.2800 Y100.7200 E1.8667
G1 X119.2800 Y119.2800 E2.8001
G1 X100.7200 Y119.2800 E3.7335
G1 X100.2400 Y119.7600 F11000 ; custom feedrate
G92 E0.0000
G1 X100.2400 Y100.2400 E0.9816 F3960 ; custom feedrate
G1 X119.7600 Y100.2400 E1.9633
G1 X119.7600 Y119.7600 E2.9449
G1 X100.2400 Y119.7600 E3.9266
G1 X107.5970 Y102.9000 F11000 ; custom feedrate
G92 E0.0000
G1 X108.0530 Y102.4440 E0.0324 F5280 ; custom feedrate
G1 X108.0520 Y101.7660 E0.0665
G1 X106.9180 Y102.9000 E0.1472
G1 X106.2390 Y102.9000 E0.1814
G1 X107.6510 Y101.4880 E0.2818
G1 X106.9720 Y101.4880 E0.3159
G1 X105.5600 Y102.9000 E0.4163
G1 X104.8810 Y102.9000 E0.4505
G1 X106.2930 Y101.4880 E0.5509
G1 X105.6140 Y101.4880 E0.5850
G1 X104.2030 Y102.8990 E0.6854
G1 X104.0890 Y102.8990 E0.6911
G1 X104.0880 Y102.3350 E0.7195
G1 X104.9360 Y101.4880 E0.7798
G1 X104.2570 Y101.4880 E0.8139
G1 X104.0880 Y101.6570 E0.8259
G1 X111.1250 Y102.0870 F11000 ; custom feedrate
G92 E0.0000
G1 X111.7240 Y101.4880 E0.0426 F5280 ; custom feedrate
G1 X112.4030 Y101.4880 E0.0768
G1 X111.1240 Y102.7660 E0.1677
G1 X111.1240 Y102.9000 E0.1744
G1 X111.6700 Y102.9000 E0.2018
G1 X113.0810 Y101.4880 E0.3022
G1 X113.7600 Y101.4880 E0.3364
G1 X112.3480 Y102.9000 E0.4368
G1 X113.0270 Y102.9000 E0.4709
G1 X114.4390 Y101.4880 E0.5713
G1 X115.1180 Y101.4880 E0.6055
G1 X113.7060 Y102.9000 E0.7059
G1 X114.3850 Y102.9000 E0.7400
G1 X115.2610 Y102.0240 E0.8023
G1 X115.2610 Y102.7030 E0.8365
G1 X115.0640 Y102.9000 E0.8505
G1 X117.0470 Y108.3840 F11000 ; custom feedrate
G92 E0.0000
G1 X117.6170 Y107.8140 E0.0405 F5280 ; custom feedrate
G1 X118.2950 Y107.8140 E0.0746
G1 X117.0470 Y109.0630 E0.1634
G1 X117.0460 Y109.7420 E0.1976
G1 X118.5120 Y108.2760 E0.3018
G1 X118.5120 Y108.9550 E0.3360
G1 X117.0460 Y110.4210 E0.4402
G1 X117.0460 Y111.1000 E0.4744
G1 X118.5120 Y109.6340 E0.5787
G1 X118.5120 Y110.3130 E0.6128
G1 X117.3080 Y111.5170 E0.6985
G1 X117.9860 Y111.5170 E0.7326
G1 X118.5120 Y110.9920 E0.7699
G1 X118.4520 Y114.2760 F11000 ; custom feedrate
G92 E0.0000
G1 X114.2760 Y118.4520 E0.3712 F6600 ; custom feedrate
G1 X110.0330 Y118.4520 E0.6379
G1 X116.5050 Y111.9800 E1.2133
G1 X116.5070 Y107.7360 E1.4801
G1 X105.7910 Y118.4520 E2.4328
G1 X101.5480 Y118.4520 E2.6995
G1 X118.4520 Y101.5480 E4.2023
G1 X115.8010 Y101.5480 E4.3689
G1 X115.8000 Y103.4390 E4.4878
G1 X115.6230 Y103.4390 E4.4989
G1 X115.4460 Y103.4400 E4.5101
G1 X112.3180 Y103.4400 E4.7068
G1 X101.5480 Y114.2090 E5.6642
G1 X101.5480 Y109.9670 E5.9309
G1 X108.0750 Y103.4400 E6.5111
G1 X103.8600 Y103.4400 E6.7761
G1 X103.8320 Y103.4400 E6.7778
G1 X101.5480 Y105.7240 E6.9809
G92 E0.0000
G1 E-6 F2400 ; custom retraction
;layer 13, Z = 3.640
;fan13;
G1 Z3.640 F1200
G1 X101.2000 Y101.2000 F11000 ; custom feedrate
G1 E0 F2400 ; custom un-retraction/prime
G92 E0.0000
G1 X118.8000 Y101.2000 E0.8851 F5280 ; custom feedrate
G1 X118.8000 Y118.8000 E1.7702
G1 X101.2000 Y118.8000 E2.6553
G1 X101.2000 Y101.2000 E3.5404
G1 X100.7200 Y100.7200 F11000 ; custom feedrate
G92 E0.0000
G1 X119.2800 Y100.7200 E0.9334 F5280 ; custom feedrate
G1 X119.2800 Y119.2800 E1.8667
G1 X100.7200 Y119.2800 E2.8001
G1 X100.7200 Y100.7200 E3.7335
G1 X100.2400 Y100.2400 F11000 ; custom feedrate
G92 E0.0000
G1 X119.7600 Y100.2400 E0.9816 F3960 ; custom feedrate
G1 X119.7600 Y119.7600 E1.9633
G1 X100.2400 Y119.7600 E2.9449
G1 X100.2400 Y100.2400 E3.9266
G1 X104.0890 Y102.7310 F11000 ; custom feedrate
G92 E0.0000
G1 X104.2570 Y102.9000 E0.0120 F5280 ; custom feedrate
G1 X104.4000 Y102.9000 E0.0192
G1 X104.5550 Y102.9000 E0.0270
G1 X104.9370 Y102.9000 E0.0462
G1 X104.0880 Y102.0520 E0.1065
G1 X104.0880 Y101.4880 E0.1349
G1 X104.2030 Y101.4880 E0.1407
G1 X105.6150 Y102.9000 E0.2411
G1 X106.2940 Y102.9000 E0.2752
G1 X104.8820 Y101.4880 E0.3757
G1 X105.5610 Y101.4880 E0.4098
G1 X106.9730 Y102.9000 E0.5102
G1 X107.6520 Y102.9000 E0.5444
G1 X106.2400 Y101.4880 E0.6448
G1 X106.9190 Y101.4880 E0.6789
G1 X108.2190 Y102.7880 E0.7714
G1 X108.2180 Y102.1090 E0.8055
G1 X107.5970 Y101.4880 E0.8497
G1 X111.0460 Y102.9000 F11000 ; custom feedrate
G92 E0.0000
G1 X110.9540 Y102.8080 E0.0066 F5280 ; custom feedrate
G1 X110.9540 Y102.1290 E0.0407
G1 X111.7250 Y102.9000 E0.0955
G1 X112.4040 Y102.9000 E0.1296
G1 X110.9920 Y101.4880 E0.2301
G1 X111.6700 Y101.4880 E0.2642
G1 X113.0820 Y102.9000 E0.3646
G1 X113.7610 Y102.9000 E0.3988
G1 X112.3490 Y101.4880 E0.4992
G1 X113.0280 Y101.4880 E0.5333
G1 X114.4400 Y102.9000 E0.6338
G1 X114.7290 Y102.9000 E0.6483
G1 X114.9060 Y102.9000 E0.6572
G1 X115.0830 Y102.9000 E0.6661
G1 X115.1180 Y102.8990 E0.6679
G1 X113.7070 Y101.4880 E0.7683
G1 X114.3860 Y101.4880 E0.8024
G1 X115.2610 Y102.3630 E0.8647
G1 X115.2610 Y101.6850 E0.8988
G1 X115.0640 Y101.4880 E0.9128
G1 X117.9940 Y107.8110 F11000 ; custom feedrate
G92 E0.0000
G1 X118.5120 Y108.3300 E0.0369 F5280 ; custom feedrate
G1 X118.5120 Y109.0080 E0.0710
G1 X117.3140 Y107.8110 E0.1562
G1 X117.0480 Y107.8140 E0.1697
G1 X117.0470 Y107.8200 E0.1701
G1 X117.0470 Y108.2220 E0.1903
G1 X118.5120 Y109.6870 E0.2945
G1 X118.5120 Y110.3660 E0.3287
G1 X117.0470 Y108.9010 E0.4329
G1 X117.0460 Y109.5790 E0.4670
G1 X118.5120 Y111.0450 E0.5712
G1 X118.5120 Y111.5170 E0.5950
G1 X118.3050 Y111.5170 E0.6054
G1 X117.0460 Y110.2580 E0.6949
G1 X117.0460 Y110.9360 E0.7291
G1 X117.6260 Y111.5170 E0.7704
G1 X115.8000 Y103.0720 F11000 ; custom feedrate
G92 E0.0000
G1 X118.4520 Y105.7240 E0.2357 F6600 ; custom feedrate
G1 X118.4520 Y107.2710 E0.3330
G1 X116.5080 Y107.2740 E0.4554
G1 X116.5070 Y107.2800 E0.4558
G1 X116.5070 Y108.0220 E0.5025
G1 X111.9250 Y103.4400 E0.9098
G1 X110.4130 Y103.4400 E1.0048
G1 X110.4140 Y101.9290 E1.0998
G1 X110.0330 Y101.5480 E1.1337
G1 X108.7580 Y101.5480 E1.2138
G1 X108.7590 Y103.4400 E1.3328
G1 X107.6830 Y103.4400 E1.4004
G1 X118.4520 Y114.2090 E2.3578
G1 X118.4520 Y118.4520 E2.6245
G1 X101.5480 Y101.5480 E4.1273
G1 X101.5480 Y105.7910 E4.3940
G1 X114.2090 Y118.4520 E5.5196
G1 X109.9670 Y118.4520 E5.7863
G1 X101.5480 Y110.0330 E6.5347
G1 X101.5480 Y114.2760 E6.8014
G1 X105.7240 Y118.4520 E7.1726
G92 E0.0000
G1 E-6 F2400 ; custom retraction
;layer 14, Z = 3.920
;fan14;
G1 Z3.920 F1200
G1 X101.2000 Y118.8000 F11000 ; custom feedrate
G1 E0 F2400 ; custom un-retraction/prime
G92 E0.0000
G1 X101.2000 Y101.2000 E0.8851 F5280 ; custom feedrate
G1 X103.8960 Y101.2000 E1.0207
G1 X103.8970 Y103.0910 E1.1158
G1 X107.9130 Y103.0910 E1.3178
G1 X107.9120 Y101.2000 E1.4129
G1 X111.2740 Y101.2000 E1.5820
G1 X111.2730 Y103.0910 E1.6771
G1 X115.4520 Y103.0910 E1.8872
G1 X115.4530 Y101.2000 E1.9824
G1 X118.8000 Y101.2000 E2.1507
G1 X118.8000 Y107.6290 E2.4739
G1 X116.8550 Y107.6280 E2.5718
G1 X116.8530 Y111.7090 E2.7770
G1 X118.8000 Y111.7090 E2.8749
G1 X118.8000 Y118.8000 E3.2315
G1 X101.2000 Y118.8000 E4.1165
G1 X100.7200 Y119.2800 F11000 ; custom feedrate
G92 E0.0000
G1 X100.7200 Y100.7200 E0.9334 F5280 ; custom feedrate
G1 X104.3760 Y100.7200 E1.1172
G1 X104.3770 Y102.6110 E1.2123
G1 X107.4330 Y102.6110 E1.3660
G1 X107.4320 Y100.7200 E1.4611
G1 X111.7540 Y100.7200 E1.6785
G1 X111.7540 Y102.6110 E1.7736
G1 X114.9730 Y102.6110 E1.9355
G1 X114.9740 Y100.7200 E2.0307
G1 X119.2800 Y100.7200 E2.2472
G1 X119.2800 Y108.1090 E2.6188
G1 X117.3350 Y108.1080 E2.7166
G1 X117.3340 Y111.2290 E2.8736
G1 X119.2800 Y111.2300 E2.9714
G1 X119.2800 Y119.2800 E3.3763
G1 X100.7200 Y119.2800 E4.3097
G1 X100.2400 Y119.7600 F11000 ; custom feedrate
G92 E0.0000
G1 X100.2400 Y100.2400 E0.9816 F3960 ; custom feedrate
G1 X104.8550 Y100.2400 E1.2138
G1 X104.8560 Y102.1310 E1.3089
G1 X106.9530 Y102.1310 E1.4143
G1 X106.9520 Y100.2400 E1.5094
G1 X112.2350 Y100.2400 E1.7751
G1 X112.2340 Y102.1310 E1.8702
G1 X114.4930 Y102.1310 E1.9838
G1 X114.4940 Y100.2400 E2.0789
G1 X119.7600 Y100.2400 E2.3438
G1 X119.7600 Y108.5890 E2.7636
G1 X117.8150 Y108.5880 E2.8615
G1 X117.8140 Y110.7490 E2.9701
G1 X119.7600 Y110.7500 E3.0680
G1 X119.7600 Y119.7600 E3.5211
G1 X100.2400 Y119.7600 E4.5028
G1 X108.3840 Y102.7910 F11000 ; custom feedrate
G92 E0.0000
G1 X108.2750 Y102.9000 E0.0078 F5280 ; custom feedrate
G1 X108.2010 Y102.9000 E0.0115
G1 X108.2010 Y102.2960 E0.0419
G1 X108.3840 Y102.1120 E0.0550
G1 X108.3840 Y101.4880 E0.0864
G1 X108.3300 Y101.4880 E0.0891
G1 X108.2000 Y101.6170 E0.0983
G1 X110.7840 Y101.7490 F11000 ; custom feedrate
G92 E0.0000
G1 X110.9860 Y101.5470 E0.0144 F5280 ; custom feedrate
G1 X110.9860 Y102.2260 E0.0485
G1 X110.7830 Y102.4280 E0.0629
G1 X101.5480 Y105.7240 F11000 ; custom feedrate
G92 E0.0000
G1 X103.8330 Y103.4390 E0.2031 F6600 ; custom feedrate
G1 X107.6610 Y103.4400 E0.4438
G1 X108.0740 Y103.4400 E0.4698
G1 X101.5480 Y109.9670 E1.0500
G1 X101.5480 Y114.2090 E1.3167
G1 X112.3180 Y103.4390 E2.2742
G1 X115.8000 Y103.4390 E2.4931
G1 X115.8010 Y101.5480 E2.6119
G1 X118.4520 Y101.5480 E2.7786
G1 X101.5480 Y118.4520 E4.2813
G1 X105.7910 Y118.4520 E4.5480
G1 X116.5070 Y107.7360 E5.5007
G1 X116.5050 Y111.9800 E5.7675
G1 X110.0330 Y118.4520 E6.3429
G1 X114.2760 Y118.4520 E6.6096
G1 X118.4520 Y114.2760 E6.9808
G92 E0.0000
G1 E-6 F2400 ; custom retraction
;layer 15, Z = 4.200
;fan15;
G1 Z4.200 F1200
G1 X118.8000 Y111.7060 F11000 ; custom feedrate
G1 E0 F2400 ; custom un-retraction/prime
G92 E0.0000
G1 X118.8000 Y118.8000 E0.3567 F5280 ; custom feedrate
G1 X101.2000 Y118.8000 E1.2418
G1 X101.2000 Y101.2000 E2.1269
G1 X104.0510 Y101.2000 E2.2703
G1 X104.0520 Y103.0920 E2.3654
G1 X108.0790 Y103.0920 E2.5679
G1 X108.0780 Y101.2000 E2.6631
G1 X111.1040 Y101.2000 E2.8152
G1 X111.1030 Y103.0920 E2.9104
G1 X115.2750 Y103.0920 E3.1202
G1 X115.2760 Y101.2000 E3.2153
G1 X118.8000 Y101.2000 E3.3925
G1 X118.8000 Y107.6260 E3.7157
G1 X116.8560 Y107.6250 E3.8135
G1 X116.8540 Y111.7060 E4.0187
G1 X118.8000 Y111.7060 E4.1165
G1 X119.2800 Y111.2270 F11000 ; custom feedrate
G92 E0.0000
G1 X119.2800 Y119.2800 E0.4050 F5280 ; custom feedrate
G1 X100.7200 Y119.2800 E1.3384
G1 X100.7200 Y100.7200 E2.2717
G1 X104.5310 Y100.7200 E2.4634
G1 X104.5320 Y102.6120 E2.5585
G1 X107.5990 Y102.6120 E2.7128
G1 X107.5980 Y100.7200 E2.8079
G1 X111.5840 Y100.7200 E3.0083
G1 X111.5830 Y102.6120 E3.1035
G1 X114.7960 Y102.6120 E3.2650
G1 X114.7970 Y100.7200 E3.3602
G1 X119.2800 Y100.7200 E3.5856
G1 X119.2800 Y108.1060 E3.9571
G1 X117.3350 Y108.1050 E4.0549
G1 X117.3340 Y111.2260 E4.2118
G1 X119.2800 Y111.2270 E4.3097
G1 X119.7600 Y110.7470 F11000 ; custom feedrate
G92 E0.0000
G1 X119.7600 Y119.7600 E0.4533 F3960 ; custom feedrate
G1 X100.2400 Y119.7600 E1.4349
G1 X100.2400 Y100.2400 E2.4166
G1 X105.0110 Y100.2400 E2.6565
G1 X105.0120 Y102.1320 E2.7516
G1 X107.1180 Y102.1320 E2.8576
G1 X107.1180 Y100.2400 E2.9527
G1 X112.0640 Y100.2400 E3.2015
G1 X112.0630 Y102.1320 E3.2966
G1 X114.3160 Y102.1320 E3.4099
G1 X114.3170 Y100.2400 E3.5050
G1 X119.7600 Y100.2400 E3.7787
G1 X119.7600 Y108.5860 E4.1984
G1 X117.8150 Y108.5850 E4.2963
G1 X117.8140 Y110.7460 E4.4049
G1 X119.7600 Y110.7470 E4.5028
G92 E0.0000
G1 E-6 F2400 ; custom retraction
;zhop1
G1 X117.8140 Y110.7460 F11000 ; custom feedrate
G1 X117.8150 Y108.9860
G1 X110.6130 Y102.4670
G1 Z4.200 F1200
G1 E0 F2400 ; custom un-retraction/prime
G92 E0.0000
G1 X110.8150 Y102.6690 E0.0144 F5280 ; custom feedrate
G1 X110.8150 Y101.9910 E0.0485
G1 X110.6130 Y101.7880 E0.0629
G1 X108.3660 Y101.5780 F11000 ; custom feedrate
G92 E0.0000
G1 X108.5500 Y101.7620 E0.0131 F5280 ; custom feedrate
G1 X108.5500 Y102.4410 E0.0472
G1 X108.3670 Y102.2570 E0.0603
G1 X115.6240 Y102.8960 F11000 ; custom feedrate
G92 E0.0000
G1 X118.4520 Y105.7240 E0.2515 F6600 ; custom feedrate
G1 X118.4520 Y107.2770 E0.3491
G1 X116.5080 Y107.2770 E0.4713
G1 X116.5070 Y108.0220 E0.5182
G1 X111.9250 Y103.4400 E0.9256
G1 X111.3550 Y103.4410 E0.9615
G1 X110.0720 Y103.4410 E1.0421
G1 X110.0730 Y101.5880 E1.1586
G1 X110.0330 Y101.5480 E1.1621
G1 X109.0900 Y101.5480 E1.2214
G1 X109.0910 Y103.4410 E1.3404
G1 X107.8270 Y103.4400 E1.4199
G1 X107.6820 Y103.4400 E1.4290
G1 X118.4520 Y114.2090 E2.3864
G1 X118.4520 Y118.4520 E2.6531
G1 X101.5480 Y101.5480 E4.1559
G1 X101.5480 Y105.7910 E4.4226
G1 X114.2090 Y118.4520 E5.5481
G1 X109.9670 Y118.4520 E5.8148
G1 X101.5480 Y110.0330 E6.5633
G1 X101.5480 Y114.2760 E6.8300
G1 X105.7240 Y118.4520 E7.2012
G92 E0.0000
G1 E-6 F2400 ; custom retraction
;layer 16, Z = 4.480
;fan16;
G1 Z4.480 F1200
G1 X101.2000 Y118.8000 F11000 ; custom feedrate
G1 E0 F2400 ; custom un-retraction/prime
G92 E0.0000
G1 X101.2000 Y101.2000 E0.8851 F5280 ; custom feedrate
G1 X104.2070 Y101.2000 E1.0363
G1 X104.2080 Y103.0920 E1.1314
G1 X108.2450 Y103.0920 E1.3345
G1 X108.2440 Y101.2000 E1.4296
G1 X110.9330 Y101.2000 E1.5648
G1 X110.9320 Y103.0920 E1.6600
G1 X115.0980 Y103.0920 E1.8695
G1 X115.0990 Y101.2000 E1.9646
G1 X118.8000 Y101.2000 E2.1508
G1 X118.8000 Y107.6230 E2.4737
G1 X116.8560 Y107.6220 E2.5715
G1 X116.8540 Y111.7030 E2.7767
G1 X118.8000 Y111.7030 E2.8746
G1 X118.8000 Y118.8000 E3.2315
G1 X101.2000 Y118.8000 E4.1165
G1 X100.7200 Y119.2800 F11000 ; custom feedrate
G92 E0.0000
G1 X100.7200 Y100.7200 E0.9334 F5280 ; custom feedrate
G1 X104.6870 Y100.7200 E1.1328
G1 X104.6870 Y102.6120 E1.2280
G1 X107.7650 Y102.6120 E1.3827
G1 X107.7640 Y100.7200 E1.4779
G1 X111.4130 Y100.7200 E1.6614
G1 X111.4120 Y102.6120 E1.7566
G1 X114.6190 Y102.6120 E1.9178
G1 X114.6200 Y100.7200 E2.0129
G1 X119.2800 Y100.7200 E2.2473
G1 X119.2800 Y108.1030 E2.6186
G1 X117.3360 Y108.1020 E2.7164
G1 X117.3340 Y111.2230 E2.8733
G1 X119.2800 Y111.2240 E2.9711
G1 X119.2800 Y119.2800 E3.3763
G1 X100.7200 Y119.2800 E4.3097
G1 X100.2400 Y119.7600 F11000 ; custom feedrate
G92 E0.0000
G1 X100.2400 Y100.2400 E0.9816 F3960 ; custom feedrate
G1 X105.1660 Y100.2400 E1.2294
G1 X105.1670 Y102.1320 E1.3245
G1 X107.2840 Y102.1320 E1.4310
G1 X107.2830 Y100.2400 E1.5261
G1 X111.8940 Y100.2400 E1.7580
G1 X111.8930 Y102.1320 E1.8531
G1 X114.1390 Y102.1320 E1.9661
G1 X114.1400 Y100.2400 E2.0612
G1 X119.7600 Y100.2400 E2.3439
G1 X119.7600 Y108.5830 E2.7634
G1 X117.8160 Y108.5820 E2.8612
G1 X117.8150 Y110.7430 E2.9699
G1 X119.7600 Y110.7440 E3.0677
G1 X119.7600 Y119.7600 E3.5211
G1 X100.2400 Y119.7600 E4.5028
G1 X108.5330 Y102.6430 F11000 ; custom feedrate
G92 E0.0000
G1 X108.7160 Y102.4590 E0.0130 F5280 ; custom feedrate
G1 X108.7160 Y101.7810 E0.0472
G1 X108.5320 Y101.9640 E0.0602
G1 X110.4420 Y102.0910 F11000 ; custom feedrate
G92 E0.0000
G1 X110.6450 Y101.8880 E0.0144 F5280 ; custom feedrate
G1 X110.6440 Y102.5670 E0.0485
G1 X110.4420 Y102.7700 E0.0629
G1 X101.5480 Y105.7240 F11000 ; custom feedrate
G92 E0.0000
G1 X103.8600 Y103.4120 E0.2055 F6600 ; custom feedrate
G1 X103.8600 Y103.4400 E0.2073
G1 X107.9930 Y103.4410 E0.4671
G1 X108.0740 Y103.4410 E0.4722
G1 X101.5480 Y109.9670 E1.0524
G1 X101.5480 Y114.2090 E1.3191
G1 X112.3180 Y103.4400 E2.2765
G1 X115.4460 Y103.4400 E2.4732
G1 X115.4470 Y101.5480 E2.5921
G1 X118.4520 Y101.5480 E2.7810
G1 X101.5480 Y118.4520 E4.2837
G1 X105.7910 Y118.4520 E4.5504
G1 X116.5080 Y107.7350 E5.5032
G1 X116.5060 Y111.9790 E5.7700
G1 X110.0330 Y118.4520 E6.3454
G1 X114.2760 Y118.4520 E6.6121
G1 X118.4520 Y114.2760 E6.9834
G92 E0.0000
G1 E-6 F2400 ; custom retraction
;layer 17, Z = 4.760
;fan17;
G1 Z4.760 F1200
G1 X118.8000 Y111.7000 F11000 ; custom feedrate
G1 E0 F2400 ; custom un-retraction/prime
G92 E0.0000
G1 X118.8000 Y118.8000 E0.3570 F5280 ; custom feedrate
G1 X101.2000 Y118.8000 E1.2421
G1 X101.2000 Y101.2000 E2.1272
G1 X104.3620 Y101.2000 E2.2862
G1 X104.3630 Y103.0920 E2.3814
G1 X108.4110 Y103.0920 E2.5850
G1 X108.4100 Y101.2000 E2.6801
G1 X110.7630 Y101.2000 E2.7984
G1 X110.7620 Y103.0920 E2.8936
G1 X114.9210 Y103.0920 E3.1028
G1 X114.9220 Y101.2000 E3.1979
G1 X118.8000 Y101.2000 E3.3929
G1 X118.8000 Y107.6200 E3.7158
G1 X116.8560 Y107.6190 E3.8135
G1 X116.8550 Y111.6990 E4.0187
G1 X118.8000 Y111.7000 E4.1166
G1 X119.2800 Y111.2210 F11000 ; custom feedrate
G92 E0.0000
G1 X119.2800 Y119.2800 E0.4053 F5280 ; custom feedrate
G1 X100.7200 Y119.2800 E1.3387
G1 X100.7200 Y100.7200 E2.2720
G1 X104.8420 Y100.7200 E2.4793
G1 X104.8430 Y102.6120 E2.5745
G1 X107.9300 Y102.6120 E2.7298
G1 X107.9300 Y100.7200 E2.8249
G1 X111.2430 Y100.7200 E2.9915
G1 X111.2420 Y102.6120 E3.0867
G1 X114.4420 Y102.6120 E3.2476
G1 X114.4430 Y100.7200 E3.3428
G1 X119.2800 Y100.7200 E3.5860
G1 X119.2800 Y108.1000 E3.9572
G1 X117.3360 Y108.0990 E4.0549
G1 X117.3350 Y111.2200 E4.2118
G1 X119.2800 Y111.2210 E4.3097
G1 X119.7600 Y110.7410 F11000 ; custom feedrate
G92 E0.0000
G1 X119.7600 Y119.7600 E0.4536 F3960 ; custom feedrate
G1 X100.2400 Y119.7600 E1.4352
G1 X100.2400 Y100.2400 E2.4169
G1 X105.3220 Y100.2400 E2.6724
G1 X105.3230 Y102.1320 E2.7676
G1 X107.4500 Y102.1320 E2.8746
G1 X107.4490 Y100.2400 E2.9697
G1 X111.7230 Y100.2400 E3.1847
G1 X111.7220 Y102.1320 E3.2798
G1 X113.9620 Y102.1320 E3.3924
G1 X113.9630 Y100.2400 E3.4876
G1 X119.7600 Y100.2400 E3.7791
G1 X119.7600 Y108.5800 E4.1985
G1 X117.8160 Y108.5790 E4.2963
G1 X117.8150 Y110.7400 E4.4050
G1 X119.7600 Y110.7410 E4.5028
G92 E0.0000
G1 E-6 F2400 ; custom retraction
;zhop1
G1 X117.8150 Y110.7400 F11000 ; custom feedrate
G1 X117.8160 Y108.5790
G1 X118.5930 Y108.5790
G1 X115.2100 Y102.3120
G1 Z4.760 F1200
G1 E0 F2400 ; custom un-retraction/prime
G92 E0.0000
G1 X115.2610 Y102.3630 E0.0036 F5280 ; custom feedrate
G1 X115.2610 Y101.6850 E0.0378
G1 X115.2100 Y101.6340 E0.0414
G1 X113.9620 Y101.5970 F11000 ; custom feedrate
G1 X113.9620 Y102.1320
G1 X111.7220 Y102.1320
G1 X111.7220 Y101.5300
G1 X110.3130 Y101.4880
G92 E0.0000
G1 X110.4740 Y101.6500 E0.0115 F5280 ; custom feedrate
G1 X110.4740 Y102.3280 E0.0456
G1 X110.2720 Y102.1260 E0.0600
G1 X110.2710 Y102.8040 E0.0941
G1 X110.3680 Y102.9010 E0.1010
G1 X108.6980 Y102.5890 F11000 ; custom feedrate
G92 E0.0000
G1 X108.8820 Y102.7730 E0.0131 F5280 ; custom feedrate
G1 X108.8820 Y102.0940 E0.0472
G1 X108.6980 Y101.9100 E0.0603
G1 X115.8000 Y103.0720 F11000 ; custom feedrate
G92 E0.0000
G1 X118.4520 Y105.7240 E0.2357 F6600 ; custom feedrate
G1 X118.4520 Y107.2710 E0.3330
G1 X116.5090 Y107.2710 E0.4552
G1 X116.5080 Y108.0230 E0.5025
G1 X111.9250 Y103.4400 E0.9099
G1 X111.0140 Y103.4410 E0.9673
G1 X109.7310 Y103.4410 E1.0479
G1 X109.7320 Y101.5480 E1.1669
G1 X109.4220 Y101.5480 E1.1864
G1 X109.4220 Y103.4410 E1.3054
G1 X108.1590 Y103.4400 E1.3849
G1 X107.6830 Y103.4400 E1.4148
G1 X118.4520 Y114.2090 E2.3722
G1 X118.4520 Y118.4520 E2.6389
G1 X101.5480 Y101.5480 E4.1417
G1 X101.5480 Y105.7910 E4.4084
G1 X114.2090 Y118.4520 E5.5339
G1 X109.9670 Y118.4520 E5.8006
G1 X101.5480 Y110.0330 E6.5491
G1 X101.5480 Y114.2760 E6.8158
G1 X105.7240 Y118.4520 E7.1870
G92 E0.0000
G1 E-6 F2400 ; custom retraction
;layer 18, Z = 5.040
;fan18;
G1 Z5.040 F1200
G1 X101.2000 Y118.8000 F11000 ; custom feedrate
G1 E0 F2400 ; custom un-retraction/prime
G92 E0.0000
G1 X101.2000 Y101.2000 E0.8851 F5280 ; custom feedrate
G1 X104.5180 Y101.2000 E1.0519
G1 X104.5190 Y103.0920 E1.1471
G1 X108.5770 Y103.0920 E1.3512
G1 X108.5760 Y101.2000 E1.4463
G1 X110.5920 Y101.2000 E1.5477
G1 X110.5910 Y103.0920 E1.6429
G1 X114.7440 Y103.0920 E1.8518
G1 X114.7450 Y101.2000 E1.9469
G1 X118.8000 Y101.2000 E2.1508
G1 X118.8000 Y107.6160 E2.4735
G1 X116.8570 Y107.6160 E2.5712
G1 X116.8550 Y111.6960 E2.7765
G1 X118.8000 Y111.6970 E2.8743
G1 X118.8000 Y118.8000 E3.2315
G1 X101.2000 Y118.8000 E4.1166
G1 X100.7200 Y119.2800 F11000 ; custom feedrate
G92 E0.0000
G1 X100.7200 Y100.7200 E0.9334 F5280 ; custom feedrate
G1 X104.9970 Y100.7200 E1.1485
G1 X104.9980 Y102.6120 E1.2436
G1 X108.0960 Y102.6120 E1.3994
G1 X108.0950 Y100.7200 E1.4946
G1 X111.0720 Y100.7200 E1.6443
G1 X111.0710 Y102.6120 E1.7395
G1 X114.2650 Y102.6120 E1.9001
G1 X114.2660 Y100.7200 E1.9952
G1 X119.2800 Y100.7200 E2.2474
G1 X119.2800 Y108.0970 E2.6184
G1 X117.3370 Y108.0960 E2.7161
G1 X117.3350 Y111.2170 E2.8730
G1 X119.2800 Y111.2170 E2.9708
G1 X119.2800 Y119.2800 E3.3763
G1 X100.7200 Y119.2800 E4.3097
G1 X100.2400 Y119.7600 F11000 ; custom feedrate
G92 E0.0000
G1 X100.2400 Y100.2400 E0.9816 F3960 ; custom feedrate
G1 X105.4770 Y100.2400 E1.2450
G1 X105.4780 Y102.1320 E1.3402
G1 X107.6160 Y102.1320 E1.4477
G1 X107.6150 Y100.2400 E1.5429
G1 X111.5520 Y100.2400 E1.7409
G1 X111.5510 Y102.1320 E1.8360
G1 X113.7850 Y102.1320 E1.9484
G1 X113.7860 Y100.2400 E2.0435
G1 X119.7600 Y100.2400 E2.3440
G1 X119.7600 Y108.5770 E2.7632
G1 X117.8160 Y108.5760 E2.8610
G1 X117.8160 Y110.7370 E2.9696
G1 X119.7600 Y110.7380 E3.0674
G1 X119.7600 Y119.7600 E3.5211
G1 X100.2400 Y119.7600 E4.5028
G1 X109.0480 Y102.8060 F11000 ; custom feedrate
G92 E0.0000
G1 X108.9530 Y102.9010 E0.0068 F5280 ; custom feedrate
G1 X108.8650 Y102.9010 E0.0112
G1 X108.8640 Y102.3110 E0.0409
G1 X109.0480 Y102.1280 E0.0539
G1 X109.0470 Y101.4880 E0.0861
G1 X109.0090 Y101.4880 E0.0881
G1 X108.8640 Y101.6330 E0.0983
G1 X110.1010 Y101.7530 F11000 ; custom feedrate
G92 E0.0000
G1 X110.3040 Y101.5500 E0.0144 F5280 ; custom feedrate
G1 X110.3030 Y102.2300 E0.0485
G1 X110.1010 Y102.4320 E0.0629
G1 X115.0840 Y102.8800 F11000 ; custom feedrate
G92 E0.0000
G1 X115.0640 Y102.9000 E0.0014 F5280 ; custom feedrate
G1 X115.0320 Y102.9000 E0.0030
G1 X115.0330 Y102.2520 E0.0355
G1 X115.0840 Y102.2010 E0.0392
G1 X115.0840 Y101.5220 E0.0733
G1 X115.0330 Y101.5730 E0.0770
G1 X118.4520 Y114.2760 F11000 ; custom feedrate
G92 E0.0000
G1 X114.2760 Y118.4520 E0.3712 F6600 ; custom feedrate
G1 X110.0330 Y118.4520 E0.6379
G1 X116.5070 Y111.9780 E1.2135
G1 X116.5090 Y107.7340 E1.4803
G1 X105.7910 Y118.4520 E2.4331
G1 X101.5480 Y118.4520 E2.6998
G1 X118.4520 Y101.5480 E4.2026
G1 X115.6240 Y101.5480 E4.3803
G1 X115.6230 Y103.4400 E4.4992
G1 X115.0920 Y103.4400 E4.5326
G1 X112.3170 Y103.4400 E4.7071
G1 X101.5480 Y114.2090 E5.6645
G1 X101.5480 Y109.9670 E5.9312
G1 X108.0740 Y103.4400 E6.5114
G1 X104.1710 Y103.4400 E6.7568
G1 X104.1710 Y103.1020 E6.7781
G1 X101.5480 Y105.7240 E7.0112
G92 E0.0000
G1 E-6 F2400 ; custom retraction
;layer 19, Z = 5.320
;fan19;
G1 Z5.320 F1200
G1 X104.6740 Y103.0930 F11000 ; custom feedrate
G1 E0 F2400 ; custom un-retraction/prime
G92 E0.0000
G1 X108.7420 Y103.0930 E0.2046 F5280 ; custom feedrate
G1 X108.7420 Y101.2000 E0.2998
G1 X110.4210 Y101.2000 E0.3843
G1 X110.4200 Y103.0930 E0.4794
G1 X114.5670 Y103.0930 E0.6880
G1 X114.5680 Y101.2000 E0.7832
G1 X118.8000 Y101.2000 E0.9960
G1 X118.8000 Y107.6130 E1.3185
G1 X116.8570 Y107.6130 E1.4162
G1 X116.8560 Y111.6930 E1.6214
G1 X118.8000 Y111.6940 E1.7192
G1 X118.8000 Y118.8000 E2.0765
G1 X101.2000 Y118.8000 E2.9616
G1 X101.2000 Y101.2000 E3.8467
G1 X104.6730 Y101.2000 E4.0214
G1 X104.6740 Y103.0930 E4.1166
G1 X105.1540 Y102.6130 F11000 ; custom feedrate
G92 E0.0000
G1 X108.2620 Y102.6130 E0.1563 F5280 ; custom feedrate
G1 X108.2610 Y100.7200 E0.2515
G1 X110.9020 Y100.7200 E0.3843
G1 X110.9010 Y102.6130 E0.4795
G1 X114.0880 Y102.6130 E0.6397
G1 X114.0880 Y100.7200 E0.7349
G1 X119.2800 Y100.7200 E0.9960
G1 X119.2800 Y108.0940 E1.3668
G1 X117.3370 Y108.0930 E1.4645
G1 X117.3360 Y111.2140 E1.6214
G1 X119.2800 Y111.2140 E1.7192
G1 X119.2800 Y119.2800 E2.1248
G1 X100.7200 Y119.2800 E3.0582
G1 X100.7200 Y100.7200 E3.9916
G1 X105.1530 Y100.7200 E4.2145
G1 X105.1540 Y102.6130 E4.3097
G1 X105.6340 Y102.1330 F11000 ; custom feedrate
G92 E0.0000
G1 X107.7820 Y102.1330 E0.1080 F3960 ; custom feedrate
G1 X107.7810 Y100.2400 E0.2032
G1 X111.3820 Y100.2400 E0.3843
G1 X111.3810 Y102.1330 E0.4795
G1 X113.6080 Y102.1330 E0.5915
G1 X113.6090 Y100.2400 E0.6866
G1 X119.7600 Y100.2400 E0.9960
G1 X119.7600 Y108.5740 E1.4151
G1 X117.8170 Y108.5730 E1.5128
G1 X117.8160 Y110.7340 E1.6215
G1 X119.7600 Y110.7350 E1.7192
G1 X119.7600 Y119.7600 E2.1731
G1 X100.2400 Y119.7600 E3.1548
G1 X100.2400 Y100.2400 E4.1364
G1 X105.6330 Y100.2400 E4.4076
G1 X105.6340 Y102.1330 E4.5028
G1 X109.0300 Y102.2420 F11000 ; custom feedrate
G92 E0.0000
G1 X109.2140 Y102.4250 E0.0131 F5280 ; custom feedrate
G1 X109.2130 Y101.7460 E0.0472
G1 X109.0300 Y101.5630 E0.0603
G1 X109.9310 Y101.7850 F11000 ; custom feedrate
G92 E0.0000
G1 X110.1330 Y101.9870 E0.0144 F5280 ; custom feedrate
G1 X110.1330 Y102.6660 E0.0485
G1 X109.9300 Y102.4630 E0.0629
G1 X114.8550 Y102.6370 F11000 ; custom feedrate
G92 E0.0000
G1 X114.9070 Y102.6880 E0.0036 F5280 ; custom feedrate
G1 X114.9070 Y102.0090 E0.0378
G1 X114.8560 Y101.9580 E0.0414
G1 X115.4470 Y102.7190 F11000 ; custom feedrate
G92 E0.0000
G1 X118.4520 Y105.7240 E0.2672 F6600 ; custom feedrate
G1 X118.4520 Y107.2650 E0.3641
G1 X116.5090 Y107.2640 E0.4862
G1 X116.5090 Y108.0240 E0.5339
G1 X111.9260 Y103.4410 E0.9414
G1 X110.6720 Y103.4420 E1.0202
G1 X108.4910 Y103.4410 E1.1574
G1 X107.6830 Y103.4410 E1.2082
G1 X118.4520 Y114.2090 E2.1655
G1 X118.4520 Y118.4520 E2.4322
G1 X101.5480 Y101.5480 E3.9350
G1 X101.5480 Y105.7910 E4.2017
G1 X114.2090 Y118.4520 E5.3273
G1 X109.9670 Y118.4520 E5.5940
G1 X101.5480 Y110.0330 E6.3424
G1 X101.5480 Y114.2760 E6.6091
G1 X105.7240 Y118.4520 E6.9804
G92 E0.0000
G1 E-6 F2400 ; custom retraction
;layer 20, Z = 5.600
;fan20;
G1 Z5.600 F1200
G1 X101.2000 Y118.8000 F11000 ; custom feedrate
G1 E0 F2400 ; custom un-retraction/prime
G92 E0.0000
G1 X101.2000 Y101.2000 E0.8851 F5280 ; custom feedrate
G1 X104.8280 Y101.2000 E1.0676
G1 X104.8290 Y103.0930 E1.1628
G1 X108.9080 Y103.0930 E1.3679
G1 X108.9070 Y101.2000 E1.4631
G1 X110.2510 Y101.2000 E1.5306
G1 X110.2500 Y103.0930 E1.6258
G1 X114.3900 Y103.0930 E1.8340
G1 X114.3910 Y101.2000 E1.9292
G1 X118.8000 Y101.2000 E2.1509
G1 X118.8000 Y107.6100 E2.4733
G1 X116.8580 Y107.6100 E2.5710
G1 X116.8560 Y111.6900 E2.7762
G1 X118.8000 Y111.6910 E2.8740
G1 X118.8000 Y118.8000 E3.2315
G1 X101.2000 Y118.8000 E4.1166
G1 X100.7200 Y119.2800 F11000 ; custom feedrate
G92 E0.0000
G1 X100.7200 Y100.7200 E0.9334 F5280 ; custom feedrate
G1 X105.3080 Y100.7200 E1.1641
G1 X105.3090 Y102.6130 E1.2593
G1 X108.4280 Y102.6130 E1.4162
G1 X108.4270 Y100.7200 E1.5113
G1 X110.7310 Y100.7200 E1.6272
G1 X110.7300 Y102.6130 E1.7224
G1 X113.9100 Y102.6130 E1.8823
G1 X113.9110 Y100.7200 E1.9775
G1 X119.2800 Y100.7200 E2.2475
G1 X119.2800 Y108.0910 E2.6182
G1 X117.3380 Y108.0900 E2.7158
G1 X117.3360 Y111.2110 E2.8728
G1 X119.2800 Y111.2110 E2.9705
G1 X119.2800 Y119.2800 E3.3763
G1 X100.7200 Y119.2800 E4.3097
G1 X100.2400 Y119.7600 F11000 ; custom feedrate
G92 E0.0000
G1 X100.2400 Y100.2400 E0.9816 F3960 ; custom feedrate
G1 X105.7880 Y100.2400 E1.2607
G1 X105.7890 Y102.1330 E1.3558
G1 X107.9480 Y102.1330 E1.4644
G1 X107.9470 Y100.2400 E1.5596
G1 X111.2110 Y100.2400 E1.7238
G1 X111.2100 Y102.1330 E1.8190
G1 X113.4310 Y102.1330 E1.9306
G1 X113.4320 Y100.2400 E2.0258
G1 X119.7600 Y100.2400 E2.3441
G1 X119.7600 Y108.5710 E2.7630
G1 X117.8170 Y108.5700 E2.8607
G1 X117.8160 Y110.7310 E2.9694
G1 X119.7600 Y110.7320 E3.0671
G1 X119.7600 Y119.7600 E3.5211
G1 X100.2400 Y119.7600 E4.5028
G1 X109.9620 Y102.5710 F11000 ; custom feedrate
G92 E0.0000
G1 X109.6310 Y102.9020 E0.0235 F5280 ; custom feedrate
G1 X109.1960 Y102.9020 E0.0454
G1 X109.1960 Y102.6580 E0.0577
G1 X109.9620 Y101.8920 E0.1122
G1 X109.9630 Y101.4880 E0.1325
G1 X109.6870 Y101.4880 E0.1463
G1 X109.1960 Y101.9800 E0.1813
G1 X111.2100 Y101.9600 F11000 ; custom feedrate
G1 X111.2100 Y102.1330
G1 X113.4310 Y102.1330
G1 X113.4310 Y101.9390
G1 X114.6790 Y101.9270
G92 E0.0000
G1 X114.7300 Y101.8760 E0.0036 F5280 ; custom feedrate
G1 X114.7300 Y102.5550 E0.0378
G1 X114.6780 Y102.6060 E0.0414
G1 X118.4520 Y114.2760 F11000 ; custom feedrate
G92 E0.0000
G1 X114.2760 Y118.4520 E0.3712 F6600 ; custom feedrate
G1 X110.0330 Y118.4520 E0.6379
G1 X116.5080 Y111.9780 E1.2135
G1 X116.5100 Y107.7330 E1.4803
G1 X105.7910 Y118.4520 E2.4333
G1 X101.5480 Y118.4520 E2.7000
G1 X118.4520 Y101.5480 E4.2027
G1 X115.2700 Y101.5480 E4.4027
G1 X115.2690 Y103.4400 E4.5217
G1 X114.7380 Y103.4400 E4.5551
G1 X112.3170 Y103.4410 E4.7073
G1 X101.5480 Y114.2090 E5.6647
G1 X101.5480 Y109.9670 E5.9314
G1 X108.0740 Y103.4410 E6.5115
G1 X104.4820 Y103.4410 E6.7373
G1 X104.4810 Y102.7910 E6.7782
G1 X101.5480 Y105.7240 E7.0390
G92 E0.0000
G1 E-6 F2400 ; custom retraction
;layer 21, Z = 5.880
;fan21;
G1 Z5.880 F1200
G1 X104.9850 Y103.0930 F11000 ; custom feedrate
G1 E0 F2400 ; custom un-retraction/prime
G92 E0.0000
G1 X109.0740 Y103.0930 E0.2057 F5280 ; custom feedrate
G1 X109.0730 Y101.2000 E0.3009
G1 X110.0800 Y101.2000 E0.3515
G1 X110.0790 Y103.0930 E0.4467
G1 X114.2130 Y103.0930 E0.6546
G1 X114.2140 Y101.2000 E0.7498
G1 X118.8000 Y101.2000 E0.9804
G1 X118.8000 Y107.6070 E1.3026
G1 X116.8580 Y107.6070 E1.4003
G1 X116.8560 Y111.6870 E1.6055
G1 X118.8000 Y111.6880 E1.7032
G1 X118.8000 Y118.8000 E2.0609
G1 X101.2000 Y118.8000 E2.9460
G1 X101.2000 Y101.2000 E3.8311
G1 X104.9840 Y101.2000 E4.0214
G1 X104.9850 Y103.0930 E4.1166
G1 X105.4650 Y102.6130 F11000 ; custom feedrate
G92 E0.0000
G1 X108.5940 Y102.6130 E0.1574 F5280 ; custom feedrate
G1 X108.5930 Y100.7200 E0.2526
G1 X110.5600 Y100.7200 E0.3515
G1 X110.5600 Y102.6130 E0.4467
G1 X113.7330 Y102.6130 E0.6063
G1 X113.7340 Y100.7200 E0.7015
G1 X119.2800 Y100.7200 E0.9804
G1 X119.2800 Y108.0880 E1.3509
G1 X117.3380 Y108.0870 E1.4486
G1 X117.3370 Y111.2080 E1.6055
G1 X119.2800 Y111.2080 E1.7033
G1 X119.2800 Y119.2800 E2.1092
G1 X100.7200 Y119.2800 E3.0426
G1 X100.7200 Y100.7200 E3.9759
G1 X105.4640 Y100.7200 E4.2145
G1 X105.4650 Y102.6130 E4.3097
G1 X105.9440 Y102.1330 F11000 ; custom feedrate
G92 E0.0000
G1 X108.1140 Y102.1330 E0.1091 F3960 ; custom feedrate
G1 X108.1130 Y100.2400 E0.2043
G1 X111.0410 Y100.2400 E0.3515
G1 X111.0400 Y102.1330 E0.4467
G1 X113.2540 Y102.1330 E0.5581
G1 X113.2550 Y100.2400 E0.6533
G1 X119.7600 Y100.2400 E0.9804
G1 X119.7600 Y108.5680 E1.3992
G1 X117.8180 Y108.5670 E1.4969
G1 X117.8170 Y110.7280 E1.6056
G1 X119.7600 Y110.7290 E1.7033
G1 X119.7600 Y119.7600 E2.1575
G1 X100.2400 Y119.7600 E3.1391
G1 X100.2400 Y100.2400 E4.1208
G1 X105.9430 Y100.2400 E4.4076
G1 X105.9440 Y102.1330 E4.5028
G1 X108.1140 Y102.1330 F11000 ; custom feedrate
G1 X108.1140 Y101.7540
G1 X109.6340 Y101.4880
G92 E0.0000
G1 X109.7920 Y101.6460 E0.0112 F5280 ; custom feedrate
G1 X109.7920 Y102.3250 E0.0454
G1 X109.3620 Y101.8950 E0.0759
G1 X109.3620 Y102.5740 E0.1101
G1 X109.6900 Y102.9020 E0.1334
G1 X114.5020 Y102.2830 F11000 ; custom feedrate
G92 E0.0000
G1 X114.5530 Y102.3340 E0.0036 F5280 ; custom feedrate
G1 X114.5530 Y101.6550 E0.0378
G1 X114.5020 Y101.6040 E0.0414
G1 X115.0930 Y102.3650 F11000 ; custom feedrate
G92 E0.0000
G1 X118.4520 Y105.7240 E0.2986 F6600 ; custom feedrate
G1 X118.4520 Y107.2590 E0.3951
G1 X116.5100 Y107.2580 E0.5172
G1 X116.5100 Y108.0250 E0.5654
G1 X111.9260 Y103.4410 E0.9729
G1 X110.3310 Y103.4420 E1.0732
G1 X108.8220 Y103.4410 E1.1681
G1 X107.6840 Y103.4410 E1.2397
G1 X118.4520 Y114.2090 E2.1970
G1 X118.4520 Y118.4520 E2.4637
G1 X101.5480 Y101.5480 E3.9664
G1 X101.5480 Y105.7910 E4.2331
G1 X114.2090 Y118.4520 E5.3587
G1 X109.9670 Y118.4520 E5.6254
G1 X101.5480 Y110.0330 E6.3739
G1 X101.5480 Y114.2760 E6.6405
G1 X105.7240 Y118.4520 E7.0118
G92 E0.0000
G1 E-6 F2400 ; custom retraction
;layer 22, Z = 6.160
;fan22;
G1 Z6.160 F1200
G1 X101.2000 Y118.8000 F11000 ; custom feedrate
G1 E0 F2400 ; custom un-retraction/prime
G92 E0.0000
G1 X101.2000 Y101.2000 E0.8851 F5280 ; custom feedrate
G1 X105.1390 Y101.2000 E1.0832
G1 X105.1400 Y103.0930 E1.1784
G1 X109.2400 Y103.0930 E1.3846
G1 X109.2390 Y101.2000 E1.4798
G1 X109.9100 Y101.2000 E1.5135
G1 X109.9090 Y103.0930 E1.6087
G1 X114.0360 Y103.0930 E1.8163
G1 X114.0370 Y101.2000 E1.9115
G1 X118.8000 Y101.2000 E2.1510
G1 X118.8000 Y107.6040 E2.4731
G1 X116.8590 Y107.6040 E2.5707
G1 X116.8570 Y111.6840 E2.7760
G1 X118.8000 Y111.6850 E2.8737
G1 X118.8000 Y118.8000 E3.2315
G1 X101.2000 Y118.8000 E4.1166
G1 X100.7200 Y119.2800 F11000 ; custom feedrate
G92 E0.0000
G1 X100.7200 Y100.7200 E0.9334 F5280 ; custom feedrate
G1 X105.6190 Y100.7200 E1.1797
G1 X105.6200 Y102.6130 E1.2750
G1 X108.7600 Y102.6130 E1.4329
G1 X108.7590 Y100.7200 E1.5281
G1 X110.3900 Y100.7200 E1.6101
G1 X110.3890 Y102.6130 E1.7053
G1 X113.5560 Y102.6130 E1.8646
G1 X113.5570 Y100.7200 E1.9598
G1 X119.2800 Y100.7200 E2.2476
G1 X119.2800 Y108.0850 E2.6179
G1 X117.3380 Y108.0840 E2.7156
G1 X117.3370 Y111.2050 E2.8725
G1 X119.2800 Y111.2050 E2.9702
G1 X119.2800 Y119.2800 E3.3763
G1 X100.7200 Y119.2800 E4.3097
G1 X100.2400 Y119.7600 F11000 ; custom feedrate
G92 E0.0000
G1 X100.2400 Y100.2400 E0.9816 F3960 ; custom feedrate
G1 X106.0990 Y100.2400 E1.2763
G1 X106.1000 Y102.1330 E1.3715
G1 X108.2800 Y102.1330 E1.4811
G1 X108.2790 Y100.2400 E1.5763
G1 X110.8700 Y100.2400 E1.7067
G1 X110.8690 Y102.1330 E1.8019
G1 X113.0770 Y102.1330 E1.9129
G1 X113.0780 Y100.2400 E2.0081
G1 X119.7600 Y100.2400 E2.3441
G1 X119.7600 Y108.5650 E2.7628
G1 X117.8180 Y108.5640 E2.8604
G1 X117.8170 Y110.7250 E2.9691
G1 X119.7600 Y110.7260 E3.0668
G1 X119.7600 Y119.7600 E3.5211
G1 X100.2400 Y119.7600 E4.5028
G1 X109.5280 Y102.3260 F11000 ; custom feedrate
G92 E0.0000
G1 X109.6210 Y102.2330 E0.0066 F5280 ; custom feedrate
G1 X109.6210 Y101.5540 E0.0408
G1 X109.5270 Y101.6480 E0.0475
G1 X110.8690 Y101.6350 F11000 ; custom feedrate
G1 X110.8690 Y102.1330
G1 X113.0770 Y102.1330
G1 X113.0770 Y101.6140
G1 X114.3250 Y101.6020
G92 E0.0000
G1 X114.3760 Y101.5510 E0.0036 F5280 ; custom feedrate
G1 X114.3760 Y102.2300 E0.0378
G1 X114.3250 Y102.2810 E0.0414
G1 X118.4520 Y114.2760 F11000 ; custom feedrate
G92 E0.0000
G1 X114.2760 Y118.4520 E0.3712 F6600 ; custom feedrate
G1 X110.0330 Y118.4520 E0.6379
G1 X116.5090 Y111.9770 E1.2136
G1 X116.5110 Y107.7320 E1.4804
G1 X105.7910 Y118.4520 E2.4334
G1 X101.5480 Y118.4520 E2.7001
G1 X118.4520 Y101.5480 E4.2029
G1 X114.9160 Y101.5480 E4.4252
G1 X114.9150 Y103.4410 E4.5441
G1 X114.3840 Y103.4410 E4.5775
G1 X112.3160 Y103.4410 E4.7075
G1 X101.5480 Y114.2090 E5.6648
G1 X101.5480 Y109.9670 E5.9315
G1 X108.0730 Y103.4410 E6.5116
G1 X104.7920 Y103.4410 E6.7179
G1 X104.7920 Y102.4800 E6.7783
G1 X101.5480 Y105.7240 E7.0667
G92 E0.0000
G1 E-6 F2400 ; custom retraction
;layer 23, Z = 6.440
;fan23;
G1 Z6.440 F1200
G1 X101.2000 Y101.2000 F11000 ; custom feedrate
G1 E0 F2400 ; custom un-retraction/prime
G92 E0.0000
G1 X105.2950 Y101.2000 E0.2059 F5280 ; custom feedrate
G1 X105.2960 Y103.0940 E0.3011
G1 X113.8590 Y103.0940 E0.7318
G1 X113.8600 Y101.2000 E0.8270
G1 X118.8000 Y101.2000 E1.0754
G1 X118.8000 Y107.6010 E1.3974
G1 X116.8590 Y107.6000 E1.4950
G1 X116.8570 Y111.6810 E1.7002
G1 X118.8000 Y111.6820 E1.7979
G1 X118.8000 Y118.8000 E2.1558
G1 X101.2000 Y118.8000 E3.0409
G1 X101.2000 Y101.2000 E3.9260
G1 X100.7200 Y100.7200 F11000 ; custom feedrate
G92 E0.0000
G1 X105.7750 Y100.7200 E0.2542 F5280 ; custom feedrate
G1 X105.7750 Y102.6140 E0.3494
G1 X108.9260 Y102.6140 E0.5078
G1 X108.9250 Y100.7200 E0.6031
G1 X110.2190 Y100.7200 E0.6682
G1 X110.2180 Y102.6140 E0.7634
G1 X113.3790 Y102.6140 E0.9224
G1 X113.3800 Y100.7200 E1.0176
G1 X119.2800 Y100.7200 E1.3143
G1 X119.2800 Y108.0820 E1.6845
G1 X117.3390 Y108.0810 E1.7821
G1 X117.3370 Y111.2010 E1.9390
G1 X119.2800 Y111.2020 E2.0367
G1 X119.2800 Y119.2800 E2.4429
G1 X100.7200 Y119.2800 E3.3763
G1 X100.7200 Y100.7200 E4.3097
G1 X100.2400 Y100.2400 F11000 ; custom feedrate
G92 E0.0000
G1 X106.2540 Y100.2400 E0.3025 F3960 ; custom feedrate
G1 X106.2550 Y102.1340 E0.3977
G1 X108.4460 Y102.1340 E0.5078
G1 X108.4450 Y100.2400 E0.6031
G1 X110.7000 Y100.2400 E0.7165
G1 X110.6990 Y102.1340 E0.8117
G1 X112.9000 Y102.1340 E0.9224
G1 X112.9010 Y100.2400 E1.0176
G1 X119.7600 Y100.2400 E1.3625
G1 X119.7600 Y108.5620 E1.7810
G1 X117.8190 Y108.5610 E1.8787
G1 X117.8180 Y110.7220 E1.9873
G1 X119.7600 Y110.7230 E2.0850
G1 X119.7600 Y119.7600 E2.5395
G1 X100.2400 Y119.7600 E3.5211
G1 X100.2400 Y100.2400 E4.5028
G1 X106.2550 Y101.7050 F11000 ; custom feedrate
G1 X106.2550 Y102.1340
G1 X108.0150 Y102.1340
G1 X109.2140 Y102.4250
G92 E0.0000
G1 X109.5890 Y102.8010 E0.0267 F6600 ; custom feedrate
G1 X109.9300 Y102.8010 E0.0439
G1 X109.9300 Y102.4630 E0.0608
G1 X109.2130 Y101.7460 E0.1118
G1 X109.2130 Y101.0670 E0.1460
G1 X109.9310 Y101.7850 E0.1970
G1 X109.9310 Y101.1060 E0.2311
G1 X109.8330 Y101.0080 E0.2381
G1 X110.6990 Y101.1930 F11000 ; custom feedrate
G1 X110.6990 Y102.1340
G1 X112.9000 Y102.1340
G1 X112.9000 Y101.6630
G1 X114.1480 Y101.9290
G92 E0.0000
G1 X114.1990 Y101.9800 E0.0036 F5280 ; custom feedrate
G1 X114.1980 Y102.6580 E0.0378
G1 X114.1470 Y102.6070 E0.0414
G1 X114.7390 Y102.0110 F11000 ; custom feedrate
G92 E0.0000
G1 X118.4520 Y105.7240 E0.3301 F6600 ; custom feedrate
G1 X118.4520 Y107.2530 E0.4262
G1 X116.5110 Y107.2520 E0.5482
G1 X116.5110 Y108.0260 E0.5968
G1 X111.9270 Y103.4420 E1.0044
G1 X107.6840 Y103.4420 E1.2711
G1 X118.4520 Y114.2090 E2.2283
G1 X118.4520 Y118.4520 E2.4950
G1 X101.5480 Y101.5480 E3.9978
G1 X101.5480 Y105.7910 E4.2645
G1 X114.2090 Y118.4520 E5.3901
G1 X109.9670 Y118.4520 E5.6568
G1 X101.5480 Y110.0330 E6.4052
G1 X101.5480 Y114.2760 E6.6719
G1 X105.7240 Y118.4520 E7.0431
G92 E0.0000
G1 E-6 F2400 ; custom retraction
;layer 24, Z = 6.720
;fan24;
G1 Z6.720 F1200
G1 X101.2000 Y118.8000 F11000 ; custom feedrate
G1 E0 F2400 ; custom un-retraction/prime
G92 E0.0000
G1 X101.2000 Y101.2000 E0.8851 F5280 ; custom feedrate
G1 X105.4500 Y101.2000 E1.0988
G1 X105.4510 Y103.0940 E1.1941
G1 X113.6820 Y103.0940 E1.6080
G1 X113.6830 Y101.2000 E1.7032
G1 X118.8000 Y101.2000 E1.9606
G1 X118.8000 Y107.5980 E2.2823
G1 X116.8590 Y107.5970 E2.3799
G1 X116.8580 Y111.6780 E2.5851
G1 X118.8000 Y111.6790 E2.6828
G1 X118.8000 Y118.8000 E3.0409
G1 X101.2000 Y118.8000 E3.9260
G1 X100.7200 Y119.2800 F11000 ; custom feedrate
G92 E0.0000
G1 X100.7200 Y100.7200 E0.9334 F5280 ; custom feedrate
G1 X105.9300 Y100.7200 E1.1954
G1 X105.9310 Y102.6140 E1.2906
G1 X109.0920 Y102.6140 E1.4496
G1 X109.0910 Y100.7200 E1.5448
G1 X110.0490 Y100.7200 E1.5930
G1 X110.0480 Y102.6140 E1.6882
G1 X113.2020 Y102.6140 E1.8469
G1 X113.2030 Y100.7200 E1.9421
G1 X119.2800 Y100.7200 E2.2477
G1 X119.2800 Y108.0780 E2.6177
G1 X117.3390 Y108.0780 E2.7153
G1 X117.3380 Y111.1980 E2.8723
G1 X119.2800 Y111.1990 E2.9699
G1 X119.2800 Y119.2800 E3.3763
G1 X100.7200 Y119.2800 E4.3097
G1 X100.2400 Y119.7600 F11000 ; custom feedrate
G92 E0.0000
G1 X100.2400 Y100.2400 E0.9816 F3960 ; custom feedrate
G1 X106.4100 Y100.2400 E1.2919
G1 X106.4110 Y102.1340 E1.3872
G1 X108.6110 Y102.1340 E1.4978
G1 X108.6110 Y100.2400 E1.5931
G1 X110.5290 Y100.2400 E1.6896
G1 X110.5280 Y102.1340 E1.7848
G1 X112.7230 Y102.1340 E1.8951
G1 X112.7240 Y100.2400 E1.9904
G1 X119.7600 Y100.2400 E2.3442
G1 X119.7600 Y108.5590 E2.7626
G1 X117.8190 Y108.5580 E2.8602
G1 X117.8180 Y110.7190 E2.9689
G1 X119.7600 Y110.7190 E3.0665
G1 X119.7600 Y119.7600 E3.5212
G1 X100.2400 Y119.7600 E4.5028
G1 X109.7320 Y102.8010 F11000 ; custom feedrate
G92 E0.0000
G1 X109.7600 Y102.7730 E0.0020 F6600 ; custom feedrate
G1 X109.7600 Y102.0940 E0.0361
G1 X109.3800 Y102.4750 E0.0632
G1 X109.3790 Y101.7960 E0.0973
G1 X109.7600 Y101.4150 E0.1244
G1 X109.7610 Y101.0080 E0.1449
G1 X109.4890 Y101.0080 E0.1586
G1 X109.3790 Y101.1180 E0.1663
G1 X110.5280 Y101.3280 F11000 ; custom feedrate
G1 X110.5280 Y102.1340
G1 X112.7230 Y102.1340
G1 X112.7230 Y101.7280
G1 X113.9710 Y101.9560
G92 E0.0000
G1 X114.0220 Y101.9050 E0.0036 F5280 ; custom feedrate
G1 X114.0210 Y102.5840 E0.0378
G1 X113.9700 Y102.6360 E0.0414
G1 X118.4520 Y114.2760 F11000 ; custom feedrate
G92 E0.0000
G1 X114.2760 Y118.4520 E0.3712 F6600 ; custom feedrate
G1 X110.0330 Y118.4520 E0.6379
G1 X116.5100 Y111.9760 E1.2137
G1 X116.5110 Y107.7310 E1.4805
G1 X105.7910 Y118.4520 E2.4336
G1 X101.5480 Y118.4520 E2.7003
G1 X118.4520 Y101.5480 E4.2030
G1 X114.5620 Y101.5480 E4.4476
G1 X114.5610 Y103.4410 E4.5666
G1 X114.0300 Y103.4410 E4.6000
G1 X112.3160 Y103.4420 E4.7078
G1 X101.5480 Y114.2090 E5.6650
G1 X101.5480 Y109.9670 E5.9317
G1 X108.0730 Y103.4420 E6.5118
G1 X105.1030 Y103.4420 E6.6985
G1 X105.1030 Y102.1690 E6.7784
G1 X101.5480 Y105.7240 E7.0944
G92 E0.0000
G1 E-6 F2400 ; custom retraction
;layer 25, Z = 7.000
;fan25;
G1 Z7.000 F1200
G1 X101.2000 Y101.2000 F11000 ; custom feedrate
G1 E0 F2400 ; custom un-retraction/prime
G92 E0.0000
G1 X105.6060 Y101.2000 E0.2216 F5280 ; custom feedrate
G1 X105.6070 Y103.0940 E0.3168
G1 X113.5050 Y103.0940 E0.7140
G1 X113.5060 Y101.2000 E0.8093
G1 X118.8000 Y101.2000 E1.0755
G1 X118.8000 Y107.5950 E1.3971
G1 X116.8600 Y107.5940 E1.4947
G1 X116.8580 Y111.6750 E1.6999
G1 X118.8000 Y111.6760 E1.7975
G1 X118.8000 Y118.8000 E2.1558
G1 X101.2000 Y118.8000 E3.0409
G1 X101.2000 Y101.2000 E3.9260
G1 X100.7200 Y100.7200 F11000 ; custom feedrate
G92 E0.0000
G1 X106.0850 Y100.7200 E0.2698 F5280 ; custom feedrate
G1 X106.0860 Y102.6140 E0.3651
G1 X109.2580 Y102.6140 E0.5246
G1 X109.2570 Y100.7200 E0.6198
G1 X109.8780 Y100.7200 E0.6511
G1 X109.8770 Y102.6140 E0.7463
G1 X113.0250 Y102.6140 E0.9046
G1 X113.0260 Y100.7200 E0.9999
G1 X119.2800 Y100.7200 E1.3144
G1 X119.2800 Y108.0750 E1.6843
G1 X117.3400 Y108.0750 E1.7818
G1 X117.3380 Y111.1950 E1.9388
G1 X119.2800 Y111.1960 E2.0364
G1 X119.2800 Y119.2800 E2.4430
G1 X100.7200 Y119.2800 E3.3763
G1 X100.7200 Y100.7200 E4.3097
G1 X100.2400 Y100.2400 F11000 ; custom feedrate
G92 E0.0000
G1 X106.5650 Y100.2400 E0.3181 F3960 ; custom feedrate
G1 X106.5660 Y102.1340 E0.4133
G1 X108.7770 Y102.1340 E0.5245
G1 X108.7760 Y100.2400 E0.6198
G1 X110.3580 Y100.2400 E0.6993
G1 X110.3570 Y102.1340 E0.7946
G1 X112.5460 Y102.1340 E0.9046
G1 X112.5470 Y100.2400 E0.9999
G1 X119.7600 Y100.2400 E1.3626
G1 X119.7600 Y108.5560 E1.7808
G1 X117.8190 Y108.5550 E1.8784
G1 X117.8190 Y110.7160 E1.9871
G1 X119.7600 Y110.7160 E2.0847
G1 X119.7600 Y119.7600 E2.5395
G1 X100.2400 Y119.7600 E3.5212
G1 X100.2400 Y100.2400 E4.5028
G1 X106.5660 Y101.0280 F11000 ; custom feedrate
G1 X106.5660 Y102.1340
G1 X108.7770 Y102.1340
G1 X108.7770 Y101.3030
G1 X109.5450 Y101.3990
G92 E0.0000
G1 X109.5900 Y101.4440 E0.0032 F6600 ; custom feedrate
G1 X109.5890 Y102.1220 E0.0373
G1 X109.5450 Y102.0780 E0.0405
G1 X109.5460 Y102.7570 E0.0746
G1 X109.5890 Y102.8010 E0.0777
G1 X113.7930 Y102.2530 F11000 ; custom feedrate
G92 E0.0000
G1 X113.8450 Y102.3050 E0.0036 F5280 ; custom feedrate
G1 X113.8450 Y101.6260 E0.0378
G1 X113.7940 Y101.5750 E0.0414
G1 X114.3850 Y101.6570 F11000 ; custom feedrate
G92 E0.0000
G1 X118.4520 Y105.7240 E0.3616 F6600 ; custom feedrate
G1 X118.4520 Y107.2470 E0.4573
G1 X116.5120 Y107.2460 E0.5793
G1 X116.5120 Y108.0260 E0.6283
G1 X111.9270 Y103.4420 E1.0359
G1 X107.6850 Y103.4420 E1.3025
G1 X118.4520 Y114.2090 E2.2598
G1 X118.4520 Y118.4520 E2.5265
G1 X101.5480 Y101.5480 E4.0292
G1 X101.5480 Y105.7910 E4.2959
G1 X114.2090 Y118.4520 E5.4215
G1 X109.9670 Y118.4520 E5.6882
G1 X101.5480 Y110.0330 E6.4366
G1 X101.5480 Y114.2760 E6.7033
G1 X105.7240 Y118.4520 E7.0746
G92 E0.0000
G1 E-6 F2400 ; custom retraction
;layer 26, Z = 7.280
;fan26;
G1 Z7.280 F1200
G1 X101.2000 Y118.8000 F11000 ; custom feedrate
G1 E0 F2400 ; custom un-retraction/prime
G92 E0.0000
G1 X101.2000 Y101.2000 E0.8851 F5280 ; custom feedrate
G1 X105.7610 Y101.2000 E1.1145
G1 X105.7620 Y103.0940 E1.2097
G1 X113.3280 Y103.0940 E1.5902
G1 X113.3290 Y101.2000 E1.6855
G1 X118.8000 Y101.2000 E1.9606
G1 X118.8000 Y107.5920 E2.2821
G1 X116.8600 Y107.5910 E2.3796
G1 X116.8590 Y111.6720 E2.5848
G1 X118.8000 Y111.6730 E2.6825
G1 X118.8000 Y118.8000 E3.0409
G1 X101.2000 Y118.8000 E3.9260
G1 X100.7200 Y119.2800 F11000 ; custom feedrate
G92 E0.0000
G1 X100.7200 Y100.7200 E0.9334 F5280 ; custom feedrate
G1 X106.2410 Y100.7200 E1.2110
G1 X106.2420 Y102.6140 E1.3063
G1 X112.8480 Y102.6140 E1.6385
G1 X112.8490 Y100.7200 E1.7338
G1 X119.2800 Y100.7200 E2.0572
G1 X119.2800 Y108.0720 E2.4269
G1 X117.3400 Y108.0720 E2.5245
G1 X117.3390 Y111.1920 E2.6814
G1 X119.2800 Y111.1930 E2.7790
G1 X119.2800 Y119.2800 E3.1857
G1 X100.7200 Y119.2800 E4.1191
G1 X100.2400 Y119.7600 F11000 ; custom feedrate
G92 E0.0000
G1 X100.2400 Y100.2400 E0.9816 F3960 ; custom feedrate
G1 X106.7210 Y100.2400 E1.3076
G1 X106.7220 Y102.1340 E1.4028
G1 X108.9430 Y102.1340 E1.5145
G1 X108.9420 Y100.2400 E1.6098
G1 X110.1880 Y100.2400 E1.6724
G1 X110.1870 Y102.1340 E1.7677
G1 X112.3680 Y102.1340 E1.8774
G1 X112.3690 Y100.2400 E1.9727
G1 X119.7600 Y100.2400 E2.3443
G1 X119.7600 Y108.5530 E2.7624
G1 X117.8200 Y108.5520 E2.8599
G1 X117.8190 Y110.7130 E2.9686
G1 X119.7600 Y110.7130 E3.0662
G1 X119.7600 Y119.7600 E3.5212
G1 X100.2400 Y119.7600 E4.5028
G1 X109.5330 Y102.3210 F11000 ; custom feedrate
G92 E0.0000
G1 X109.8990 Y101.9550 E0.0260 F6600 ; custom feedrate
G1 X109.8990 Y101.2760 E0.0602
G1 X109.2310 Y101.9440 E0.1077
G1 X109.2310 Y101.2660 E0.1418
G1 X109.9000 Y100.5970 E0.1894
G1 X109.9000 Y100.5280 E0.1929
G1 X109.2900 Y100.5280 E0.2236
G1 X109.2300 Y100.5870 E0.2278
G1 X110.1880 Y100.8150 F11000 ; custom feedrate
G1 X110.1870 Y102.1340
G1 X112.3680 Y102.1340
G1 X112.3690 Y101.3340
G1 X113.6170 Y101.6320
G92 E0.0000
G1 X113.6680 Y101.5800 E0.0036 F5280 ; custom feedrate
G1 X113.6680 Y102.2600 E0.0378
G1 X113.6160 Y102.3110 E0.0414
G1 X101.5480 Y105.7240 F11000 ; custom feedrate
G92 E0.0000
G1 X105.4130 Y101.8590 E0.3436 F6600 ; custom feedrate
G1 X105.4140 Y103.4420 E0.4432
G1 X108.0730 Y103.4420 E0.6103
G1 X101.5480 Y109.9670 E1.1903
G1 X101.5480 Y114.2090 E1.4570
G1 X112.3150 Y103.4420 E2.4142
G1 X113.6760 Y103.4420 E2.4998
G1 X114.2070 Y103.4420 E2.5332
G1 X114.2090 Y101.5480 E2.6522
G1 X118.4520 Y101.5480 E2.9189
G1 X101.5480 Y118.4520 E4.4217
G1 X105.7910 Y118.4520 E4.6884
G1 X116.5120 Y107.7300 E5.6416
G1 X116.5100 Y111.9750 E5.9084
G1 X110.0330 Y118.4520 E6.4842
G1 X114.2760 Y118.4520 E6.7509
G1 X118.4520 Y114.2760 E7.1221
G92 E0.0000
G1 E-6 F2400 ; custom retraction
;layer 27, Z = 7.560
;fan27;
G1 Z7.560 F1200
G1 X118.8000 Y111.6700 F11000 ; custom feedrate
G1 E0 F2400 ; custom un-retraction/prime
G92 E0.0000
G1 X118.8000 Y118.8000 E0.3586 F5280 ; custom feedrate
G1 X101.2000 Y118.8000 E1.2437
G1 X101.2000 Y101.2000 E2.1287
G1 X105.9170 Y101.2000 E2.3659
G1 X105.9170 Y103.0940 E2.4612
G1 X113.1510 Y103.0940 E2.8250
G1 X113.1520 Y101.2000 E2.9203
G1 X118.8000 Y101.2000 E3.2043
G1 X118.8000 Y107.5890 E3.5256
G1 X116.8610 Y107.5880 E3.6231
G1 X116.8590 Y111.6690 E3.8283
G1 X118.8000 Y111.6700 E3.9260
G1 X119.2800 Y111.1900 F11000 ; custom feedrate
G92 E0.0000
G1 X119.2800 Y119.2800 E0.4068 F5280 ; custom feedrate
G1 X100.7200 Y119.2800 E1.3402
G1 X100.7200 Y100.7200 E2.2736
G1 X106.3960 Y100.7200 E2.5590
G1 X106.3970 Y102.6140 E2.6543
G1 X112.6710 Y102.6140 E2.9698
G1 X112.6720 Y100.7200 E3.0651
G1 X119.2800 Y100.7200 E3.3974
G1 X119.2800 Y108.0690 E3.7670
G1 X117.3410 Y108.0690 E3.8645
G1 X117.3390 Y111.1890 E4.0215
G1 X119.2800 Y111.1900 E4.1191
G1 X119.7600 Y110.7100 F11000 ; custom feedrate
G92 E0.0000
G1 X119.7600 Y119.7600 E0.4551 F3960 ; custom feedrate
G1 X100.2400 Y119.7600 E1.4367
G1 X100.2400 Y100.2400 E2.4184
G1 X106.8760 Y100.2400 E2.7521
G1 X106.8770 Y102.1340 E2.8474
G1 X109.1090 Y102.1340 E2.9596
G1 X109.1080 Y100.2400 E3.0549
G1 X110.0170 Y100.2400 E3.1006
G1 X110.0160 Y102.1340 E3.1959
G1 X112.1910 Y102.1340 E3.3053
G1 X112.1920 Y100.2400 E3.4006
G1 X119.7600 Y100.2400 E3.7811
G1 X119.7600 Y108.5500 E4.1990
G1 X117.8200 Y108.5490 E4.2966
G1 X117.8190 Y110.7100 E4.4052
G1 X119.7600 Y110.7100 E4.5028
G92 E0.0000
G1 E-6 F2400 ; custom retraction
;zhop1
G1 X117.8190 Y110.7100 F11000 ; custom feedrate
G1 X117.8200 Y109.0770
G1 X109.7280 Y102.2610
G1 Z7.560 F1200
G1 E0 F2400 ; custom un-retraction/prime
G92 E0.0000
G1 X109.3970 Y101.9300 E0.0236 F6600 ; custom feedrate
G1 X109.3970 Y101.2510 E0.0577
G1 X109.7290 Y101.5830 E0.0813
G1 X109.7290 Y100.9040 E0.1154
G1 X109.3960 Y100.5720 E0.1391
G1 X110.0170 Y100.7760 F11000 ; custom feedrate
G1 X110.0160 Y102.1340
G1 X112.1910 Y102.1340
G1 X112.1920 Y101.4900
G1 X113.4400 Y101.9000
G92 E0.0000
G1 X113.4910 Y101.9510 E0.0036 F5280 ; custom feedrate
G1 X113.4900 Y102.6290 E0.0378
G1 X113.4390 Y102.5780 E0.0414
G1 X114.2760 Y101.5480 F11000 ; custom feedrate
G92 E0.0000
G1 X118.4520 Y105.7240 E0.3713 F6600 ; custom feedrate
G1 X118.4520 Y107.2410 E0.4666
G1 X116.5130 Y107.2400 E0.5885
G1 X116.5130 Y108.0270 E0.6380
G1 X111.9280 Y103.4420 E1.0456
G1 X107.6850 Y103.4420 E1.3123
G1 X118.4520 Y114.2090 E2.2694
G1 X118.4520 Y118.4520 E2.5361
G1 X101.5480 Y101.5480 E4.0389
G1 X101.5480 Y105.7910 E4.3056
G1 X114.2090 Y118.4520 E5.4312
G1 X109.9670 Y118.4520 E5.6979
G1 X101.5480 Y110.0330 E6.4463
G1 X101.5480 Y114.2760 E6.7130
G1 X105.7240 Y118.4520 E7.0843
G92 E0.0000
G1 E-6 F2400 ; custom retraction
;layer 28, Z = 7.840
;fan28;
G1 Z7.840 F1200
G1 X101.2000 Y118.8000 F11000 ; custom feedrate
G1 E0 F2400 ; custom un-retraction/prime
G92 E0.0000
G1 X101.2000 Y101.2000 E0.8851 F5280 ; custom feedrate
G1 X106.0720 Y101.2000 E1.1301
G1 X106.0730 Y103.0950 E1.2254
G1 X112.9740 Y103.0950 E1.5724
G1 X112.9750 Y101.2000 E1.6677
G1 X118.8000 Y101.2000 E1.9607
G1 X118.8000 Y107.5860 E2.2818
G1 X116.8610 Y107.5850 E2.3793
G1 X116.8590 Y111.6660 E2.5845
G1 X118.8000 Y111.6670 E2.6821
G1 X118.8000 Y118.8000 E3.0408
G1 X101.2000 Y118.8000 E3.9259
G1 X100.7200 Y119.2800 F11000 ; custom feedrate
G92 E0.0000
G1 X100.7200 Y100.7200 E0.9334 F5280 ; custom feedrate
G1 X106.5520 Y100.7200 E1.2266
G1 X106.5530 Y102.6150 E1.3219
G1 X112.4940 Y102.6150 E1.6207
G1 X112.4950 Y100.7200 E1.7160
G1 X119.2800 Y100.7200 E2.0572
G1 X119.2800 Y108.0660 E2.4267
G1 X117.3410 Y108.0660 E2.5242
G1 X117.3400 Y111.1860 E2.6811
G1 X119.2800 Y111.1870 E2.7787
G1 X119.2800 Y119.2800 E3.1857
G1 X100.7200 Y119.2800 E4.1190
G1 X100.2400 Y119.7600 F11000 ; custom feedrate
G92 E0.0000
G1 X100.2400 Y100.2400 E0.9816 F3960 ; custom feedrate
G1 X107.0320 Y100.2400 E1.3232
G1 X107.0320 Y102.1350 E1.4185
G1 X109.2750 Y102.1350 E1.5313
G1 X109.2740 Y100.2400 E1.6265
G1 X109.8470 Y100.2400 E1.6553
G1 X109.8460 Y102.1350 E1.7506
G1 X112.0140 Y102.1350 E1.8597
G1 X112.0150 Y100.2400 E1.9550
G1 X119.7600 Y100.2400 E2.3444
G1 X119.7600 Y108.5470 E2.7622
G1 X117.8210 Y108.5460 E2.8597
G1 X117.8200 Y110.7070 E2.9683
G1 X119.7600 Y110.7070 E3.0659
G1 X119.7600 Y119.7600 E3.5212
G1 X100.2400 Y119.7600 E4.5028
G1 X113.2620 Y102.6650 F11000 ; custom feedrate
G92 E0.0000
G1 X113.3130 Y102.6140 E0.0036 F5280 ; custom feedrate
G1 X113.3140 Y101.9350 E0.0378
G1 X113.2620 Y101.9860 E0.0414
G1 X101.5480 Y105.7240 F11000 ; custom feedrate
G92 E0.0000
G1 X105.7240 Y101.5480 E0.3713 F6600 ; custom feedrate
G1 X105.7250 Y103.4430 E0.4904
G1 X108.0720 Y103.4430 E0.6379
G1 X101.5480 Y109.9670 E1.2179
G1 X101.5480 Y114.2090 E1.4846
G1 X112.3150 Y103.4430 E2.4417
G1 X113.3220 Y103.4420 E2.5051
G1 X113.8530 Y103.4420 E2.5385
G1 X113.8540 Y101.9040 E2.6352
G1 X114.2090 Y101.5480 E2.6668
G1 X118.4520 Y101.5480 E2.9335
G1 X101.5480 Y118.4520 E4.4363
G1 X105.7910 Y118.4520 E4.7030
G1 X116.5130 Y107.7300 E5.6562
G1 X116.5110 Y111.9740 E5.9230
G1 X110.0330 Y118.4520 E6.4989
G1 X114.2760 Y118.4520 E6.7656
G1 X118.4520 Y114.2760 E7.1368
G92 E0.0000
G1 E-6 F2400 ; custom retraction
;layer 29, Z = 8.120
;fan29;
G1 Z8.120 F1200
G1 X118.8000 Y111.6640 F11000 ; custom feedrate
G1 E0 F2400 ; custom un-retraction/prime
G92 E0.0000
G1 X118.8000 Y118.8000 E0.3589 F5280 ; custom feedrate
G1 X101.2000 Y118.8000 E1.2440
G1 X101.2000 Y101.2000 E2.1291
G1 X106.2270 Y101.2000 E2.3819
G1 X106.2280 Y103.0950 E2.4772
G1 X112.7970 Y103.0950 E2.8075
G1 X112.7980 Y101.2000 E2.9028
G1 X118.8000 Y101.2000 E3.2046
G1 X118.8000 Y107.5830 E3.5256
G1 X116.8620 Y107.5820 E3.6231
G1 X116.8600 Y111.6630 E3.8283
G1 X118.8000 Y111.6640 E3.9259
G1 X119.2800 Y111.1840 F11000 ; custom feedrate
G92 E0.0000
G1 X119.2800 Y119.2800 E0.4071 F5280 ; custom feedrate
G1 X100.7200 Y119.2800 E1.3405
G1 X100.7200 Y100.7200 E2.2739
G1 X106.7070 Y100.7200 E2.5750
G1 X106.7080 Y102.6150 E2.6703
G1 X112.3170 Y102.6150 E2.9523
G1 X112.3180 Y100.7200 E3.0476
G1 X119.2800 Y100.7200 E3.3977
G1 X119.2800 Y108.0630 E3.7670
G1 X117.3410 Y108.0630 E3.8645
G1 X117.3400 Y111.1830 E4.0215
G1 X119.2800 Y111.1840 E4.1190
G1 X119.7600 Y110.7040 F11000 ; custom feedrate
G92 E0.0000
G1 X119.7600 Y119.7600 E0.4554 F3960 ; custom feedrate
G1 X100.2400 Y119.7600 E1.4371
G1 X100.2400 Y100.2400 E2.4187
G1 X107.1870 Y100.2400 E2.7681
G1 X107.1880 Y102.1350 E2.8633
G1 X109.4410 Y102.1350 E2.9767
G1 X109.4400 Y100.2400 E3.0719
G1 X109.6760 Y100.2400 E3.0838
G1 X109.6750 Y102.1350 E3.1791
G1 X111.8370 Y102.1350 E3.2879
G1 X111.8380 Y100.2400 E3.3832
G1 X119.7600 Y100.2400 E3.7815
G1 X119.7600 Y108.5440 E4.1991
G1 X117.8210 Y108.5430 E4.2966
G1 X117.8200 Y110.7040 E4.4053
G1 X119.7600 Y110.7040 E4.5028
G92 E0.0000
G1 E-6 F2400 ; custom retraction
;zhop1
G1 X117.8200 Y110.7040 F11000 ; custom feedrate
G1 X117.8210 Y108.5430
G1 X118.0590 Y108.5430
G1 X113.0850 Y102.2240
G1 Z8.120 F1200
G1 E0 F2400 ; custom un-retraction/prime
G92 E0.0000
G1 X113.1360 Y102.2750 E0.0036 F5280 ; custom feedrate
G1 X113.1370 Y101.5970 E0.0378
G1 X113.0860 Y101.5460 E0.0414
G1 X114.2760 Y101.5480 F11000 ; custom feedrate
G92 E0.0000
G1 X118.4520 Y105.7240 E0.3713 F6600 ; custom feedrate
G1 X118.4520 Y107.2350 E0.4662
G1 X116.5140 Y107.2340 E0.5881
G1 X116.5130 Y108.0280 E0.6380
G1 X111.9280 Y103.4430 E1.0456
G1 X107.6860 Y103.4430 E1.3123
G1 X118.4520 Y114.2090 E2.2694
G1 X118.4520 Y118.4520 E2.5361
G1 X101.5480 Y101.5480 E4.0389
G1 X105.7910 Y101.5480 E4.3056
G1 X105.8800 Y101.6370 E4.3135
G1 X101.5480 Y105.7910 F11000 ; custom feedrate
G92 E0.0000
G1 X114.2090 Y118.4520 E1.1256 F6600 ; custom feedrate
G1 X109.9670 Y118.4520 E1.3923
G1 X101.5480 Y110.0330 E2.1407
G1 X101.5480 Y114.2760 E2.4074
G1 X105.7240 Y118.4520 E2.7787
G92 E0.0000
G1 E-6 F2400 ; custom retraction
;layer 30, Z = 8.400
;fan30;
G1 Z8.400 F1200
G1 X101.2000 Y118.8000 F11000 ; custom feedrate
G1 E0 F2400 ; custom un-retraction/prime
G92 E0.0000
G1 X101.2000 Y101.2000 E0.8851 F5280 ; custom feedrate
G1 X106.3830 Y101.2000 E1.1457
G1 X106.3840 Y103.0950 E1.2410
G1 X109.8230 Y103.0950 E1.4140
G1 X112.6200 Y103.0950 E1.5547
G1 X112.6210 Y101.2000 E1.6500
G1 X118.8000 Y101.2000 E1.9607
G1 X118.8000 Y107.5800 E2.2816
G1 X116.8620 Y107.5790 E2.3790
G1 X116.8600 Y111.6600 E2.5842
G1 X118.8000 Y111.6610 E2.6818
G1 X118.8000 Y118.8000 E3.0408
G1 X101.2000 Y118.8000 E3.9259
G1 X100.7200 Y119.2800 F11000 ; custom feedrate
G92 E0.0000
G1 X100.7200 Y100.7200 E0.9334 F5280 ; custom feedrate
G1 X106.8630 Y100.7200 E1.2423
G1 X106.8630 Y102.6150 E1.3376
G1 X109.8230 Y102.6150 E1.4864
G1 X112.1400 Y102.6150 E1.6029
G1 X112.1410 Y100.7200 E1.6982
G1 X119.2800 Y100.7200 E2.0573
G1 X119.2800 Y108.0600 E2.4264
G1 X117.3420 Y108.0590 E2.5239
G1 X117.3400 Y111.1800 E2.6808
G1 X119.2800 Y111.1810 E2.7783
G1 X119.2800 Y119.2800 E3.1856
G1 X100.7200 Y119.2800 E4.1190
G1 X100.2400 Y119.7600 F11000 ; custom feedrate
G92 E0.0000
G1 X100.2400 Y100.2400 E0.9816 F3960 ; custom feedrate
G1 X107.3420 Y100.2400 E1.3388
G1 X107.3430 Y102.1350 E1.4341
G1 X109.6070 Y102.1350 E1.5480
G1 X111.6600 Y102.1350 E1.6512
G1 X111.6610 Y100.2400 E1.7465
G1 X119.7600 Y100.2400 E2.1538
G1 X119.7600 Y108.5410 E2.5712
G1 X117.8220 Y108.5400 E2.6687
G1 X117.8210 Y110.7000 E2.7774
G1 X119.7600 Y110.7010 E2.8749
G1 X119.7600 Y119.7600 E3.3305
G1 X100.2400 Y119.7600 E4.3121
G1 X112.9080 Y102.3400 F11000 ; custom feedrate
G92 E0.0000
G1 X112.9590 Y102.2890 E0.0036 F5280 ; custom feedrate
G1 X112.9600 Y101.6100 E0.0378
G1 X112.9090 Y101.6610 E0.0414
G1 X111.6600 Y102.1070 F11000 ; custom feedrate
G1 X111.6600 Y102.1350
G1 X111.5820 Y102.1350
G1 X101.5480 Y105.7240
G92 E0.0000
G1 X105.7240 Y101.5480 E0.3713 F6600 ; custom feedrate
G1 X106.0350 Y101.5480 E0.3908
G1 X106.0360 Y103.4430 E0.5099
G1 X108.0720 Y103.4430 E0.6379
G1 X101.5480 Y109.9670 E1.2178
G1 X101.5480 Y114.2090 E1.4845
G1 X112.3140 Y103.4430 E2.4417
G1 X112.9680 Y103.4420 E2.4828
G1 X113.4990 Y103.4420 E2.5162
G1 X113.4990 Y102.2580 E2.5906
G1 X114.2090 Y101.5480 E2.6537
G1 X118.4520 Y101.5480 E2.9204
G1 X101.5480 Y118.4520 E4.4232
G1 X105.7910 Y118.4520 E4.6899
G1 X116.5140 Y107.7290 E5.6432
G1 X116.5120 Y111.9730 E5.9100
G1 X110.0330 Y118.4520 E6.4860
G1 X114.2760 Y118.4520 E6.7527
G1 X118.4520 Y114.2760 E7.1239
G92 E0.0000
G1 E-6 F2400 ; custom retraction
;layer 31, Z = 8.680
;fan31;
G1 Z8.680 F1200
G1 X118.8000 Y111.6580 F11000 ; custom feedrate
G1 E0 F2400 ; custom un-retraction/prime
G92 E0.0000
G1 X118.8000 Y118.8000 E0.3592 F5280 ; custom feedrate
G1 X101.2000 Y118.8000 E1.2443
G1 X101.2000 Y101.2000 E2.1294
G1 X106.5380 Y101.2000 E2.3978
G1 X106.5390 Y103.0950 E2.4931
G1 X112.4430 Y103.0950 E2.7900
G1 X112.4440 Y101.2000 E2.8853
G1 X118.8000 Y101.2000 E3.2050
G1 X118.8000 Y107.5770 E3.5257
G1 X116.8630 Y107.5760 E3.6231
G1 X116.8610 Y111.6570 E3.8283
G1 X118.8000 Y111.6580 E3.9259
G1 X119.2800 Y111.1780 F11000 ; custom feedrate
G92 E0.0000
G1 X119.2800 Y119.2800 E0.4074 F5280 ; custom feedrate
G1 X100.7200 Y119.2800 E1.3408
G1 X100.7200 Y100.7200 E2.2742
G1 X107.0180 Y100.7200 E2.5909
G1 X107.0190 Y102.6150 E2.6862
G1 X111.9630 Y102.6150 E2.9349
G1 X111.9640 Y100.7200 E3.0302
G1 X119.2800 Y100.7200 E3.3981
G1 X119.2800 Y108.0570 E3.7671
G1 X117.3420 Y108.0560 E3.8645
G1 X117.3410 Y111.1770 E4.0215
G1 X119.2800 Y111.1780 E4.1190
G1 X119.7600 Y110.6980 F11000 ; custom feedrate
G92 E0.0000
G1 X119.7600 Y119.7600 E0.4557 F3960 ; custom feedrate
G1 X100.2400 Y119.7600 E1.4374
G1 X100.2400 Y100.2400 E2.4190
G1 X107.4980 Y100.2400 E2.7840
G1 X107.4990 Y102.1350 E2.8793
G1 X111.4830 Y102.1350 E3.0797
G1 X111.4840 Y100.2400 E3.1750
G1 X119.7600 Y100.2400 E3.5912
G1 X119.7600 Y108.5370 E4.0085
G1 X117.8220 Y108.5370 E4.1059
G1 X117.8210 Y110.6970 E4.2146
G1 X119.7600 Y110.6980 E4.3121
G92 E0.0000
G1 E-6 F2400 ; custom retraction
;zhop1
G1 X117.8210 Y110.6970 F11000 ; custom feedrate
G1 X117.8220 Y108.5370
G1 X117.8960 Y108.5370
G1 X112.7310 Y102.5490
G1 Z8.680 F1200
G1 E0 F2400 ; custom un-retraction/prime
G92 E0.0000
G1 X112.7820 Y102.6000 E0.0036 F5280 ; custom feedrate
G1 X112.7830 Y101.9210 E0.0378
G1 X112.7310 Y101.8700 E0.0414
G1 X114.2760 Y101.5480 F11000 ; custom feedrate
G92 E0.0000
G1 X118.4520 Y105.7240 E0.3713 F6600 ; custom feedrate
G1 X118.4520 Y107.2290 E0.4658
G1 X116.5150 Y107.2280 E0.5876
G1 X116.5140 Y108.0290 E0.6380
G1 X111.9290 Y103.4430 E1.0456
G1 X107.6860 Y103.4430 E1.3123
G1 X118.4520 Y114.2090 E2.2694
G1 X118.4520 Y118.4520 E2.5361
G1 X101.5480 Y101.5480 E4.0389
G1 X105.7910 Y101.5480 E4.3056
G1 X106.1910 Y101.9480 E4.3411
G1 X101.5480 Y105.7910 F11000 ; custom feedrate
G92 E0.0000
G1 X114.2090 Y118.4520 E1.1256 F6600 ; custom feedrate
G1 X109.9670 Y118.4520 E1.3923
G1 X101.5480 Y110.0330 E2.1407
G1 X101.5480 Y114.2760 E2.4074
G1 X105.7240 Y118.4520 E2.7787
G92 E0.0000
G1 E-6 F2400 ; custom retraction
;layer 32, Z = 8.960
;fan32;
G1 Z8.960 F1200
G1 X101.2000 Y118.8000 F11000 ; custom feedrate
G1 E0 F2400 ; custom un-retraction/prime
G92 E0.0000
G1 X101.2000 Y101.2000 E0.8851 F5280 ; custom feedrate
G1 X106.6940 Y101.2000 E1.1614
G1 X106.6950 Y103.0960 E1.2567
G1 X112.2660 Y103.0960 E1.5369
G1 X112.2670 Y101.2000 E1.6322
G1 X118.8000 Y101.2000 E1.9607
G1 X118.8000 Y107.5740 E2.2813
G1 X116.8630 Y107.5730 E2.3787
G1 X116.8610 Y111.6540 E2.5839
G1 X118.8000 Y111.6550 E2.6814
G1 X118.8000 Y118.8000 E3.0408
G1 X101.2000 Y118.8000 E3.9259
G1 X100.7200 Y119.2800 F11000 ; custom feedrate
G92 E0.0000
G1 X100.7200 Y100.7200 E0.9334 F5280 ; custom feedrate
G1 X107.1730 Y100.7200 E1.2579
G1 X107.1740 Y102.6160 E1.3532
G1 X111.7860 Y102.6160 E1.5852
G1 X111.7870 Y100.7200 E1.6805
G1 X119.2800 Y100.7200 E2.0573
G1 X119.2800 Y108.0540 E2.4261
G1 X117.3430 Y108.0530 E2.5236
G1 X117.3410 Y111.1740 E2.6805
G1 X119.2800 Y111.1750 E2.7780
G1 X119.2800 Y119.2800 E3.1856
G1 X100.7200 Y119.2800 E4.1190
G1 X100.2400 Y119.7600 F11000 ; custom feedrate
G92 E0.0000
G1 X100.2400 Y100.2400 E0.9816 F3960 ; custom feedrate
G1 X107.6530 Y100.2400 E1.3545
G1 X107.6540 Y102.1360 E1.4498
G1 X111.3060 Y102.1360 E1.6334
G1 X111.3070 Y100.2400 E1.7288
G1 X119.7600 Y100.2400 E2.1539
G1 X119.7600 Y108.5340 E2.5710
G1 X117.8230 Y108.5340 E2.6684
G1 X117.8220 Y110.6940 E2.7771
G1 X119.7600 Y110.6950 E2.8746
G1 X119.7600 Y119.7600 E3.3304
G1 X100.2400 Y119.7600 E4.3121
G1 X112.5540 Y102.6940 F11000 ; custom feedrate
G92 E0.0000
G1 X112.6050 Y102.6430 E0.0036 F5280 ; custom feedrate
G1 X112.6050 Y101.9640 E0.0378
G1 X112.5540 Y102.0150 E0.0414
G1 X101.5480 Y105.7240 F11000 ; custom feedrate
G92 E0.0000
G1 X105.7240 Y101.5480 E0.3713 F6600 ; custom feedrate
G1 X106.3460 Y101.5480 E0.4103
G1 X106.3470 Y103.4440 E0.5295
G1 X108.0710 Y103.4440 E0.6379
G1 X101.5480 Y109.9670 E1.2178
G1 X101.5480 Y114.2090 E1.4845
G1 X112.3140 Y103.4440 E2.4416
G1 X112.6140 Y103.4430 E2.4605
G1 X113.1450 Y103.4430 E2.4939
G1 X113.1450 Y102.6120 E2.5461
G1 X114.2090 Y101.5480 E2.6407
G1 X118.4520 Y101.5480 E2.9074
G1 X101.5480 Y118.4520 E4.4101
G1 X105.7910 Y118.4520 E4.6768
G1 X116.5150 Y107.7280 E5.6302
G1 X116.5130 Y111.9720 E5.8970
G1 X110.0330 Y118.4520 E6.4731
G1 X114.2760 Y118.4520 E6.7398
G1 X118.4520 Y114.2760 E7.1110
G92 E0.0000
G1 E-6 F2400 ; custom retraction
;layer 33, Z = 9.240
;fan33;
G1 Z9.240 F1200
G1 X118.8000 Y111.6520 F11000 ; custom feedrate
G1 E0 F2400 ; custom un-retraction/prime
G92 E0.0000
G1 X118.8000 Y118.8000 E0.3595 F5280 ; custom feedrate
G1 X101.2000 Y118.8000 E1.2446
G1 X101.2000 Y101.2000 E2.1297
G1 X106.8490 Y101.2000 E2.4138
G1 X106.8500 Y103.0960 E2.5091
G1 X109.2120 Y103.0960 E2.6279
G1 X112.0890 Y103.0960 E2.7725
G1 X112.0900 Y101.2000 E2.8679
G1 X118.8000 Y101.2000 E3.2053
G1 X118.8000 Y107.5710 E3.5257
G1 X116.8630 Y107.5700 E3.6231
G1 X116.8620 Y111.6510 E3.8283
G1 X118.8000 Y111.6520 E3.9258
G1 X119.2800 Y111.1720 F11000 ; custom feedrate
G92 E0.0000
G1 X119.2800 Y119.2800 E0.4077 F5280 ; custom feedrate
G1 X100.7200 Y119.2800 E1.3411
G1 X100.7200 Y100.7200 E2.2745
G1 X107.3290 Y100.7200 E2.6068
G1 X107.3300 Y102.6160 E2.7022
G1 X109.2120 Y102.6160 E2.7969
G1 X111.6090 Y102.6160 E2.9174
G1 X111.6100 Y100.7200 E3.0127
G1 X119.2800 Y100.7200 E3.3984
G1 X119.2800 Y108.0510 E3.7671
G1 X117.3430 Y108.0500 E3.8645
G1 X117.3420 Y111.1710 E4.0215
G1 X119.2800 Y111.1720 E4.1189
G1 X119.7600 Y110.6920 F11000 ; custom feedrate
G92 E0.0000
G1 X119.7600 Y119.7600 E0.4560 F3960 ; custom feedrate
G1 X100.2400 Y119.7600 E1.4377
G1 X100.2400 Y100.2400 E2.4193
G1 X107.8090 Y100.2400 E2.7999
G1 X107.8100 Y102.1360 E2.8953
G1 X109.2120 Y102.1360 E2.9658
G1 X111.1290 Y102.1360 E3.0622
G1 X111.1300 Y100.2400 E3.1576
G1 X119.7600 Y100.2400 E3.5915
G1 X119.7600 Y108.5310 E4.0085
G1 X117.8230 Y108.5310 E4.1059
G1 X117.8220 Y110.6910 E4.2146
G1 X119.7600 Y110.6920 E4.3121
G1 X118.0490 Y111.9390 F11000 ; custom feedrate
G92 E0.0000
G1 X118.1270 Y112.0170 E0.0055 F5280 ; custom feedrate
G1 X117.4470 Y112.0170 E0.0397
G1 X117.3700 Y111.9390 E0.0452
G1 X117.3430 Y107.1610 F11000 ; custom feedrate
G92 E0.0000
G1 X117.4650 Y107.2820 E0.0087 F5280 ; custom feedrate
G1 X118.1440 Y107.2830 E0.0428
G1 X118.0210 Y107.1600 E0.0515
G1 X112.4070 Y102.9030 F11000 ; custom feedrate
G92 E0.0000
G1 X112.3770 Y102.8730 E0.0021 F5280 ; custom feedrate
G1 X112.3770 Y102.1950 E0.0362
G1 X112.4280 Y102.2460 E0.0399
G1 X112.4290 Y101.5670 E0.0740
G1 X112.3780 Y101.5160 E0.0776
G1 X114.2760 Y101.5480 F11000 ; custom feedrate
G92 E0.0000
G1 X118.4520 Y105.7240 E0.3713 F6600 ; custom feedrate
G1 X118.4520 Y106.6200 E0.4276
G1 X116.5180 Y106.6210 E0.5492
G1 X116.5160 Y107.2220 E0.5871
G1 X116.5150 Y108.0300 E0.6379
G1 X111.9290 Y103.4440 E1.0455
G1 X109.2120 Y103.4440 E1.2163
G1 X107.6870 Y103.4440 E1.3122
G1 X116.5150 Y112.2720 E2.0971
G1 X116.5150 Y112.5550 E2.1149
G1 X116.7980 Y112.5560 E2.1327
G1 X118.4520 Y114.2090 E2.2797
G1 X118.4520 Y118.4520 E2.5464
G1 X101.5480 Y101.5480 E4.0492
G1 X105.7910 Y101.5480 E4.3159
G1 X106.5020 Y102.2590 E4.3791
G1 X101.5480 Y105.7910 F11000 ; custom feedrate
G92 E0.0000
G1 X114.2090 Y118.4520 E1.1256 F6600 ; custom feedrate
G1 X109.9670 Y118.4520 E1.3923
G1 X101.5480 Y110.0330 E2.1407
G1 X101.5480 Y114.2760 E2.4074
G1 X105.7240 Y118.4520 E2.7787
G92 E0.0000
G1 E-6 F2400 ; custom retraction
;layer 34, Z = 9.520
;fan34;
G1 Z9.520 F1200
G1 X101.2000 Y118.8000 F11000 ; custom feedrate
G1 E0 F2400 ; custom un-retraction/prime
G92 E0.0000
G1 X101.2000 Y101.2000 E0.8851 F5280 ; custom feedrate
G1 X107.0050 Y101.2000 E1.1770
G1 X107.0050 Y103.0960 E1.2724
G1 X111.9120 Y103.0960 E1.5191
G1 X111.9130 Y101.2000 E1.6144
G1 X118.8000 Y101.2000 E1.9608
G1 X118.8000 Y107.4700 E2.2761
G1 X116.8640 Y107.4710 E2.3735
G1 X116.8620 Y111.7320 E2.5878
G1 X118.8000 Y111.7340 E2.6852
G1 X118.8000 Y118.8000 E3.0405
G1 X101.2000 Y118.8000 E3.9256
G1 X100.7200 Y119.2800 F11000 ; custom feedrate
G92 E0.0000
G1 X100.7200 Y100.7200 E0.9334 F5280 ; custom feedrate
G1 X107.4840 Y100.7200 E1.2735
G1 X107.4850 Y102.6160 E1.3689
G1 X111.4320 Y102.6160 E1.5674
G1 X111.4330 Y100.7200 E1.6627
G1 X119.2800 Y100.7200 E2.0574
G1 X119.2800 Y107.9500 E2.4209
G1 X117.3440 Y107.9510 E2.5183
G1 X117.3420 Y111.2530 E2.6844
G1 X119.2800 Y111.2550 E2.7818
G1 X119.2800 Y119.2800 E3.1854
G1 X100.7200 Y119.2800 E4.1187
G1 X100.2400 Y119.7600 F11000 ; custom feedrate
G92 E0.0000
G1 X100.2400 Y100.2400 E0.9816 F3960 ; custom feedrate
G1 X107.9640 Y100.2400 E1.3701
G1 X107.9650 Y102.1360 E1.4654
G1 X110.9520 Y102.1360 E1.6157
G1 X110.9530 Y100.2400 E1.7110
G1 X119.7600 Y100.2400 E2.1539
G1 X119.7600 Y108.4300 E2.5658
G1 X117.8230 Y108.4310 E2.6632
G1 X117.8220 Y110.7730 E2.7810
G1 X119.7600 Y110.7760 E2.8784
G1 X119.7600 Y119.7600 E3.3302
G1 X100.2400 Y119.7600 E4.3119
G1 X117.3280 Y112.1750 F11000 ; custom feedrate
G92 E0.0000
G1 X117.4830 Y112.0210 E0.0110 F5280 ; custom feedrate
G1 X117.6590 Y112.0210 E0.0198
G1 X118.1610 Y112.0220 E0.0451
G1 X118.0060 Y112.1760 E0.0560
G1 X118.1230 Y110.7740 F11000 ; custom feedrate
G1 X117.8220 Y110.7730
G1 X117.8230 Y108.4310
G1 X118.3180 Y108.4300
G1 X118.4380 Y106.9930
G92 E0.0000
G1 X118.2480 Y107.1820 E0.0135 F5280 ; custom feedrate
G1 X117.7530 Y107.1830 E0.0384
G1 X117.5690 Y107.1830 E0.0477
G1 X117.7590 Y106.9930 E0.0612
G1 X117.0800 Y106.9930 E0.0953
G1 X117.0580 Y107.0150 E0.0969
G1 X112.2000 Y102.3690 F11000 ; custom feedrate
G92 E0.0000
G1 X112.2510 Y102.3180 E0.0036 F5280 ; custom feedrate
G1 X112.2520 Y101.6390 E0.0378
G1 X112.2000 Y101.6900 E0.0414
G1 X101.5480 Y105.7240 F11000 ; custom feedrate
G92 E0.0000
G1 X105.7240 Y101.5480 E0.3713 F6600 ; custom feedrate
G1 X106.6570 Y101.5480 E0.4299
G1 X106.6580 Y103.4440 E0.5491
G1 X108.0710 Y103.4440 E0.6379
G1 X101.5480 Y109.9670 E1.2178
G1 X101.5480 Y114.2090 E1.4845
G1 X112.3140 Y103.4430 E2.4416
G1 X112.7910 Y103.4430 E2.4715
G1 X112.7910 Y102.9670 E2.5015
G1 X114.2090 Y101.5480 E2.6276
G1 X118.4520 Y101.5480 E2.8943
G1 X101.5480 Y118.4520 E4.3971
G1 X105.7910 Y118.4520 E4.6638
G1 X116.5160 Y107.7270 E5.6172
G1 X116.5140 Y111.9710 E5.8840
G1 X110.0330 Y118.4520 E6.4602
G1 X114.2760 Y118.4520 E6.7269
G1 X118.4520 Y114.2760 E7.0981
G92 E0.0000
G1 E-6 F2400 ; custom retraction
;layer 35, Z = 9.800
;fan35;
G1 Z9.800 F1200
G1 X118.8000 Y111.8930 F11000 ; custom feedrate
G1 E0 F2400 ; custom un-retraction/prime
G92 E0.0000
G1 X118.8000 Y118.8000 E0.3473 F5280 ; custom feedrate
G1 X101.2000 Y118.8000 E1.2324
G1 X101.2000 Y101.2000 E2.1175
G1 X107.1600 Y101.2000 E2.4173
G1 X107.1610 Y103.0960 E2.5126
G1 X111.7350 Y103.0960 E2.7426
G1 X111.7360 Y101.2000 E2.8380
G1 X118.8000 Y101.2000 E3.1933
G1 X118.8000 Y107.3030 E3.5002
G1 X116.8640 Y107.3040 E3.5975
G1 X116.8620 Y111.8910 E3.8282
G1 X118.8000 Y111.8930 E3.9256
G1 X119.2800 Y111.4140 F11000 ; custom feedrate
G92 E0.0000
G1 X119.2800 Y119.2800 E0.3956 F5280 ; custom feedrate
G1 X100.7200 Y119.2800 E1.3290
G1 X100.7200 Y100.7200 E2.2623
G1 X107.6400 Y100.7200 E2.6103
G1 X107.6410 Y102.6160 E2.7057
G1 X111.2550 Y102.6160 E2.8874
G1 X111.2560 Y100.7200 E2.9828
G1 X119.2800 Y100.7200 E3.3863
G1 X119.2800 Y107.7830 E3.7415
G1 X117.3440 Y107.7830 E3.8389
G1 X117.3430 Y111.4110 E4.0213
G1 X119.2800 Y111.4140 E4.1187
G1 X119.7600 Y110.9340 F11000 ; custom feedrate
G92 E0.0000
G1 X119.7600 Y119.7600 E0.4438 F3960 ; custom feedrate
G1 X100.2400 Y119.7600 E1.4255
G1 X100.2400 Y100.2400 E2.4071
G1 X108.1200 Y100.2400 E2.8034
G1 X108.1200 Y102.1360 E2.8988
G1 X110.7750 Y102.1360 E3.0323
G1 X110.7760 Y100.2400 E3.1276
G1 X119.7600 Y100.2400 E3.5794
G1 X119.7600 Y108.2620 E3.9829
G1 X117.8240 Y108.2630 E4.0802
G1 X117.8230 Y110.9320 E4.2144
G1 X119.7600 Y110.9340 E4.3118
G1 X118.2900 Y112.1800 F11000 ; custom feedrate
G92 E0.0000
G1 X118.4450 Y112.3350 E0.0110 F5280 ; custom feedrate
G1 X117.7650 Y112.3340 E0.0452
G1 X117.6100 Y112.1800 E0.0562
G1 X117.0560 Y112.1790 E0.0841
G1 X117.0560 Y112.3040 E0.0904
G1 X117.0850 Y112.3330 E0.0924
G1 X117.1980 Y107.0160 F11000 ; custom feedrate
G92 E0.0000
G1 X117.0580 Y106.8760 E0.0099 F5280 ; custom feedrate
G1 X117.0580 Y106.8260 E0.0124
G1 X117.6870 Y106.8250 E0.0440
G1 X117.8760 Y107.0150 E0.0575
G1 X118.5120 Y107.0150 E0.0895
G1 X118.5120 Y106.9720 E0.0917
G1 X118.3650 Y106.8250 E0.1021
G1 X112.0230 Y102.5190 F11000 ; custom feedrate
G92 E0.0000
G1 X112.0740 Y102.5710 E0.0036 F5280 ; custom feedrate
G1 X112.0740 Y101.8920 E0.0378
G1 X112.0230 Y101.8410 E0.0414
G1 X114.2760 Y101.5480 F11000 ; custom feedrate
G92 E0.0000
G1 X118.4520 Y105.7240 E0.3713 F6600 ; custom feedrate
G1 X118.4520 Y106.2850 E0.4065
G1 X116.5190 Y106.2860 E0.5281
G1 X116.5180 Y106.4530 E0.5386
G1 X116.5170 Y106.9560 E0.5703
G1 X116.5160 Y108.0310 E0.6378
G1 X111.9300 Y103.4440 E1.0456
G1 X107.6870 Y103.4440 E1.3123
G1 X116.5160 Y112.2730 E2.0972
G1 X116.5160 Y112.8730 E2.1348
G1 X117.1160 Y112.8730 E2.1726
G1 X118.4520 Y114.2090 E2.2914
G1 X118.4520 Y118.4520 E2.5581
G1 X101.5480 Y101.5480 E4.0608
G1 X105.7910 Y101.5480 E4.3275
G1 X106.8130 Y102.5700 E4.4184
G1 X101.5480 Y105.7910 F11000 ; custom feedrate
G92 E0.0000
G1 X114.2090 Y118.4520 E1.1256 F6600 ; custom feedrate
G1 X109.9670 Y118.4520 E1.3923
G1 X101.5480 Y110.0330 E2.1407
G1 X101.5480 Y114.2760 E2.4074
G1 X105.7240 Y118.4520 E2.7787
G92 E0.0000
G1 E-6 F2400 ; custom retraction
;layer 36, Z = 10.080
;fan36;
G1 Z10.080 F1200
G1 X101.2000 Y118.8000 F11000 ; custom feedrate
G1 E0 F2400 ; custom un-retraction/prime
G92 E0.0000
G1 X101.2000 Y101.2000 E0.8851 F5280 ; custom feedrate
G1 X107.3150 Y101.2000 E1.1926
G1 X107.3160 Y103.0970 E1.2880
G1 X111.5580 Y103.0970 E1.5013
G1 X111.5590 Y101.2000 E1.5967
G1 X118.8000 Y101.2000 E1.9608
G1 X118.8000 Y107.1350 E2.2593
G1 X116.8650 Y107.1360 E2.3566
G1 X116.8630 Y112.0490 E2.6037
G1 X118.8000 Y112.0520 E2.7011
G1 X118.8000 Y118.8000 E3.0405
G1 X101.2000 Y118.8000 E3.9256
G1 X100.7200 Y119.2800 F11000 ; custom feedrate
G92 E0.0000
G1 X100.7200 Y100.7200 E0.9334 F5280 ; custom feedrate
G1 X107.7950 Y100.7200 E1.2892
G1 X107.7960 Y102.6170 E1.3846
G1 X111.0780 Y102.6170 E1.5496
G1 X111.0790 Y100.7200 E1.6450
G1 X119.2800 Y100.7200 E2.0574
G1 X119.2800 Y107.6150 E2.4041
G1 X117.3450 Y107.6160 E2.5015
G1 X117.3430 Y111.5700 E2.7003
G1 X119.2800 Y111.5720 E2.7977
G1 X119.2800 Y119.2800 E3.1853
G1 X100.7200 Y119.2800 E4.1187
G1 X100.2400 Y119.7600 F11000 ; custom feedrate
G92 E0.0000
G1 X100.2400 Y100.2400 E0.9816 F3960 ; custom feedrate
G1 X108.2750 Y100.2400 E1.3857
G1 X108.2760 Y102.1370 E1.4811
G1 X110.5980 Y102.1370 E1.5979
G1 X110.5990 Y100.2400 E1.6933
G1 X119.7600 Y100.2400 E2.1540
G1 X119.7600 Y108.0950 E2.5490
G1 X117.8240 Y108.0960 E2.6463
G1 X117.8230 Y111.0900 E2.7969
G1 X119.7600 Y111.0930 E2.8943
G1 X119.7600 Y119.7600 E3.3302
G1 X100.2400 Y119.7600 E4.3118
G1 X107.0180 Y102.8000 F11000 ; custom feedrate
G92 E0.0000
G1 X107.0280 Y102.7900 E0.0007 F5280 ; custom feedrate
G1 X107.0280 Y102.1110 E0.0348
G1 X107.0180 Y102.1200 E0.0355
G1 X108.2760 Y102.1010 F11000 ; custom feedrate
G1 X108.2760 Y102.1370
G1 X110.5980 Y102.1370
G1 X110.5980 Y102.0640
G1 X111.8460 Y102.0440
G92 E0.0000
G1 X111.9800 Y101.9110 E0.0095 F5280 ; custom feedrate
G1 X111.9800 Y102.5890 E0.0436
G1 X111.8460 Y102.7240 E0.0532
G1 X117.2250 Y106.8480 F11000 ; custom feedrate
G92 E0.0000
G1 X117.4150 Y106.6580 E0.0135 F5280 ; custom feedrate
G1 X118.0940 Y106.6580 E0.0477
G1 X117.9040 Y106.8480 E0.0612
G1 X118.0420 Y108.0960 F11000 ; custom feedrate
G1 X117.8240 Y108.0960
G1 X117.8230 Y111.0900
G1 X118.3730 Y111.0910
G1 X118.5120 Y112.3490
G92 E0.0000
G1 X118.3670 Y112.4940 E0.0103 F5280 ; custom feedrate
G1 X117.6900 Y112.4930 E0.0444
G1 X117.8440 Y112.3380 E0.0553
G1 X117.6590 Y112.3380 E0.0647
G1 X117.1660 Y112.3380 E0.0894
G1 X117.0560 Y112.4470 E0.0972
G1 X118.4520 Y114.2760 F11000 ; custom feedrate
G92 E0.0000
G1 X114.2760 Y118.4520 E0.3712 F6600 ; custom feedrate
G1 X110.0330 Y118.4520 E0.6379
G1 X116.5150 Y111.9710 E1.2141
G1 X116.5170 Y107.7260 E1.4810
G1 X105.7910 Y118.4520 E2.4345
G1 X101.5480 Y118.4520 E2.7012
G1 X118.4520 Y101.5480 E4.2040
G1 X114.2090 Y101.5480 E4.4707
G1 X112.5210 Y103.2370 E4.6208
G1 X112.5210 Y103.4450 E4.6339
G1 X112.3120 Y103.4450 E4.6470
G1 X101.5480 Y114.2090 E5.6039
G1 X101.5480 Y109.9670 E5.8706
G1 X108.0700 Y103.4450 E6.4505
G1 X107.5680 Y103.4450 E6.4820
G1 X106.4780 Y103.4450 E6.5506
G1 X106.4790 Y101.5480 E6.6699
G1 X105.7240 Y101.5480 E6.7173
G1 X101.5480 Y105.7240 E7.0886
G92 E0.0000
G1 E-6 F2400 ; custom retraction
;layer 37, Z = 10.360
;fan37;
G1 Z10.360 F1200
G1 X101.2000 Y101.2000 F11000 ; custom feedrate
G1 E0 F2400 ; custom un-retraction/prime
G92 E0.0000
G1 X107.2990 Y101.2000 E0.3067 F5280 ; custom feedrate
G1 X107.2980 Y103.0970 E0.4021
G1 X111.6360 Y103.0970 E0.6202
G1 X111.6350 Y101.2000 E0.7156
G1 X118.8000 Y101.2000 E1.0760
G1 X118.8000 Y106.9680 E1.3660
G1 X116.8650 Y106.9690 E1.4633
G1 X116.8630 Y112.2080 E1.7268
G1 X118.8000 Y112.2100 E1.8242
