; G-Code originally generated by Simplify3D(R) Version 4.1.2
; This calibration test gcode modified by the Teaching Tech Calibration website: https://teachingtechyt.github.io/calibration.html
;M80 ; power supply on
G90
M82
M106 S0
M140 S80 ; custom bed temp
M190 S80 ; custom bed temp
M104 S185 T0 ; custom hot end temp minus 50 degrees
G28 ; home all axes
;G29 ; probe ABL
M420 S1 ; restore ABL mesh
M109 S235 T0 ; custom hot end temp 
;customstart
G0 Z3; fix for delta printers that home at max
; square 1
;process Process
;layer 1, Z = 0.280
T0
G92 E0.0000
G1 E-6 F2400 ; custom retraction
;fan1;
G1 Z0.280 F1200
G1 X24.6360 Y26.3140 F11000 ; custom feedrate
G1 E0 F2400 ; custom un-retraction/prime
G92 E0.0000
G1 X26.3140 Y24.6360 E0.1432 F3300 ; custom feedrate
G1 X53.6860 Y24.6360 E1.7950
G1 X55.3640 Y26.3140 E1.9382
G1 X55.3640 Y53.6860 E3.5900
G1 X53.6860 Y55.3640 E3.7332
G1 X26.3140 Y55.3640 E5.3851
G1 X24.6360 Y53.6860 E5.5282
G1 X24.6360 Y26.3140 E7.1801
G92 E0.0000
G1 E-6 F2400 ; custom retraction
;zhop1
G1 X25.2120 Y26.5520 F11000 ; custom feedrate
G1 Z0.280 F1200
G1 E0 F2400 ; custom un-retraction/prime
G92 E0.0000
G1 X26.5520 Y25.2120 E0.1144 F3300 ; custom feedrate
G1 X53.4480 Y25.2120 E1.7374
G1 X54.7880 Y26.5520 E1.8518
G1 X54.7880 Y53.4480 E3.4749
G1 X53.4480 Y54.7880 E3.5892
G1 X26.5520 Y54.7880 E5.2123
G1 X25.2120 Y53.4480 E5.3267
G1 X25.2120 Y26.5520 E6.9497
G92 E0.0000
G1 E-6 F2400 ; custom retraction
;zhop1
G1 X27.7880 Y27.7880 F11000 ; custom feedrate
G1 X27.7880 Y28.2020
G1 X28.9400 Y28.9400
G1 Z0.280 F1200
G1 E0 F2400 ; custom un-retraction/prime
G92 E0.0000
G1 X51.0600 Y28.9400 E1.3349 F2640 ; custom feedrate
G1 X51.0600 Y51.0600 E2.6697
G1 X28.9400 Y51.0600 E4.0046
G1 X28.9400 Y28.9400 E5.3394
G1 X28.3640 Y28.3640 F11000 ; custom feedrate
G92 E0.0000
G1 X51.6360 Y28.3640 E1.4044 F2640 ; custom feedrate
G1 X51.6360 Y51.6360 E2.8088
G1 X28.3640 Y51.6360 E4.2131
G1 X28.3640 Y28.3640 E5.6175
G1 X27.7880 Y27.7880 F11000 ; custom feedrate
G92 E0.0000
G1 X52.2120 Y27.7880 E1.4739 F1980 ; custom feedrate
G1 X52.2120 Y52.2120 E2.9478
G1 X27.7880 Y52.2120 E4.4217
G1 X27.7880 Y27.7880 E5.8956
G1 X50.4650 Y29.2860 F11000 ; custom feedrate
G92 E0.0000
G1 X50.7140 Y29.5350 E0.0213 F2640 ; custom feedrate
G1 X50.7140 Y30.3500 E0.0704
G1 X49.6500 Y29.2860 E0.1612
G1 X48.8360 Y29.2860 E0.2104
G1 X50.7140 Y31.1640 E0.3707
G1 X50.7140 Y31.9790 E0.4198
G1 X48.0210 Y29.2860 E0.6497
G1 X47.2070 Y29.2860 E0.6988
G1 X50.7140 Y32.7930 E0.9982
G1 X50.7140 Y33.6080 E1.0473
G1 X46.3920 Y29.2860 E1.4162
G1 X45.5780 Y29.2860 E1.4654
G1 X50.7140 Y34.4220 E1.9037
G1 X50.7140 Y35.2370 E1.9529
G1 X44.7630 Y29.2860 E2.4608
G1 X43.9480 Y29.2860 E2.5100
G1 X50.7140 Y36.0520 E3.0874
G1 X50.7140 Y36.8660 E3.1365
G1 X43.1340 Y29.2860 E3.7835
G1 X42.3190 Y29.2860 E3.8327
G1 X50.7140 Y37.6810 E4.5491
G1 X50.7140 Y38.4950 E4.5983
G1 X41.5050 Y29.2860 E5.3843
G1 X40.6900 Y29.2860 E5.4334
G1 X50.7140 Y39.3100 E6.2889
G1 X50.7140 Y40.1250 E6.3381
G1 X39.8750 Y29.2860 E7.2631
G1 X39.0610 Y29.2860 E7.3123
G1 X50.7140 Y40.9390 E8.3068
G1 X50.7140 Y41.7540 E8.3560
G1 X38.2460 Y29.2860 E9.4200
G1 X37.4320 Y29.2860 E9.4692
G1 X50.7140 Y42.5680 E10.6028
G1 X50.7140 Y43.3830 E10.6519
G1 X36.6170 Y29.2860 E11.8551
G1 X35.8020 Y29.2860 E11.9042
G1 X50.7140 Y44.1980 E13.1768
G1 X50.7140 Y45.0120 E13.2260
G1 X34.9880 Y29.2860 E14.5681
G1 X34.1730 Y29.2860 E14.6173
G1 X50.7140 Y45.8270 E16.0290
G1 X50.7140 Y46.6410 E16.0781
G1 X33.3590 Y29.2860 E17.5593
G1 X32.5440 Y29.2860 E17.6085
G1 X50.7140 Y47.4560 E19.1592
G1 X50.7140 Y48.2700 E19.2083
G1 X31.7300 Y29.2860 E20.8286
G1 X30.9150 Y29.2860 E20.8777
G1 X50.7140 Y49.0850 E22.5675
G1 X50.7140 Y49.9000 E22.6166
G1 X30.1000 Y29.2860 E24.3759
G1 X29.2860 Y29.2860 E24.4250
G1 X50.7140 Y50.7140 E26.2538
G1 X49.9000 Y50.7140 E26.3030
G1 X29.2860 Y30.1000 E28.0623
G1 X29.2860 Y30.9150 E28.1114
G1 X49.0850 Y50.7140 E29.8012
G1 X48.2700 Y50.7140 E29.8503
G1 X29.2860 Y31.7300 E31.4706
G1 X29.2860 Y32.5440 E31.5197
G1 X47.4560 Y50.7140 E33.0704
G1 X46.6410 Y50.7140 E33.1196
G1 X29.2860 Y33.3590 E34.6008
G1 X29.2860 Y34.1730 E34.6499
G1 X45.8270 Y50.7140 E36.0616
G1 X45.0120 Y50.7140 E36.1107
G1 X29.2860 Y34.9880 E37.4529
G1 X29.2860 Y35.8020 E37.5021
G1 X44.1980 Y50.7140 E38.7747
G1 X43.3830 Y50.7140 E38.8238
G1 X29.2860 Y36.6170 E40.0270
G1 X29.2860 Y37.4320 E40.0761
G1 X42.5680 Y50.7140 E41.2097
G1 X41.7540 Y50.7140 E41.2589
G1 X29.2860 Y38.2460 E42.3229
G1 X29.2860 Y39.0610 E42.3721
G1 X40.9390 Y50.7140 E43.3666
G1 X40.1250 Y50.7140 E43.4158
G1 X29.2860 Y39.8750 E44.3408
G1 X29.2860 Y40.6900 E44.3900
G1 X39.3100 Y50.7140 E45.2455
G1 X38.4950 Y50.7140 E45.2946
G1 X29.2860 Y41.5050 E46.0806
G1 X29.2860 Y42.3190 E46.1298
G1 X37.6810 Y50.7140 E46.8463
G1 X36.8660 Y50.7140 E46.8954
G1 X29.2860 Y43.1340 E47.5424
G1 X29.2860 Y43.9480 E47.5915
G1 X36.0520 Y50.7140 E48.1690
G1 X35.2370 Y50.7140 E48.2181
G1 X29.2860 Y44.7630 E48.7260
G1 X29.2860 Y45.5770 E48.7752
G1 X34.4230 Y50.7140 E49.2136
G1 X33.6080 Y50.7140 E49.2627
G1 X29.2860 Y46.3920 E49.6316
G1 X29.2860 Y47.2070 E49.6808
G1 X32.7930 Y50.7140 E49.9801
G1 X31.9790 Y50.7140 E50.0293
G1 X29.2860 Y48.0210 E50.2591
G1 X29.2860 Y48.8360 E50.3082
G1 X31.1640 Y50.7140 E50.4686
G1 X30.3500 Y50.7140 E50.5177
G1 X29.2860 Y49.6500 E50.6085
G1 X29.2860 Y50.4650 E50.6577
G1 X29.5350 Y50.7140 E50.6789
G92 E0.0000
G1 E-6 F2400 ; custom retraction

; square 2
;process Process
;layer 1, Z = 0.280
T0
G92 E0.0000
G1 E-6 F2400 ; custom retraction
;fan1;
G1 Z0.280 F1200
G1 X24.6360 Y166.3140 F11000 ; custom feedrate
G1 E0 F2400 ; custom un-retraction/prime
G92 E0.0000
G1 X26.3140 Y164.6360 E0.1432 F3300 ; custom feedrate
G1 X53.6860 Y164.6360 E1.7950
G1 X55.3640 Y166.3140 E1.9382
G1 X55.3640 Y193.6860 E3.5900
G1 X53.6860 Y195.3640 E3.7332
G1 X26.3140 Y195.3640 E5.3851
G1 X24.6360 Y193.6860 E5.5282
G1 X24.6360 Y166.3140 E7.1801
G92 E0.0000
G1 E-6 F2400 ; custom retraction
;zhop1
G1 X25.2120 Y166.5520 F11000 ; custom feedrate
G1 Z0.280 F1200
G1 E0 F2400 ; custom un-retraction/prime
G92 E0.0000
G1 X26.5520 Y165.2120 E0.1144 F3300 ; custom feedrate
G1 X53.4480 Y165.2120 E1.7374
G1 X54.7880 Y166.5520 E1.8518
G1 X54.7880 Y193.4480 E3.4749
G1 X53.4480 Y194.7880 E3.5892
G1 X26.5520 Y194.7880 E5.2123
G1 X25.2120 Y193.4480 E5.3267
G1 X25.2120 Y166.5520 E6.9497
G92 E0.0000
G1 E-6 F2400 ; custom retraction
;zhop1
G1 X27.7880 Y167.7880 F11000 ; custom feedrate
G1 X27.7880 Y168.2020
G1 X28.9400 Y168.9400
G1 Z0.280 F1200
G1 E0 F2400 ; custom un-retraction/prime
G92 E0.0000
G1 X51.0600 Y168.9400 E1.3349 F2640 ; custom feedrate
G1 X51.0600 Y191.0600 E2.6697
G1 X28.9400 Y191.0600 E4.0046
G1 X28.9400 Y168.9400 E5.3394
G1 X28.3640 Y168.3640 F11000 ; custom feedrate
G92 E0.0000
G1 X51.6360 Y168.3640 E1.4044 F2640 ; custom feedrate
G1 X51.6360 Y191.6360 E2.8088
G1 X28.3640 Y191.6360 E4.2131
G1 X28.3640 Y168.3640 E5.6175
G1 X27.7880 Y167.7880 F11000 ; custom feedrate
G92 E0.0000
G1 X52.2120 Y167.7880 E1.4739 F1980 ; custom feedrate
G1 X52.2120 Y192.2120 E2.9478
G1 X27.7880 Y192.2120 E4.4217
G1 X27.7880 Y167.7880 E5.8956
G1 X50.4650 Y169.2860 F11000 ; custom feedrate
G92 E0.0000
G1 X50.7140 Y169.5350 E0.0213 F2640 ; custom feedrate
G1 X50.7140 Y170.3500 E0.0704
G1 X49.6500 Y169.2860 E0.1612
G1 X48.8360 Y169.2860 E0.2104
G1 X50.7140 Y171.1640 E0.3707
G1 X50.7140 Y171.9790 E0.4198
G1 X48.0210 Y169.2860 E0.6497
G1 X47.2070 Y169.2860 E0.6988
G1 X50.7140 Y172.7930 E0.9982
G1 X50.7140 Y173.6080 E1.0473
G1 X46.3920 Y169.2860 E1.4162
G1 X45.5780 Y169.2860 E1.4654
G1 X50.7140 Y174.4220 E1.9037
G1 X50.7140 Y175.2370 E1.9529
G1 X44.7630 Y169.2860 E2.4608
G1 X43.9480 Y169.2860 E2.5100
G1 X50.7140 Y176.0520 E3.0874
G1 X50.7140 Y176.8660 E3.1365
G1 X43.1340 Y169.2860 E3.7835
G1 X42.3190 Y169.2860 E3.8327
G1 X50.7140 Y177.6810 E4.5491
G1 X50.7140 Y178.4950 E4.5983
G1 X41.5050 Y169.2860 E5.3843
G1 X40.6900 Y169.2860 E5.4334
G1 X50.7140 Y179.3100 E6.2889
G1 X50.7140 Y180.1250 E6.3381
G1 X39.8750 Y169.2860 E7.2631
G1 X39.0610 Y169.2860 E7.3123
G1 X50.7140 Y180.9390 E8.3068
G1 X50.7140 Y181.7540 E8.3560
G1 X38.2460 Y169.2860 E9.4200
G1 X37.4320 Y169.2860 E9.4692
G1 X50.7140 Y182.5680 E10.6028
G1 X50.7140 Y183.3830 E10.6519
G1 X36.6170 Y169.2860 E11.8551
G1 X35.8020 Y169.2860 E11.9042
G1 X50.7140 Y184.1980 E13.1768
G1 X50.7140 Y185.0120 E13.2260
G1 X34.9880 Y169.2860 E14.5681
G1 X34.1730 Y169.2860 E14.6173
G1 X50.7140 Y185.8270 E16.0290
G1 X50.7140 Y186.6410 E16.0781
G1 X33.3590 Y169.2860 E17.5593
G1 X32.5440 Y169.2860 E17.6085
G1 X50.7140 Y187.4560 E19.1592
G1 X50.7140 Y188.2700 E19.2083
G1 X31.7300 Y169.2860 E20.8286
G1 X30.9150 Y169.2860 E20.8777
G1 X50.7140 Y189.0850 E22.5675
G1 X50.7140 Y189.9000 E22.6166
G1 X30.1000 Y169.2860 E24.3759
G1 X29.2860 Y169.2860 E24.4250
G1 X50.7140 Y190.7140 E26.2538
G1 X49.9000 Y190.7140 E26.3030
G1 X29.2860 Y170.1000 E28.0623
G1 X29.2860 Y170.9150 E28.1114
G1 X49.0850 Y190.7140 E29.8012
G1 X48.2700 Y190.7140 E29.8503
G1 X29.2860 Y171.7300 E31.4706
G1 X29.2860 Y172.5440 E31.5197
G1 X47.4560 Y190.7140 E33.0704
G1 X46.6410 Y190.7140 E33.1196
G1 X29.2860 Y173.3590 E34.6008
G1 X29.2860 Y174.1730 E34.6499
G1 X45.8270 Y190.7140 E36.0616
G1 X45.0120 Y190.7140 E36.1107
G1 X29.2860 Y174.9880 E37.4529
G1 X29.2860 Y175.8020 E37.5021
G1 X44.1980 Y190.7140 E38.7747
G1 X43.3830 Y190.7140 E38.8238
G1 X29.2860 Y176.6170 E40.0270
G1 X29.2860 Y177.4320 E40.0761
G1 X42.5680 Y190.7140 E41.2097
G1 X41.7540 Y190.7140 E41.2589
G1 X29.2860 Y178.2460 E42.3229
G1 X29.2860 Y179.0610 E42.3721
G1 X40.9390 Y190.7140 E43.3666
G1 X40.1250 Y190.7140 E43.4158
G1 X29.2860 Y179.8750 E44.3408
G1 X29.2860 Y180.6900 E44.3900
G1 X39.3100 Y190.7140 E45.2455
G1 X38.4950 Y190.7140 E45.2946
G1 X29.2860 Y181.5050 E46.0806
G1 X29.2860 Y182.3190 E46.1298
G1 X37.6810 Y190.7140 E46.8463
G1 X36.8660 Y190.7140 E46.8954
G1 X29.2860 Y183.1340 E47.5424
G1 X29.2860 Y183.9480 E47.5915
G1 X36.0520 Y190.7140 E48.1690
G1 X35.2370 Y190.7140 E48.2181
G1 X29.2860 Y184.7630 E48.7260
G1 X29.2860 Y185.5770 E48.7752
G1 X34.4230 Y190.7140 E49.2136
G1 X33.6080 Y190.7140 E49.2627
G1 X29.2860 Y186.3920 E49.6316
G1 X29.2860 Y187.2070 E49.6808
G1 X32.7930 Y190.7140 E49.9801
G1 X31.9790 Y190.7140 E50.0293
G1 X29.2860 Y188.0210 E50.2591
G1 X29.2860 Y188.8360 E50.3082
G1 X31.1640 Y190.7140 E50.4686
G1 X30.3500 Y190.7140 E50.5177
G1 X29.2860 Y189.6500 E50.6085
G1 X29.2860 Y190.4650 E50.6577
G1 X29.5350 Y190.7140 E50.6789
G92 E0.0000
G1 E-6 F2400 ; custom retraction

; square 3
;process Process
;layer 1, Z = 0.280
T0
G92 E0.0000
G1 E-6 F2400 ; custom retraction
;fan1;
G1 Z0.280 F1200
G1 X94.6360 Y96.3140 F11000 ; custom feedrate
G1 E0 F2400 ; custom un-retraction/prime
G92 E0.0000
G1 X96.3140 Y94.6360 E0.1432 F3300 ; custom feedrate
G1 X123.6860 Y94.6360 E1.7950
G1 X125.3640 Y96.3140 E1.9382
G1 X125.3640 Y123.6860 E3.5900
G1 X123.6860 Y125.3640 E3.7332
G1 X96.3140 Y125.3640 E5.3851
G1 X94.6360 Y123.6860 E5.5282
G1 X94.6360 Y96.3140 E7.1801
G92 E0.0000
G1 E-6 F2400 ; custom retraction
;zhop1
G1 X95.2120 Y96.5520 F11000 ; custom feedrate
G1 Z0.280 F1200
G1 E0 F2400 ; custom un-retraction/prime
G92 E0.0000
G1 X96.5520 Y95.2120 E0.1144 F3300 ; custom feedrate
G1 X123.4480 Y95.2120 E1.7374
G1 X124.7880 Y96.5520 E1.8518
G1 X124.7880 Y123.4480 E3.4749
G1 X123.4480 Y124.7880 E3.5892
G1 X96.5520 Y124.7880 E5.2123
G1 X95.2120 Y123.4480 E5.3267
G1 X95.2120 Y96.5520 E6.9497
G92 E0.0000
G1 E-6 F2400 ; custom retraction
;zhop1
G1 X97.7880 Y97.7880 F11000 ; custom feedrate
G1 X97.7880 Y98.2020
G1 X98.9400 Y98.9400
G1 Z0.280 F1200
G1 E0 F2400 ; custom un-retraction/prime
G92 E0.0000
G1 X121.0600 Y98.9400 E1.3349 F2640 ; custom feedrate
G1 X121.0600 Y121.0600 E2.6697
G1 X98.9400 Y121.0600 E4.0046
G1 X98.9400 Y98.9400 E5.3394
G1 X98.3640 Y98.3640 F11000 ; custom feedrate
G92 E0.0000
G1 X121.6360 Y98.3640 E1.4044 F2640 ; custom feedrate
G1 X121.6360 Y121.6360 E2.8088
G1 X98.3640 Y121.6360 E4.2131
G1 X98.3640 Y98.3640 E5.6175
G1 X97.7880 Y97.7880 F11000 ; custom feedrate
G92 E0.0000
G1 X122.2120 Y97.7880 E1.4739 F1980 ; custom feedrate
G1 X122.2120 Y122.2120 E2.9478
G1 X97.7880 Y122.2120 E4.4217
G1 X97.7880 Y97.7880 E5.8956
G1 X120.4650 Y99.2860 F11000 ; custom feedrate
G92 E0.0000
G1 X120.7140 Y99.5350 E0.0213 F2640 ; custom feedrate
G1 X120.7140 Y100.3500 E0.0704
G1 X119.6500 Y99.2860 E0.1612
G1 X118.8360 Y99.2860 E0.2104
G1 X120.7140 Y101.1640 E0.3707
G1 X120.7140 Y101.9790 E0.4198
G1 X118.0210 Y99.2860 E0.6497
G1 X117.2070 Y99.2860 E0.6988
G1 X120.7140 Y102.7930 E0.9982
G1 X120.7140 Y103.6080 E1.0473
G1 X116.3920 Y99.2860 E1.4162
G1 X115.5780 Y99.2860 E1.4654
G1 X120.7140 Y104.4220 E1.9037
G1 X120.7140 Y105.2370 E1.9529
G1 X114.7630 Y99.2860 E2.4608
G1 X113.9480 Y99.2860 E2.5100
G1 X120.7140 Y106.0520 E3.0874
G1 X120.7140 Y106.8660 E3.1365
G1 X113.1340 Y99.2860 E3.7835
G1 X112.3190 Y99.2860 E3.8327
G1 X120.7140 Y107.6810 E4.5491
G1 X120.7140 Y108.4950 E4.5983
G1 X111.5050 Y99.2860 E5.3843
G1 X110.6900 Y99.2860 E5.4334
G1 X120.7140 Y109.3100 E6.2889
G1 X120.7140 Y110.1250 E6.3381
G1 X109.8750 Y99.2860 E7.2631
G1 X109.0610 Y99.2860 E7.3123
G1 X120.7140 Y110.9390 E8.3068
G1 X120.7140 Y111.7540 E8.3560
G1 X108.2460 Y99.2860 E9.4200
G1 X107.4320 Y99.2860 E9.4692
G1 X120.7140 Y112.5680 E10.6028
G1 X120.7140 Y113.3830 E10.6519
G1 X106.6170 Y99.2860 E11.8551
G1 X105.8020 Y99.2860 E11.9042
G1 X120.7140 Y114.1980 E13.1768
G1 X120.7140 Y115.0120 E13.2260
G1 X104.9880 Y99.2860 E14.5681
G1 X104.1730 Y99.2860 E14.6173
G1 X120.7140 Y115.8270 E16.0290
G1 X120.7140 Y116.6410 E16.0781
G1 X103.3590 Y99.2860 E17.5593
G1 X102.5440 Y99.2860 E17.6085
G1 X120.7140 Y117.4560 E19.1592
G1 X120.7140 Y118.2700 E19.2083
G1 X101.7300 Y99.2860 E20.8286
G1 X100.9150 Y99.2860 E20.8777
G1 X120.7140 Y119.0850 E22.5675
G1 X120.7140 Y119.9000 E22.6166
G1 X100.1000 Y99.2860 E24.3759
G1 X99.2860 Y99.2860 E24.4250
G1 X120.7140 Y120.7140 E26.2538
G1 X119.9000 Y120.7140 E26.3030
G1 X99.2860 Y100.1000 E28.0623
G1 X99.2860 Y100.9150 E28.1114
G1 X119.0850 Y120.7140 E29.8012
G1 X118.2700 Y120.7140 E29.8503
G1 X99.2860 Y101.7300 E31.4706
G1 X99.2860 Y102.5440 E31.5197
G1 X117.4560 Y120.7140 E33.0704
G1 X116.6410 Y120.7140 E33.1196
G1 X99.2860 Y103.3590 E34.6008
G1 X99.2860 Y104.1730 E34.6499
G1 X115.8270 Y120.7140 E36.0616
G1 X115.0120 Y120.7140 E36.1107
G1 X99.2860 Y104.9880 E37.4529
G1 X99.2860 Y105.8020 E37.5021
G1 X114.1980 Y120.7140 E38.7747
G1 X113.3830 Y120.7140 E38.8238
G1 X99.2860 Y106.6170 E40.0270
G1 X99.2860 Y107.4320 E40.0761
G1 X112.5680 Y120.7140 E41.2097
G1 X111.7540 Y120.7140 E41.2589
G1 X99.2860 Y108.2460 E42.3229
G1 X99.2860 Y109.0610 E42.3721
G1 X110.9390 Y120.7140 E43.3666
G1 X110.1250 Y120.7140 E43.4158
G1 X99.2860 Y109.8750 E44.3408
G1 X99.2860 Y110.6900 E44.3900
G1 X109.3100 Y120.7140 E45.2455
G1 X108.4950 Y120.7140 E45.2946
G1 X99.2860 Y111.5050 E46.0806
G1 X99.2860 Y112.3190 E46.1298
G1 X107.6810 Y120.7140 E46.8463
G1 X106.8660 Y120.7140 E46.8954
G1 X99.2860 Y113.1340 E47.5424
G1 X99.2860 Y113.9480 E47.5915
G1 X106.0520 Y120.7140 E48.1690
G1 X105.2370 Y120.7140 E48.2181
G1 X99.2860 Y114.7630 E48.7260
G1 X99.2860 Y115.5770 E48.7752
G1 X104.4230 Y120.7140 E49.2136
G1 X103.6080 Y120.7140 E49.2627
G1 X99.2860 Y116.3920 E49.6316
G1 X99.2860 Y117.2070 E49.6808
G1 X102.7930 Y120.7140 E49.9801
G1 X101.9790 Y120.7140 E50.0293
G1 X99.2860 Y118.0210 E50.2591
G1 X99.2860 Y118.8360 E50.3082
G1 X101.1640 Y120.7140 E50.4686
G1 X100.3500 Y120.7140 E50.5177
G1 X99.2860 Y119.6500 E50.6085
G1 X99.2860 Y120.4650 E50.6577
G1 X99.5350 Y120.7140 E50.6789
G92 E0.0000
G1 E-6 F2400 ; custom retraction

; square 4
;process Process
;layer 1, Z = 0.280
T0
G92 E0.0000
G1 E-6 F2400 ; custom retraction
;fan1;
G1 Z0.280 F1200
G1 X164.6360 Y26.3140 F11000 ; custom feedrate
G1 E0 F2400 ; custom un-retraction/prime
G92 E0.0000
G1 X166.3140 Y24.6360 E0.1432 F3300 ; custom feedrate
G1 X193.6860 Y24.6360 E1.7950
G1 X195.3640 Y26.3140 E1.9382
G1 X195.3640 Y53.6860 E3.5900
G1 X193.6860 Y55.3640 E3.7332
G1 X166.3140 Y55.3640 E5.3851
G1 X164.6360 Y53.6860 E5.5282
G1 X164.6360 Y26.3140 E7.1801
G92 E0.0000
G1 E-6 F2400 ; custom retraction
;zhop1
G1 X165.2120 Y26.5520 F11000 ; custom feedrate
G1 Z0.280 F1200
G1 E0 F2400 ; custom un-retraction/prime
G92 E0.0000
G1 X166.5520 Y25.2120 E0.1144 F3300 ; custom feedrate
G1 X193.4480 Y25.2120 E1.7374
G1 X194.7880 Y26.5520 E1.8518
G1 X194.7880 Y53.4480 E3.4749
G1 X193.4480 Y54.7880 E3.5892
G1 X166.5520 Y54.7880 E5.2123
G1 X165.2120 Y53.4480 E5.3267
G1 X165.2120 Y26.5520 E6.9497
G92 E0.0000
G1 E-6 F2400 ; custom retraction
;zhop1
G1 X167.7880 Y27.7880 F11000 ; custom feedrate
G1 X167.7880 Y28.2020
G1 X168.9400 Y28.9400
G1 Z0.280 F1200
G1 E0 F2400 ; custom un-retraction/prime
G92 E0.0000
G1 X191.0600 Y28.9400 E1.3349 F2640 ; custom feedrate
G1 X191.0600 Y51.0600 E2.6697
G1 X168.9400 Y51.0600 E4.0046
G1 X168.9400 Y28.9400 E5.3394
G1 X168.3640 Y28.3640 F11000 ; custom feedrate
G92 E0.0000
G1 X191.6360 Y28.3640 E1.4044 F2640 ; custom feedrate
G1 X191.6360 Y51.6360 E2.8088
G1 X168.3640 Y51.6360 E4.2131
G1 X168.3640 Y28.3640 E5.6175
G1 X167.7880 Y27.7880 F11000 ; custom feedrate
G92 E0.0000
G1 X192.2120 Y27.7880 E1.4739 F1980 ; custom feedrate
G1 X192.2120 Y52.2120 E2.9478
G1 X167.7880 Y52.2120 E4.4217
G1 X167.7880 Y27.7880 E5.8956
G1 X190.4650 Y29.2860 F11000 ; custom feedrate
G92 E0.0000
G1 X190.7140 Y29.5350 E0.0213 F2640 ; custom feedrate
G1 X190.7140 Y30.3500 E0.0704
G1 X189.6500 Y29.2860 E0.1612
G1 X188.8360 Y29.2860 E0.2104
G1 X190.7140 Y31.1640 E0.3707
G1 X190.7140 Y31.9790 E0.4198
G1 X188.0210 Y29.2860 E0.6497
G1 X187.2070 Y29.2860 E0.6988
G1 X190.7140 Y32.7930 E0.9982
G1 X190.7140 Y33.6080 E1.0473
G1 X186.3920 Y29.2860 E1.4162
G1 X185.5780 Y29.2860 E1.4654
G1 X190.7140 Y34.4220 E1.9037
G1 X190.7140 Y35.2370 E1.9529
G1 X184.7630 Y29.2860 E2.4608
G1 X183.9480 Y29.2860 E2.5100
G1 X190.7140 Y36.0520 E3.0874
G1 X190.7140 Y36.8660 E3.1365
G1 X183.1340 Y29.2860 E3.7835
G1 X182.3190 Y29.2860 E3.8327
G1 X190.7140 Y37.6810 E4.5491
G1 X190.7140 Y38.4950 E4.5983
G1 X181.5050 Y29.2860 E5.3843
G1 X180.6900 Y29.2860 E5.4334
G1 X190.7140 Y39.3100 E6.2889
G1 X190.7140 Y40.1250 E6.3381
G1 X179.8750 Y29.2860 E7.2631
G1 X179.0610 Y29.2860 E7.3123
G1 X190.7140 Y40.9390 E8.3068
G1 X190.7140 Y41.7540 E8.3560
G1 X178.2460 Y29.2860 E9.4200
G1 X177.4320 Y29.2860 E9.4692
G1 X190.7140 Y42.5680 E10.6028
G1 X190.7140 Y43.3830 E10.6519
G1 X176.6170 Y29.2860 E11.8551
G1 X175.8020 Y29.2860 E11.9042
G1 X190.7140 Y44.1980 E13.1768
G1 X190.7140 Y45.0120 E13.2260
G1 X174.9880 Y29.2860 E14.5681
G1 X174.1730 Y29.2860 E14.6173
G1 X190.7140 Y45.8270 E16.0290
G1 X190.7140 Y46.6410 E16.0781
G1 X173.3590 Y29.2860 E17.5593
G1 X172.5440 Y29.2860 E17.6085
G1 X190.7140 Y47.4560 E19.1592
G1 X190.7140 Y48.2700 E19.2083
G1 X171.7300 Y29.2860 E20.8286
G1 X170.9150 Y29.2860 E20.8777
G1 X190.7140 Y49.0850 E22.5675
G1 X190.7140 Y49.9000 E22.6166
G1 X170.1000 Y29.2860 E24.3759
G1 X169.2860 Y29.2860 E24.4250
G1 X190.7140 Y50.7140 E26.2538
G1 X189.9000 Y50.7140 E26.3030
G1 X169.2860 Y30.1000 E28.0623
G1 X169.2860 Y30.9150 E28.1114
G1 X189.0850 Y50.7140 E29.8012
G1 X188.2700 Y50.7140 E29.8503
G1 X169.2860 Y31.7300 E31.4706
G1 X169.2860 Y32.5440 E31.5197
G1 X187.4560 Y50.7140 E33.0704
G1 X186.6410 Y50.7140 E33.1196
G1 X169.2860 Y33.3590 E34.6008
G1 X169.2860 Y34.1730 E34.6499
G1 X185.8270 Y50.7140 E36.0616
G1 X185.0120 Y50.7140 E36.1107
G1 X169.2860 Y34.9880 E37.4529
G1 X169.2860 Y35.8020 E37.5021
G1 X184.1980 Y50.7140 E38.7747
G1 X183.3830 Y50.7140 E38.8238
G1 X169.2860 Y36.6170 E40.0270
G1 X169.2860 Y37.4320 E40.0761
G1 X182.5680 Y50.7140 E41.2097
G1 X181.7540 Y50.7140 E41.2589
G1 X169.2860 Y38.2460 E42.3229
G1 X169.2860 Y39.0610 E42.3721
G1 X180.9390 Y50.7140 E43.3666
G1 X180.1250 Y50.7140 E43.4158
G1 X169.2860 Y39.8750 E44.3408
G1 X169.2860 Y40.6900 E44.3900
G1 X179.3100 Y50.7140 E45.2455
G1 X178.4950 Y50.7140 E45.2946
G1 X169.2860 Y41.5050 E46.0806
G1 X169.2860 Y42.3190 E46.1298
G1 X177.6810 Y50.7140 E46.8463
G1 X176.8660 Y50.7140 E46.8954
G1 X169.2860 Y43.1340 E47.5424
G1 X169.2860 Y43.9480 E47.5915
G1 X176.0520 Y50.7140 E48.1690
G1 X175.2370 Y50.7140 E48.2181
G1 X169.2860 Y44.7630 E48.7260
G1 X169.2860 Y45.5770 E48.7752
G1 X174.4230 Y50.7140 E49.2136
G1 X173.6080 Y50.7140 E49.2627
G1 X169.2860 Y46.3920 E49.6316
G1 X169.2860 Y47.2070 E49.6808
G1 X172.7930 Y50.7140 E49.9801
G1 X171.9790 Y50.7140 E50.0293
G1 X169.2860 Y48.0210 E50.2591
G1 X169.2860 Y48.8360 E50.3082
G1 X171.1640 Y50.7140 E50.4686
G1 X170.3500 Y50.7140 E50.5177
G1 X169.2860 Y49.6500 E50.6085
G1 X169.2860 Y50.4650 E50.6577
G1 X169.5350 Y50.7140 E50.6789
G92 E0.0000
G1 E-6 F2400 ; custom retraction

; square 5
;process Process
;layer 1, Z = 0.280
T0
G92 E0.0000
G1 E-6 F2400 ; custom retraction
;fan1;
G1 Z0.280 F1200
G1 X164.6360 Y166.3140 F11000 ; custom feedrate
G1 E0 F2400 ; custom un-retraction/prime
G92 E0.0000
G1 X166.3140 Y164.6360 E0.1432 F3300 ; custom feedrate
G1 X193.6860 Y164.6360 E1.7950
G1 X195.3640 Y166.3140 E1.9382
G1 X195.3640 Y193.6860 E3.5900
G1 X193.6860 Y195.3640 E3.7332
G1 X166.3140 Y195.3640 E5.3851
G1 X164.6360 Y193.6860 E5.5282
G1 X164.6360 Y166.3140 E7.1801
G92 E0.0000
G1 E-6 F2400 ; custom retraction
;zhop1
G1 X165.2120 Y166.5520 F11000 ; custom feedrate
G1 Z0.280 F1200
G1 E0 F2400 ; custom un-retraction/prime
G92 E0.0000
G1 X166.5520 Y165.2120 E0.1144 F3300 ; custom feedrate
G1 X193.4480 Y165.2120 E1.7374
G1 X194.7880 Y166.5520 E1.8518
G1 X194.7880 Y193.4480 E3.4749
G1 X193.4480 Y194.7880 E3.5892
G1 X166.5520 Y194.7880 E5.2123
G1 X165.2120 Y193.4480 E5.3267
G1 X165.2120 Y166.5520 E6.9497
G92 E0.0000
G1 E-6 F2400 ; custom retraction
;zhop1
G1 X167.7880 Y167.7880 F11000 ; custom feedrate
G1 X167.7880 Y168.2020
G1 X168.9400 Y168.9400
G1 Z0.280 F1200
G1 E0 F2400 ; custom un-retraction/prime
G92 E0.0000
G1 X191.0600 Y168.9400 E1.3349 F2640 ; custom feedrate
G1 X191.0600 Y191.0600 E2.6697
G1 X168.9400 Y191.0600 E4.0046
G1 X168.9400 Y168.9400 E5.3394
G1 X168.3640 Y168.3640 F11000 ; custom feedrate
G92 E0.0000
G1 X191.6360 Y168.3640 E1.4044 F2640 ; custom feedrate
G1 X191.6360 Y191.6360 E2.8088
G1 X168.3640 Y191.6360 E4.2131
G1 X168.3640 Y168.3640 E5.6175
G1 X167.7880 Y167.7880 F11000 ; custom feedrate
G92 E0.0000
G1 X192.2120 Y167.7880 E1.4739 F1980 ; custom feedrate
G1 X192.2120 Y192.2120 E2.9478
G1 X167.7880 Y192.2120 E4.4217
G1 X167.7880 Y167.7880 E5.8956
G1 X190.4650 Y169.2860 F11000 ; custom feedrate
G92 E0.0000
G1 X190.7140 Y169.5350 E0.0213 F2640 ; custom feedrate
G1 X190.7140 Y170.3500 E0.0704
G1 X189.6500 Y169.2860 E0.1612
G1 X188.8360 Y169.2860 E0.2104
G1 X190.7140 Y171.1640 E0.3707
G1 X190.7140 Y171.9790 E0.4198
G1 X188.0210 Y169.2860 E0.6497
G1 X187.2070 Y169.2860 E0.6988
G1 X190.7140 Y172.7930 E0.9982
G1 X190.7140 Y173.6080 E1.0473
G1 X186.3920 Y169.2860 E1.4162
G1 X185.5780 Y169.2860 E1.4654
G1 X190.7140 Y174.4220 E1.9037
G1 X190.7140 Y175.2370 E1.9529
G1 X184.7630 Y169.2860 E2.4608
G1 X183.9480 Y169.2860 E2.5100
G1 X190.7140 Y176.0520 E3.0874
G1 X190.7140 Y176.8660 E3.1365
G1 X183.1340 Y169.2860 E3.7835
G1 X182.3190 Y169.2860 E3.8327
G1 X190.7140 Y177.6810 E4.5491
G1 X190.7140 Y178.4950 E4.5983
G1 X181.5050 Y169.2860 E5.3843
G1 X180.6900 Y169.2860 E5.4334
G1 X190.7140 Y179.3100 E6.2889
G1 X190.7140 Y180.1250 E6.3381
G1 X179.8750 Y169.2860 E7.2631
G1 X179.0610 Y169.2860 E7.3123
G1 X190.7140 Y180.9390 E8.3068
G1 X190.7140 Y181.7540 E8.3560
G1 X178.2460 Y169.2860 E9.4200
G1 X177.4320 Y169.2860 E9.4692
G1 X190.7140 Y182.5680 E10.6028
G1 X190.7140 Y183.3830 E10.6519
G1 X176.6170 Y169.2860 E11.8551
G1 X175.8020 Y169.2860 E11.9042
G1 X190.7140 Y184.1980 E13.1768
G1 X190.7140 Y185.0120 E13.2260
G1 X174.9880 Y169.2860 E14.5681
G1 X174.1730 Y169.2860 E14.6173
G1 X190.7140 Y185.8270 E16.0290
G1 X190.7140 Y186.6410 E16.0781
G1 X173.3590 Y169.2860 E17.5593
G1 X172.5440 Y169.2860 E17.6085
G1 X190.7140 Y187.4560 E19.1592
G1 X190.7140 Y188.2700 E19.2083
G1 X171.7300 Y169.2860 E20.8286
G1 X170.9150 Y169.2860 E20.8777
G1 X190.7140 Y189.0850 E22.5675
G1 X190.7140 Y189.9000 E22.6166
G1 X170.1000 Y169.2860 E24.3759
G1 X169.2860 Y169.2860 E24.4250
G1 X190.7140 Y190.7140 E26.2538
G1 X189.9000 Y190.7140 E26.3030
G1 X169.2860 Y170.1000 E28.0623
G1 X169.2860 Y170.9150 E28.1114
G1 X189.0850 Y190.7140 E29.8012
G1 X188.2700 Y190.7140 E29.8503
G1 X169.2860 Y171.7300 E31.4706
G1 X169.2860 Y172.5440 E31.5197
G1 X187.4560 Y190.7140 E33.0704
G1 X186.6410 Y190.7140 E33.1196
G1 X169.2860 Y173.3590 E34.6008
G1 X169.2860 Y174.1730 E34.6499
G1 X185.8270 Y190.7140 E36.0616
G1 X185.0120 Y190.7140 E36.1107
G1 X169.2860 Y174.9880 E37.4529
G1 X169.2860 Y175.8020 E37.5021
G1 X184.1980 Y190.7140 E38.7747
G1 X183.3830 Y190.7140 E38.8238
G1 X169.2860 Y176.6170 E40.0270
G1 X169.2860 Y177.4320 E40.0761
G1 X182.5680 Y190.7140 E41.2097
G1 X181.7540 Y190.7140 E41.2589
G1 X169.2860 Y178.2460 E42.3229
G1 X169.2860 Y179.0610 E42.3721
G1 X180.9390 Y190.7140 E43.3666
G1 X180.1250 Y190.7140 E43.4158
G1 X169.2860 Y179.8750 E44.3408
G1 X169.2860 Y180.6900 E44.3900
G1 X179.3100 Y190.7140 E45.2455
G1 X178.4950 Y190.7140 E45.2946
G1 X169.2860 Y181.5050 E46.0806
G1 X169.2860 Y182.3190 E46.1298
G1 X177.6810 Y190.7140 E46.8463
G1 X176.8660 Y190.7140 E46.8954
G1 X169.2860 Y183.1340 E47.5424
G1 X169.2860 Y183.9480 E47.5915
G1 X176.0520 Y190.7140 E48.1690
G1 X175.2370 Y190.7140 E48.2181
G1 X169.2860 Y184.7630 E48.7260
G1 X169.2860 Y185.5770 E48.7752
G1 X174.4230 Y190.7140 E49.2136
G1 X173.6080 Y190.7140 E49.2627
G1 X169.2860 Y186.3920 E49.6316
G1 X169.2860 Y187.2070 E49.6808
G1 X172.7930 Y190.7140 E49.9801
G1 X171.9790 Y190.7140 E50.0293
G1 X169.2860 Y188.0210 E50.2591
G1 X169.2860 Y188.8360 E50.3082
G1 X171.1640 Y190.7140 E50.4686
G1 X170.3500 Y190.7140 E50.5177
G1 X169.2860 Y189.6500 E50.6085
G1 X169.2860 Y190.4650 E50.6577
G1 X169.5350 Y190.7140 E50.6789
G92 E0.0000
G1 E-6 F2400 ; custom retraction

G28 X0 ; home X axis
M106 S0 ; turn off cooling fan
M104 S0 ; turn off extruder
M140 S0 ; turn off bed
M84 ; disable motors
;customend
