;FLAVOR:Marlin
;TIME:196
;Filament used: 0.11943m
;Layer height: 0.4
;MINX:0
;MINY:0
;MINZ:0.66
;MAXX:127.31
;MAXY:127.31
;MAXZ:9.86
;TARGET_MACHINE.NAME:Creality Ender-3
;MKSPREVIEWPROCESSED
; Postprocessed by [MKS WiFi plugin](https://github.com/PrintMakerLab/mks-wifi-plugin)
; simage=0
; gimage=0
;POSTPROCESSED
;  [BrickLayers]
;LINEARADVANCEPROCESSED
;ZOFFSETPROCESSED
;Generated with Cura_SteamEngine 5.10.1
M140 S90
M105
M190 S90
M104 S255
M105
M109 S255
; Ender 3 Custom Start G-code
G92 E0 ; Reset Extruder
G28 ; Home all axes
G1 Z2.0 F3000 ; Move Z Axis up little to prevent scratching of Heat Bed
G1 X0.1 Y20 Z0.3 F5000.0 ; Move to start position
G1 X0.1 Y200.0 Z0.3 F1500.0 E15 ; Draw the first line
G1 X0.4 Y200.0 Z0.3 F5000.0 ; Move to side a little
G1 X0.4 Y20 Z0.3 F1500.0 E30 ; Draw the second line
G92 E0 ; Reset Extruder
G1 Z2.0 F3000 ; Move Z Axis up little to prevent scratching of Heat Bed
G1 X5 Y20 Z0.3 F5000.0 ; Move over to prevent blob squish
M82 ;absolute extrusion mode
G92 E0
G92 E0
G1 F2700 E-3.2
;LAYER_COUNT:23
M900 K0.330000 T0 ;added by LinearAdvanceSettingPlugin
;LAYER:0
M107
M104 S235
M204 S1000
M205 X5 Y5
G0 F480 X0.00 Y0.00 Z0.785 ;adjusted by z offset
G92 Z0.66 ;consider this the original z before offset
G0 F3000 X108.458 Y107.045
G0 X126.752 Y126.718
G0 X127.277 Y127.277
;TIME_ELAPSED:8.219008
;LAYER:1
;note -- min layer time used
M140 S80
M106 S40
M204 S500
;TYPE:WALL-OUTER
;MESH:flow-rate.stl
G1 F2700 E0
G1 F516.7 X127.305 Y127.185 E0.00602
G1 F561 X127.31 Y107.88 E1.11843
G1 F523 X127.277 Y107.723 E1.12835
G1 X127.12 Y107.69 E1.13827
G1 F564 X117.467 Y107.693 E1.69161
G1 F555.3 X107.814 Y107.695 E2.25363
G1 F516.7 X107.723 Y107.723 E2.25959
G1 F524.3 X107.69 Y107.88 E2.26948
G1 F564 X107.693 Y117.533 E2.82282
G1 F555.3 X107.695 Y127.186 E3.38484
G1 F516.7 X107.723 Y127.277 E3.3908
G1 F524.3 X107.88 Y127.31 E3.40069
G1 F564 X117.533 Y127.307 E3.95404
G1 F555.3 X126.787 Y127.305 E4.49282
G0 F3294 X127.186 Y127.305
G0 X127.277 Y127.277
M204 S1000
G1 F2700 E1.29282
;MESH:NONMESH
G0 F480 X127.277 Y127.277 Z1.06
G0 F7500 X127.305 Y127.185
;TIME_ELAPSED:16.993728
;LAYER:2
;note -- min layer time used
M106 S79.9
M204 S500
;TYPE:WALL-OUTER
;MESH:flow-rate.stl
G1 F2700 E4.49282
G1 F561 X127.31 Y107.88 E5.72884
G1 F523 X127.277 Y107.723 E5.73986
G1 X127.12 Y107.69 E5.75088
G1 F564 X117.467 Y107.693 E6.36571
G1 F555.3 X107.814 Y107.695 E6.99017
G1 F516.7 X107.723 Y107.723 E6.99679
G1 F524.3 X107.69 Y107.88 E7.00778
G1 F564 X107.693 Y117.533 E7.62261
G1 F555.3 X107.695 Y127.186 E8.24707
G1 F516.7 X107.723 Y127.277 E8.25369
G1 F524.3 X107.88 Y127.31 E8.26468
G1 F564 X117.533 Y127.307 E8.87951
G1 F555.3 X126.933 Y127.305 E9.48761
G0 F3888 X127.186 Y127.305
G0 X127.277 Y127.277
G0 X127.305 Y127.185
;TIME_ELAPSED:25.564787
;LAYER:3
;note -- min layer time used
M106 S119.8
M204 S1000
;MESH:flow-rate.stl
G0 F12000 X127.305 Y127.185 Z1.5
M204 S500
;TYPE:WALL-OUTER
G1 F561 X127.31 Y107.88 E10.84723
G1 F523 X127.277 Y107.723 E10.85935
G1 X127.12 Y107.69 E10.87147
G1 F564 X117.467 Y107.693 E11.54778
G1 F555.3 X107.814 Y107.695 E12.23469
G1 F516.7 X107.723 Y107.723 E12.24197
G1 F524.3 X107.69 Y107.88 E12.25406
G1 F564 X107.693 Y117.533 E12.93037
G1 F555.3 X107.695 Y127.186 E13.61728
G1 F516.7 X107.723 Y127.277 E13.62456
G1 F524.3 X107.88 Y127.31 E13.63665
G1 F564 X117.533 Y127.307 E14.31297
G1 F555.3 X126.973 Y127.305 E14.98472
G0 F3888 X127.186 Y127.305
G0 X127.277 Y127.277
G0 X127.305 Y127.185
;TIME_ELAPSED:34.112542
;LAYER:4
;note -- min layer time used
M204 S1000
;MESH:flow-rate.stl
G0 F12000 X127.305 Y127.185 Z1.94
M204 S500
;TYPE:WALL-OUTER
G1 F561 X127.31 Y107.88 E16.34434
G1 F523 X127.277 Y107.723 E16.35646
G1 X127.12 Y107.69 E16.36858
G1 F564 X117.467 Y107.693 E17.04489
G1 F555.3 X107.814 Y107.695 E17.7318
G1 F516.7 X107.723 Y107.723 E17.73908
G1 F524.3 X107.69 Y107.88 E17.75117
G1 F564 X107.693 Y117.533 E18.42748
G1 F555.3 X107.695 Y127.186 E19.11439
G1 F516.7 X107.723 Y127.277 E19.12167
G1 F524.3 X107.88 Y127.31 E19.13376
G1 F564 X117.533 Y127.307 E19.81008
G1 F555.3 X126.973 Y127.305 E20.48183
G0 F3888 X127.186 Y127.305
G0 X127.277 Y127.277
G0 X127.305 Y127.185
;TIME_ELAPSED:42.660296
;LAYER:5
;note -- min layer time used
M204 S1000
;MESH:flow-rate.stl
G0 F12000 X127.305 Y127.185 Z2.38
M204 S500
;TYPE:WALL-OUTER
G1 F561 X127.31 Y107.88 E21.84145
G1 F523 X127.277 Y107.723 E21.85357
G1 X127.12 Y107.69 E21.86569
G1 F564 X117.467 Y107.693 E22.542
G1 F555.3 X107.814 Y107.695 E23.22891
G1 F516.7 X107.723 Y107.723 E23.23619
G1 F524.3 X107.69 Y107.88 E23.24828
G1 F564 X107.693 Y117.533 E23.92459
G1 F555.3 X107.695 Y127.186 E24.6115
G1 F516.7 X107.723 Y127.277 E24.61878
G1 F524.3 X107.88 Y127.31 E24.63087
G1 F564 X117.533 Y127.307 E25.30719
G1 F555.3 X126.973 Y127.305 E25.97894
G0 F3888 X127.186 Y127.305
G0 X127.277 Y127.277
G0 X127.305 Y127.185
;TIME_ELAPSED:51.208051
;LAYER:6
;note -- min layer time used
M204 S1000
;MESH:flow-rate.stl
G0 F12000 X127.305 Y127.185 Z2.82
M204 S500
;TYPE:WALL-OUTER
G1 F561 X127.31 Y107.88 E27.33856
G1 F523 X127.277 Y107.723 E27.35068
G1 X127.12 Y107.69 E27.3628
G1 F564 X117.467 Y107.693 E28.03911
G1 F555.3 X107.814 Y107.695 E28.72602
G1 F516.7 X107.723 Y107.723 E28.7333
G1 F524.3 X107.69 Y107.88 E28.74539
G1 F564 X107.693 Y117.533 E29.4217
G1 F555.3 X107.695 Y127.186 E30.10861
G1 F516.7 X107.723 Y127.277 E30.11589
G1 F524.3 X107.88 Y127.31 E30.12798
G1 F564 X117.533 Y127.307 E30.80429
G1 F555.3 X126.973 Y127.305 E31.47605
G0 F3888 X127.186 Y127.305
G0 X127.277 Y127.277
G0 X127.305 Y127.185
;TIME_ELAPSED:59.755805
;LAYER:7
;note -- min layer time used
M204 S1000
;MESH:flow-rate.stl
G0 F12000 X127.305 Y127.185 Z3.26
M204 S500
;TYPE:WALL-OUTER
G1 F561 X127.31 Y107.88 E32.83566
G1 F523 X127.277 Y107.723 E32.84779
G1 X127.12 Y107.69 E32.85991
G1 F564 X117.467 Y107.693 E33.53622
G1 F555.3 X107.814 Y107.695 E34.22313
G1 F516.7 X107.723 Y107.723 E34.23041
G1 F524.3 X107.69 Y107.88 E34.2425
G1 F564 X107.693 Y117.533 E34.91881
G1 F555.3 X107.695 Y127.186 E35.60572
G1 F516.7 X107.723 Y127.277 E35.613
G1 F524.3 X107.88 Y127.31 E35.62509
G1 F564 X117.533 Y127.307 E36.3014
G1 F555.3 X126.973 Y127.305 E36.97316
G0 F3888 X127.186 Y127.305
G0 X127.277 Y127.277
G0 X127.305 Y127.185
;TIME_ELAPSED:68.303560
;LAYER:8
;note -- min layer time used
M204 S1000
;MESH:flow-rate.stl
G0 F12000 X127.305 Y127.185 Z3.7
M204 S500
;TYPE:WALL-OUTER
G1 F561 X127.31 Y107.88 E38.33277
G1 F523 X127.277 Y107.723 E38.3449
G1 X127.12 Y107.69 E38.35702
G1 F564 X117.467 Y107.693 E39.03333
G1 F555.3 X107.814 Y107.695 E39.72024
G1 F516.7 X107.723 Y107.723 E39.72752
G1 F524.3 X107.69 Y107.88 E39.73961
G1 F564 X107.693 Y117.533 E40.41592
G1 F555.3 X107.695 Y127.186 E41.10283
G1 F516.7 X107.723 Y127.277 E41.11011
G1 F524.3 X107.88 Y127.31 E41.1222
G1 F564 X117.533 Y127.307 E41.79851
G1 F555.3 X126.973 Y127.305 E42.47027
G0 F3888 X127.186 Y127.305
G0 X127.277 Y127.277
G0 X127.305 Y127.185
;TIME_ELAPSED:76.851314
;LAYER:9
;note -- min layer time used
M204 S1000
;MESH:flow-rate.stl
G0 F12000 X127.305 Y127.185 Z4.14
M204 S500
;TYPE:WALL-OUTER
G1 F561 X127.31 Y107.88 E43.82988
G1 F523 X127.277 Y107.723 E43.842
G1 X127.12 Y107.69 E43.85413
G1 F564 X117.467 Y107.693 E44.53044
G1 F555.3 X107.814 Y107.695 E45.21735
G1 F516.7 X107.723 Y107.723 E45.22463
G1 F524.3 X107.69 Y107.88 E45.23672
G1 F564 X107.693 Y117.533 E45.91303
G1 F555.3 X107.695 Y127.186 E46.59994
G1 F516.7 X107.723 Y127.277 E46.60722
G1 F524.3 X107.88 Y127.31 E46.61931
G1 F564 X117.533 Y127.307 E47.29562
G1 F555.3 X126.973 Y127.305 E47.96738
G0 F3888 X127.186 Y127.305
G0 X127.277 Y127.277
G0 X127.305 Y127.185
;TIME_ELAPSED:85.399069
;LAYER:10
;note -- min layer time used
M204 S1000
;MESH:flow-rate.stl
G0 F12000 X127.305 Y127.185 Z4.58
M204 S500
;TYPE:WALL-OUTER
G1 F561 X127.31 Y107.88 E49.32699
G1 F523 X127.277 Y107.723 E49.33911
G1 X127.12 Y107.69 E49.35124
G1 F564 X117.467 Y107.693 E50.02755
G1 F555.3 X107.814 Y107.695 E50.71446
G1 F516.7 X107.723 Y107.723 E50.72174
G1 F524.3 X107.69 Y107.88 E50.73383
G1 F564 X107.693 Y117.533 E51.41014
G1 F555.3 X107.695 Y127.186 E52.09705
G1 F516.7 X107.723 Y127.277 E52.10433
G1 F524.3 X107.88 Y127.31 E52.11642
G1 F564 X117.533 Y127.307 E52.79273
G1 F555.3 X126.973 Y127.305 E53.46448
G0 F3888 X127.186 Y127.305
G0 X127.277 Y127.277
G0 X127.305 Y127.185
;TIME_ELAPSED:93.946823
;LAYER:11
;note -- min layer time used
M204 S1000
;MESH:flow-rate.stl
G0 F12000 X127.305 Y127.185 Z5.02
M204 S500
;TYPE:WALL-OUTER
G1 F561 X127.31 Y107.88 E54.8241
G1 F523 X127.277 Y107.723 E54.83622
G1 X127.12 Y107.69 E54.84834
G1 F564 X117.467 Y107.693 E55.52466
G1 F555.3 X107.814 Y107.695 E56.21157
G1 F516.7 X107.723 Y107.723 E56.21885
G1 F524.3 X107.69 Y107.88 E56.23094
G1 F564 X107.693 Y117.533 E56.90725
G1 F555.3 X107.695 Y127.186 E57.59416
G1 F516.7 X107.723 Y127.277 E57.60144
G1 F524.3 X107.88 Y127.31 E57.61353
G1 F564 X117.533 Y127.307 E58.28984
G1 F555.3 X126.973 Y127.305 E58.96159
G0 F3888 X127.186 Y127.305
G0 X127.277 Y127.277
G0 X127.305 Y127.185
;TIME_ELAPSED:102.494578
;LAYER:12
;note -- min layer time used
M204 S1000
;MESH:flow-rate.stl
G0 F12000 X127.305 Y127.185 Z5.46
M204 S500
;TYPE:WALL-OUTER
G1 F561 X127.31 Y107.88 E60.32121
G1 F523 X127.277 Y107.723 E60.33333
G1 X127.12 Y107.69 E60.34545
G1 F564 X117.467 Y107.693 E61.02177
G1 F555.3 X107.814 Y107.695 E61.70868
G1 F516.7 X107.723 Y107.723 E61.71596
G1 F524.3 X107.69 Y107.88 E61.72805
G1 F564 X107.693 Y117.533 E62.40436
G1 F555.3 X107.695 Y127.186 E63.09127
G1 F516.7 X107.723 Y127.277 E63.09855
G1 F524.3 X107.88 Y127.31 E63.11064
G1 F564 X117.533 Y127.307 E63.78695
G1 F555.3 X126.973 Y127.305 E64.4587
G0 F3888 X127.186 Y127.305
G0 X127.277 Y127.277
G0 X127.305 Y127.185
;TIME_ELAPSED:111.042333
;LAYER:13
;note -- min layer time used
M204 S1000
;MESH:flow-rate.stl
G0 F12000 X127.305 Y127.185 Z5.9
M204 S500
;TYPE:WALL-OUTER
G1 F561 X127.31 Y107.88 E65.81832
G1 F523 X127.277 Y107.723 E65.83044
G1 X127.12 Y107.69 E65.84256
G1 F564 X117.467 Y107.693 E66.51888
G1 F555.3 X107.814 Y107.695 E67.20579
G1 F516.7 X107.723 Y107.723 E67.21307
G1 F524.3 X107.69 Y107.88 E67.22516
G1 F564 X107.693 Y117.533 E67.90147
G1 F555.3 X107.695 Y127.186 E68.58838
G1 F516.7 X107.723 Y127.277 E68.59566
G1 F524.3 X107.88 Y127.31 E68.60775
G1 F564 X117.533 Y127.307 E69.28406
G1 F555.3 X126.973 Y127.305 E69.95581
G0 F3888 X127.186 Y127.305
G0 X127.277 Y127.277
G0 X127.305 Y127.185
;TIME_ELAPSED:119.590087
;LAYER:14
;note -- min layer time used
M204 S1000
;MESH:flow-rate.stl
G0 F12000 X127.305 Y127.185 Z6.34
M204 S500
;TYPE:WALL-OUTER
G1 F561 X127.31 Y107.88 E71.31543
G1 F523 X127.277 Y107.723 E71.32755
G1 X127.12 Y107.69 E71.33967
G1 F564 X117.467 Y107.693 E72.01599
G1 F555.3 X107.814 Y107.695 E72.7029
G1 F516.7 X107.723 Y107.723 E72.71018
G1 F524.3 X107.69 Y107.88 E72.72227
G1 F564 X107.693 Y117.533 E73.39858
G1 F555.3 X107.695 Y127.186 E74.08549
G1 F516.7 X107.723 Y127.277 E74.09277
G1 F524.3 X107.88 Y127.31 E74.10486
G1 F564 X117.533 Y127.307 E74.78117
G1 F555.3 X126.973 Y127.305 E75.45292
G0 F3888 X127.186 Y127.305
G0 X127.277 Y127.277
G0 X127.305 Y127.185
;TIME_ELAPSED:128.137842
;LAYER:15
;note -- min layer time used
M204 S1000
;MESH:flow-rate.stl
G0 F12000 X127.305 Y127.185 Z6.78
M204 S500
;TYPE:WALL-OUTER
G1 F561 X127.31 Y107.88 E76.81254
G1 F523 X127.277 Y107.723 E76.82466
G1 X127.12 Y107.69 E76.83678
G1 F564 X117.467 Y107.693 E77.5131
G1 F555.3 X107.814 Y107.695 E78.2
G1 F516.7 X107.723 Y107.723 E78.20729
G1 F524.3 X107.69 Y107.88 E78.21938
G1 F564 X107.693 Y117.533 E78.89569
G1 F555.3 X107.695 Y127.186 E79.5826
G1 F516.7 X107.723 Y127.277 E79.58988
G1 F524.3 X107.88 Y127.31 E79.60197
G1 F564 X117.533 Y127.307 E80.27828
G1 F555.3 X126.973 Y127.305 E80.95003
G0 F3888 X127.186 Y127.305
G0 X127.277 Y127.277
G0 X127.305 Y127.185
;TIME_ELAPSED:136.685596
;LAYER:16
;note -- min layer time used
M204 S1000
;MESH:flow-rate.stl
G0 F12000 X127.305 Y127.185 Z7.22
M204 S500
;TYPE:WALL-OUTER
G1 F561 X127.31 Y107.88 E82.30965
G1 F523 X127.277 Y107.723 E82.32177
G1 X127.12 Y107.69 E82.33389
G1 F564 X117.467 Y107.693 E83.01021
G1 F555.3 X107.814 Y107.695 E83.69711
G1 F516.7 X107.723 Y107.723 E83.70439
G1 F524.3 X107.69 Y107.88 E83.71649
G1 F564 X107.693 Y117.533 E84.3928
G1 F555.3 X107.695 Y127.186 E85.07971
G1 F516.7 X107.723 Y127.277 E85.08699
G1 F524.3 X107.88 Y127.31 E85.09908
G1 F564 X117.533 Y127.307 E85.77539
G1 F555.3 X126.973 Y127.305 E86.44714
G0 F3888 X127.186 Y127.305
G0 X127.277 Y127.277
G0 X127.305 Y127.185
;TIME_ELAPSED:145.233351
;LAYER:17
;note -- min layer time used
M204 S1000
;MESH:flow-rate.stl
G0 F12000 X127.305 Y127.185 Z7.66
M204 S500
;TYPE:WALL-OUTER
G1 F561 X127.31 Y107.88 E87.80676
G1 F523 X127.277 Y107.723 E87.81888
G1 X127.12 Y107.69 E87.831
G1 F564 X117.467 Y107.693 E88.50732
G1 F555.3 X107.814 Y107.695 E89.19422
G1 F516.7 X107.723 Y107.723 E89.2015
G1 F524.3 X107.69 Y107.88 E89.2136
G1 F564 X107.693 Y117.533 E89.88991
G1 F555.3 X107.695 Y127.186 E90.57682
G1 F516.7 X107.723 Y127.277 E90.5841
G1 F524.3 X107.88 Y127.31 E90.59619
G1 F564 X117.533 Y127.307 E91.2725
G1 F555.3 X126.973 Y127.305 E91.94425
G0 F3888 X127.186 Y127.305
G0 X127.277 Y127.277
G0 X127.305 Y127.185
;TIME_ELAPSED:153.781105
;LAYER:18
;note -- min layer time used
M204 S1000
;MESH:flow-rate.stl
G0 F12000 X127.305 Y127.185 Z8.1
M204 S500
;TYPE:WALL-OUTER
G1 F561 X127.31 Y107.88 E93.30387
G1 F523 X127.277 Y107.723 E93.31599
G1 X127.12 Y107.69 E93.32811
G1 F564 X117.467 Y107.693 E94.00443
G1 F555.3 X107.814 Y107.695 E94.69133
G1 F516.7 X107.723 Y107.723 E94.69861
G1 F524.3 X107.69 Y107.88 E94.71071
G1 F564 X107.693 Y117.533 E95.38702
G1 F555.3 X107.695 Y127.186 E96.07393
G1 F516.7 X107.723 Y127.277 E96.08121
G1 F524.3 X107.88 Y127.31 E96.0933
G1 F564 X117.533 Y127.307 E96.76961
G1 F555.3 X126.973 Y127.305 E97.44136
G0 F3888 X127.186 Y127.305
G0 X127.277 Y127.277
G0 X127.305 Y127.185
;TIME_ELAPSED:162.328860
;LAYER:19
;note -- min layer time used
M204 S1000
;MESH:flow-rate.stl
G0 F12000 X127.305 Y127.185 Z8.54
M204 S500
;TYPE:WALL-OUTER
G1 F561 X127.31 Y107.88 E98.80098
G1 F523 X127.277 Y107.723 E98.8131
G1 X127.12 Y107.69 E98.82522
G1 F564 X117.467 Y107.693 E99.50154
G1 F555.3 X107.814 Y107.695 E100.18844
G1 F516.7 X107.723 Y107.723 E100.19572
G1 F524.3 X107.69 Y107.88 E100.20782
G1 F564 X107.693 Y117.533 E100.88413
G1 F555.3 X107.695 Y127.186 E101.57104
G1 F516.7 X107.723 Y127.277 E101.57832
G1 F524.3 X107.88 Y127.31 E101.59041
G1 F564 X117.533 Y127.307 E102.26672
G1 F555.3 X126.973 Y127.305 E102.93847
G0 F3888 X127.186 Y127.305
G0 X127.277 Y127.277
G0 X127.305 Y127.185
;TIME_ELAPSED:170.876614
;LAYER:20
;note -- min layer time used
M204 S1000
;MESH:flow-rate.stl
G0 F12000 X127.305 Y127.185 Z8.98
M204 S500
;TYPE:WALL-OUTER
G1 F561 X127.31 Y107.88 E104.29809
G1 F523 X127.277 Y107.723 E104.31021
G1 X127.12 Y107.69 E104.32233
G1 F564 X117.467 Y107.693 E104.99865
G1 F555.3 X107.814 Y107.695 E105.68555
G1 F516.7 X107.723 Y107.723 E105.69283
G1 F524.3 X107.69 Y107.88 E105.70492
G1 F564 X107.693 Y117.533 E106.38124
G1 F555.3 X107.695 Y127.186 E107.06815
G1 F516.7 X107.723 Y127.277 E107.07543
G1 F524.3 X107.88 Y127.31 E107.08752
G1 F564 X117.533 Y127.307 E107.76383
G1 F555.3 X126.973 Y127.305 E108.43558
G0 F3888 X127.186 Y127.305
G0 X127.277 Y127.277
G0 X127.305 Y127.185
;TIME_ELAPSED:179.424369
;LAYER:21
;note -- min layer time used
M204 S1000
;MESH:flow-rate.stl
G0 F12000 X127.305 Y127.185 Z9.42
M204 S500
;TYPE:WALL-OUTER
G1 F561 X127.31 Y107.88 E109.7952
