; G-Code originally generated by Simplify3D(R) Version 4.1.2
; This calibration test gcode modified by the Teaching Tech Calibration website: https://teachingtechyt.github.io/calibration.html
;M80 ; power supply on
G90
M82
M106 S0
M140 S80 ; custom bed temp
M190 S80 ; custom bed temp
M104 S185 T0 ; custom hot end temp minus 50 degrees
G28 ; home all axes
;G29 ; probe ABL
M420 S1 ; restore ABL mesh
M109 S235 T0 ; custom hot end temp 
;customstart
G0 Z3; fix for delta printers that home at max
;process Process-1
;layer 1, Z = 0.280
T0
G92 E0.0000
G1 E-5 F2400 ; custom retraction - A
;fan1;
G1 Z0.280 F1200
G1 X82.9380 Y98.1360 F11000 ; custom feedrate
G1 E0 F2400 ; custom un-retraction/prime - A
G92 E0.0000
G1 X137.0470 Y98.1360 E3.2653 F3300 ; custom feedrate
G1 X137.1410 Y98.1390 E3.2710
G1 X137.9330 Y98.1910 E3.3190
G1 X138.1190 Y98.2160 E3.3303
G1 X138.9450 Y98.3800 E3.3811
G1 X139.1260 Y98.4280 E3.3924
G1 X139.9230 Y98.6990 E3.4432
G1 X140.0960 Y98.7700 E3.4545
G1 X140.8650 Y99.1500 E3.5062
G1 X141.0530 Y99.2610 E3.5194
G1 X141.9460 Y99.8860 E3.5852
G1 X142.1150 Y100.0250 E3.5984
G1 X142.7350 Y100.6180 E3.6501
G1 X142.8610 Y100.7560 E3.6615
G1 X143.3780 Y101.4000 E3.7113
G1 X143.4690 Y101.5270 E3.7207
G1 X143.7790 Y102.0140 E3.7555
G1 X143.8420 Y102.1220 E3.7631
G1 X144.1080 Y102.6340 E3.7979
G1 X144.1720 Y102.7760 E3.8073
G1 X144.4720 Y103.5460 E3.8572
G1 X144.5280 Y103.7250 E3.8685
G1 X144.7320 Y104.5570 E3.9202
G1 X144.7680 Y104.7730 E3.9334
G1 X144.8590 Y105.8130 E3.9964
G1 X144.8640 Y105.9380 E4.0039
G1 X144.8640 Y114.0470 E4.4933
G1 X144.8610 Y114.1410 E4.4990
G1 X144.8080 Y114.9490 E4.5479
G1 X144.7770 Y115.1660 E4.5611
G1 X144.5440 Y116.2150 E4.6259
G1 X144.4920 Y116.3950 E4.6372
G1 X144.2790 Y116.9810 E4.6749
G1 X144.2030 Y117.1530 E4.6862
G1 X143.7000 Y118.1200 E4.7520
G1 X143.5650 Y118.3310 E4.7671
G1 X142.9010 Y119.1960 E4.8329
G1 X142.7780 Y119.3370 E4.8442
G1 X142.3370 Y119.7780 E4.8818
G1 X142.1960 Y119.9010 E4.8931
G1 X141.3560 Y120.5460 E4.9571
G1 X141.2000 Y120.6500 E4.9684
G1 X140.6870 Y120.9470 E5.0041
G1 X140.5760 Y121.0040 E5.0117
G1 X140.0530 Y121.2480 E5.0465
G1 X139.9080 Y121.3060 E5.0559
G1 X139.1110 Y121.5770 E5.1067
G1 X138.8990 Y121.6310 E5.1199
G1 X137.8410 Y121.8180 E5.1848
G1 X137.6540 Y121.8380 E5.1961
G1 X137.0940 Y121.8630 E5.2299
G1 X137.0310 Y121.8640 E5.2337
G1 X82.9530 Y121.8640 E8.4972
G1 X82.8590 Y121.8610 E8.5028
G1 X82.0660 Y121.8090 E8.5508
G1 X81.8810 Y121.7840 E8.5621
G1 X81.0550 Y121.6200 E8.6129
G1 X80.8740 Y121.5720 E8.6242
G1 X80.0920 Y121.3060 E8.6740
G1 X79.9470 Y121.2480 E8.6835
G1 X79.4240 Y121.0040 E8.7183
G1 X79.3130 Y120.9470 E8.7258
G1 X78.8140 Y120.6580 E8.7606
G1 X78.6830 Y120.5730 E8.7701
G1 X78.0170 Y120.0840 E8.8199
G1 X77.8730 Y119.9640 E8.8312
G1 X77.2650 Y119.3820 E8.8820
G1 X77.1390 Y119.2440 E8.8933
G1 X76.6020 Y118.5750 E8.9450
G1 X76.4790 Y118.3950 E8.9582
G1 X75.9330 Y117.4500 E9.0240
G1 X75.8390 Y117.2530 E9.0372
G1 X75.5280 Y116.4540 E9.0890
G1 X75.4720 Y116.2750 E9.1003
G1 X75.2720 Y115.4580 E9.1511
G1 X75.2390 Y115.2730 E9.1624
G1 X75.1490 Y114.4520 E9.2122
G1 X75.1410 Y114.2960 E9.2217
G1 X75.1410 Y105.6880 E9.7411
G1 X75.1530 Y105.5010 E9.7525
G1 X75.2910 Y104.4510 E9.8164
G1 X75.3280 Y104.2670 E9.8277
G1 X75.4890 Y103.6650 E9.8653
G1 X75.5500 Y103.4870 E9.8766
G1 X75.9550 Y102.5090 E9.9405
G1 X76.0380 Y102.3400 E9.9519
G1 X76.3500 Y101.8000 E9.9895
G1 X76.4540 Y101.6440 E10.0008
G1 X77.1180 Y100.7790 E10.0666
G1 X77.2870 Y100.5950 E10.0817
G1 X78.1020 Y99.8480 E10.1485
G1 X78.2740 Y99.7130 E10.1617
G1 X79.0000 Y99.2280 E10.2143
G1 X79.1900 Y99.1200 E10.2275
G1 X80.1640 Y98.6660 E10.2924
G1 X80.3390 Y98.5980 E10.3037
G1 X80.9040 Y98.4200 E10.3395
G1 X81.0250 Y98.3880 E10.3470
G1 X81.6030 Y98.2600 E10.3828
G1 X81.7890 Y98.2310 E10.3941
G1 X82.8130 Y98.1410 E10.4561
G1 X82.9380 Y98.1360 E10.4636
G92 E0.0000
G1 E-5 F2400 ; custom retraction - A
;zhop1
G1 X82.9500 Y98.7120 F11000 ; custom feedrate
G1 Z0.280 F1200
G1 E0 F2400 ; custom un-retraction/prime - A
G92 E0.0000
G1 X137.0370 Y98.7120 E3.2640 F3300 ; custom feedrate
G1 X137.1120 Y98.7140 E3.2685
G1 X137.8770 Y98.7650 E3.3148
G1 X138.0260 Y98.7840 E3.3238
G1 X138.8140 Y98.9410 E3.3723
G1 X138.9590 Y98.9800 E3.3814
G1 X139.7200 Y99.2380 E3.4299
G1 X139.8580 Y99.2950 E3.4389
G1 X140.5900 Y99.6560 E3.4882
G1 X140.7410 Y99.7460 E3.4987
G1 X141.5980 Y100.3460 E3.5619
G1 X141.7330 Y100.4570 E3.5724
G1 X142.3230 Y101.0210 E3.6217
G1 X142.4240 Y101.1320 E3.6307
G1 X142.9190 Y101.7490 E3.6785
G1 X142.9920 Y101.8500 E3.6860
G1 X143.2870 Y102.3130 E3.7191
G1 X143.3370 Y102.3990 E3.7251
G1 X143.5900 Y102.8860 E3.7583
G1 X143.6410 Y102.9990 E3.7658
G1 X143.9280 Y103.7370 E3.8135
G1 X143.9730 Y103.8800 E3.8226
G1 X144.1670 Y104.6730 E3.8718
G1 X144.1960 Y104.8450 E3.8824
G1 X144.2840 Y105.8500 E3.9433
G1 X144.2880 Y105.9500 E3.9493
G1 X144.2880 Y114.0370 E4.4374
G1 X144.2860 Y114.1120 E4.4419
G1 X144.2350 Y114.8890 E4.4889
G1 X144.2100 Y115.0630 E4.4994
G1 X143.9860 Y116.0720 E4.5618
G1 X143.9440 Y116.2160 E4.5708
G1 X143.7440 Y116.7660 E4.6062
G1 X143.6830 Y116.9030 E4.6153
G1 X143.2000 Y117.8320 E4.6784
G1 X143.0930 Y118.0000 E4.6905
G1 X142.4560 Y118.8300 E4.7536
G1 X142.3570 Y118.9430 E4.7626
G1 X141.9430 Y119.3570 E4.7980
G1 X141.8300 Y119.4560 E4.8070
G1 X141.0200 Y120.0780 E4.8687
G1 X140.8950 Y120.1610 E4.8777
G1 X140.4100 Y120.4410 E4.9116
G1 X140.3210 Y120.4880 E4.9176
G1 X139.8240 Y120.7190 E4.9507
G1 X139.7080 Y120.7660 E4.9582
G1 X138.9470 Y121.0240 E5.0067
G1 X138.7770 Y121.0680 E5.0173
G1 X137.7590 Y121.2470 E5.0797
G1 X137.6100 Y121.2640 E5.0887
G1 X137.0750 Y121.2870 E5.1211
G1 X137.0250 Y121.2880 E5.1241
G1 X82.9630 Y121.2880 E8.3866
G1 X82.8880 Y121.2860 E8.3911
G1 X82.1230 Y121.2350 E8.4374
G1 X81.9740 Y121.2160 E8.4464
G1 X81.1860 Y121.0590 E8.4949
G1 X81.0410 Y121.0200 E8.5040
G1 X80.2920 Y120.7660 E8.5517
G1 X80.1760 Y120.7190 E8.5592
G1 X79.6790 Y120.4880 E8.5923
G1 X79.5900 Y120.4410 E8.5984
G1 X79.1150 Y120.1670 E8.6315
G1 X79.0110 Y120.0990 E8.6390
G1 X78.3730 Y119.6310 E8.6868
G1 X78.2580 Y119.5350 E8.6958
G1 X77.6770 Y118.9790 E8.7443
G1 X77.5760 Y118.8680 E8.7534
G1 X77.0650 Y118.2320 E8.8026
G1 X76.9660 Y118.0880 E8.8132
G1 X76.4430 Y117.1810 E8.8763
G1 X76.3680 Y117.0240 E8.8869
G1 X76.0720 Y116.2630 E8.9361
G1 X76.0270 Y116.1200 E8.9452
G1 X75.8360 Y115.3390 E8.9937
G1 X75.8100 Y115.1920 E9.0027
G1 X75.7240 Y114.4050 E9.0505
G1 X75.7170 Y114.2810 E9.0580
G1 X75.7170 Y105.7070 E9.5754
G1 X75.7270 Y105.5580 E9.5844
G1 X75.8600 Y104.5450 E9.6461
G1 X75.8890 Y104.3980 E9.6551
G1 X76.0410 Y103.8320 E9.6905
G1 X76.0890 Y103.6900 E9.6995
G1 X76.4800 Y102.7460 E9.7611
G1 X76.5460 Y102.6120 E9.7702
G1 X76.8390 Y102.1050 E9.8055
G1 X76.9220 Y101.9800 E9.8146
G1 X77.5590 Y101.1500 E9.8777
G1 X77.6940 Y101.0030 E9.8898
G1 X78.4750 Y100.2870 E9.9537
G1 X78.6120 Y100.1790 E9.9642
G1 X79.3020 Y99.7190 E10.0142
G1 X79.4540 Y99.6330 E10.0248
G1 X80.3910 Y99.1960 E10.0872
G1 X80.5300 Y99.1420 E10.0962
G1 X81.0650 Y98.9730 E10.1301
G1 X81.1620 Y98.9470 E10.1361
G1 X81.7100 Y98.8260 E10.1700
G1 X81.8580 Y98.8030 E10.1790
G1 X82.8500 Y98.7160 E10.2391
G1 X82.9500 Y98.7120 E10.2452
G92 E0.0000
G1 E-5 F2400 ; custom retraction - A
;zhop1
G1 X83.0060 Y101.2880 F11000 ; custom feedrate
G1 X83.0310 Y102.4400
G1 Z0.280 F1200
G1 E0 F2400 ; custom un-retraction/prime - A
G92 E0.0000
G1 X136.9530 Y102.4400 E3.2540 F2640 ; custom feedrate
G1 X137.4640 Y102.4740 E3.2849
G1 X137.9210 Y102.5640 E3.3130
G1 X138.3610 Y102.7140 E3.3411
G1 X138.7930 Y102.9270 E3.3701
G1 X139.0410 Y103.0850 E3.3879
G1 X139.2750 Y103.2640 E3.4057
G1 X139.6220 Y103.5970 E3.4347
G1 X139.9240 Y103.9720 E3.4638
G1 X140.0820 Y104.2210 E3.4815
G1 X140.2180 Y104.4820 E3.4993
G1 X140.3920 Y104.9300 E3.5284
G1 X140.5070 Y105.3980 E3.5574
G1 X140.5450 Y105.6900 E3.5752
G1 X140.5600 Y106.0310 E3.5958
G1 X140.5600 Y113.9530 E4.0738
G1 X140.5250 Y114.4800 E4.1057
G1 X140.4740 Y114.7700 E4.1235
G1 X140.3940 Y115.0700 E4.1422
G1 X140.2880 Y115.3620 E4.1610
G1 X140.1570 Y115.6430 E4.1797
G1 X140.0010 Y115.9120 E4.1984
G1 X139.8230 Y116.1660 E4.2172
G1 X139.6240 Y116.4040 E4.2359
G1 X139.4040 Y116.6240 E4.2546
G1 X139.1660 Y116.8230 E4.2734
G1 X138.9120 Y117.0010 E4.2921
G1 X138.6430 Y117.1570 E4.3108
G1 X138.3760 Y117.2810 E4.3286
G1 X137.9060 Y117.4410 E4.3586
G1 X137.6180 Y117.5050 E4.3764
G1 X137.3100 Y117.5450 E4.3951
G1 X136.9690 Y117.5600 E4.4158
G1 X83.0470 Y117.5600 E7.6698
G1 X82.5360 Y117.5260 E7.7007
G1 X82.0790 Y117.4360 E7.7288
G1 X81.6240 Y117.2810 E7.7578
G1 X81.3570 Y117.1570 E7.7756
G1 X81.1010 Y117.0090 E7.7934
G1 X80.7140 Y116.7250 E7.8224
G1 X80.3780 Y116.4030 E7.8505
G1 X80.0770 Y116.0280 E7.8795
G1 X79.9180 Y115.7790 E7.8973
G1 X79.7820 Y115.5180 E7.9151
G1 X79.6080 Y115.0690 E7.9441
G1 X79.4970 Y114.6180 E7.9722
G1 X79.4450 Y114.1390 E8.0012
G1 X79.4450 Y105.8450 E8.5018
G1 X79.4720 Y105.5350 E8.5205
G1 X79.5260 Y105.2300 E8.5392
G1 X79.6060 Y104.9300 E8.5580
G1 X79.7120 Y104.6380 E8.5767
G1 X79.8430 Y104.3570 E8.5955
G1 X79.9990 Y104.0880 E8.6142
G1 X80.1770 Y103.8340 E8.6329
G1 X80.3760 Y103.5960 E8.6517
G1 X80.5960 Y103.3760 E8.6704
G1 X80.8220 Y103.1870 E8.6882
G1 X81.2350 Y102.9110 E8.7181
G1 X81.4960 Y102.7750 E8.7359
G1 X81.7830 Y102.6560 E8.7547
G1 X82.0790 Y102.5630 E8.7734
G1 X82.3820 Y102.4950 E8.7921
G1 X82.6900 Y102.4550 E8.8109
G1 X83.0310 Y102.4400 E8.8315
G1 X83.0190 Y101.8640 F11000 ; custom feedrate
G92 E0.0000
G1 X136.9720 Y101.8640 E3.2559 F2640 ; custom feedrate
G1 X137.5400 Y101.9010 E3.2903
G1 X138.0700 Y102.0070 E3.3229
G1 X138.5820 Y102.1810 E3.3555
G1 X139.0760 Y102.4240 E3.3887
G1 X139.3720 Y102.6130 E3.4099
G1 X139.6500 Y102.8260 E3.4311
G1 X140.0480 Y103.2070 E3.4643
G1 X140.3920 Y103.6360 E3.4975
G1 X140.5810 Y103.9320 E3.5187
G1 X140.7430 Y104.2440 E3.5399
G1 X140.9430 Y104.7570 E3.5731
G1 X141.0740 Y105.2910 E3.6063
G1 X141.1190 Y105.6400 E3.6275
G1 X141.1360 Y106.0190 E3.6505
G1 X141.1360 Y113.9720 E4.1304
G1 X141.0980 Y114.5490 E4.1653
G1 X141.0370 Y114.8950 E4.1865
G1 X140.9440 Y115.2430 E4.2083
G1 X140.8200 Y115.5820 E4.2300
G1 X140.6680 Y115.9090 E4.2518
G1 X140.4880 Y116.2220 E4.2736
G1 X140.2810 Y116.5170 E4.2953
G1 X140.0490 Y116.7940 E4.3171
G1 X139.7940 Y117.0490 E4.3389
G1 X139.5170 Y117.2810 E4.3607
G1 X139.2220 Y117.4870 E4.3824
G1 X138.9090 Y117.6680 E4.4042
G1 X138.5910 Y117.8160 E4.4254
G1 X138.0610 Y117.9960 E4.4592
G1 X137.7180 Y118.0720 E4.4804
G1 X137.3600 Y118.1190 E4.5021
G1 X136.9810 Y118.1360 E4.5251
G1 X83.0280 Y118.1360 E7.7810
G1 X82.4600 Y118.0990 E7.8153
G1 X81.9300 Y117.9930 E7.8479
G1 X81.4090 Y117.8160 E7.8811
G1 X81.0910 Y117.6680 E7.9023
G1 X80.7860 Y117.4920 E7.9235
G1 X80.3430 Y117.1670 E7.9567
G1 X79.9520 Y116.7930 E7.9894
G1 X79.6080 Y116.3640 E8.0226
G1 X79.4190 Y116.0680 E8.0438
G1 X79.2570 Y115.7560 E8.0650
G1 X79.0570 Y115.2430 E8.0982
G1 X78.9290 Y114.7180 E8.1308
G1 X78.8690 Y114.1710 E8.1640
G1 X78.8690 Y105.8200 E8.6680
G1 X78.9000 Y105.4600 E8.6898
G1 X78.9630 Y105.1050 E8.7116
G1 X79.0560 Y104.7570 E8.7333
G1 X79.1800 Y104.4170 E8.7551
G1 X79.3320 Y104.0910 E8.7769
G1 X79.5120 Y103.7780 E8.7986
G1 X79.7190 Y103.4830 E8.8204
G1 X79.9510 Y103.2060 E8.8422
G1 X80.2060 Y102.9510 E8.8639
G1 X80.4750 Y102.7250 E8.8851
G1 X80.9410 Y102.4140 E8.9189
G1 X81.2520 Y102.2520 E8.9401
G1 X81.5860 Y102.1140 E8.9619
G1 X81.9300 Y102.0060 E8.9836
G1 X82.2820 Y101.9280 E9.0054
G1 X82.6400 Y101.8810 E9.0272
G1 X83.0190 Y101.8640 E9.0501
G1 X83.0060 Y101.2880 F11000 ; custom feedrate
G92 E0.0000
G1 X136.9910 Y101.2880 E3.2578 F1980 ; custom feedrate
G1 X137.6150 Y101.3290 E3.2956
G1 X138.2190 Y101.4490 E3.3327
G1 X138.8030 Y101.6470 E3.3699
G1 X139.3590 Y101.9210 E3.4073
G1 X139.7030 Y102.1400 E3.4319
G1 X140.0260 Y102.3890 E3.4565
G1 X140.4740 Y102.8170 E3.4939
G1 X140.8610 Y103.3000 E3.5313
G1 X141.0800 Y103.6440 E3.5559
G1 X141.2690 Y104.0060 E3.5805
G1 X141.4930 Y104.5830 E3.6179
G1 X141.6410 Y105.1850 E3.6553
G1 X141.6940 Y105.5890 E3.6799
G1 X141.7120 Y106.0060 E3.7051
G1 X141.7120 Y113.9910 E4.1869
G1 X141.6710 Y114.6180 E4.2249
G1 X141.6000 Y115.0200 E4.2495
G1 X141.4940 Y115.4170 E4.2743
G1 X141.3530 Y115.8030 E4.2991
G1 X141.1790 Y116.1760 E4.3239
G1 X140.9740 Y116.5320 E4.3487
G1 X140.7380 Y116.8680 E4.3735
G1 X140.4740 Y117.1830 E4.3983
G1 X140.1830 Y117.4740 E4.4231
G1 X139.8680 Y117.7380 E4.4479
G1 X139.5320 Y117.9740 E4.4727
G1 X139.1760 Y118.1790 E4.4976
G1 X138.8060 Y118.3520 E4.5222
G1 X138.2160 Y118.5520 E4.5597
G1 X137.8180 Y118.6400 E4.5844
G1 X137.4110 Y118.6940 E4.6092
G1 X136.9940 Y118.7120 E4.6344
G1 X83.0090 Y118.7120 E7.8921
G1 X82.3850 Y118.6710 E7.9299
G1 X81.7810 Y118.5510 E7.9671
G1 X81.1940 Y118.3520 E8.0045
G1 X80.8240 Y118.1790 E8.0291
G1 X80.4710 Y117.9750 E8.0537
G1 X79.9720 Y117.6090 E8.0911
G1 X79.5260 Y117.1830 E8.1283
G1 X79.1390 Y116.7000 E8.1657
G1 X78.9200 Y116.3560 E8.1903
G1 X78.7310 Y115.9940 E8.2149
G1 X78.5070 Y115.4170 E8.2523
G1 X78.3600 Y114.8180 E8.2895
G1 X78.2930 Y114.2020 E8.3268
G1 X78.2930 Y105.7940 E8.8342
G1 X78.3290 Y105.3850 E8.8590
G1 X78.4000 Y104.9800 E8.8838
G1 X78.5060 Y104.5830 E8.9087
G1 X78.6470 Y104.1970 E8.9335
G1 X78.8210 Y103.8240 E8.9583
G1 X79.0260 Y103.4680 E8.9831
G1 X79.2620 Y103.1320 E9.0079
G1 X79.5260 Y102.8170 E9.0327
G1 X79.8170 Y102.5260 E9.0575
G1 X80.1290 Y102.2640 E9.0821
G1 X80.6470 Y101.9180 E9.1197
G1 X81.0090 Y101.7300 E9.1443
G1 X81.3890 Y101.5720 E9.1691
G1 X81.7810 Y101.4490 E9.1939
G1 X82.1820 Y101.3600 E9.2187
G1 X82.5890 Y101.3060 E9.2435
G1 X83.0060 Y101.2880 E9.2687
G1 X82.0250 Y117.0520 F11000 ; custom feedrate
G92 E0.0000
G1 X79.9380 Y114.9650 E0.1781 F2640 ; custom feedrate
G1 X79.8380 Y114.5580 E0.2034
G1 X79.7900 Y114.1210 E0.2300
G1 X79.7900 Y114.0030 E0.2371
G1 X82.9980 Y117.2100 E0.5108
G1 X83.0580 Y117.2140 E0.5145
G1 X83.8160 Y117.2140 E0.5602
G1 X79.7900 Y113.1880 E0.9038
G1 X79.7900 Y112.3740 E0.9530
G1 X84.6310 Y117.2140 E1.3661
G1 X85.4460 Y117.2140 E1.4152
G1 X79.7900 Y111.5590 E1.8979
G1 X79.7900 Y110.7450 E1.9470
G1 X86.2600 Y117.2140 E2.4992
G1 X87.0750 Y117.2140 E2.5483
G1 X79.7900 Y109.9300 E3.1700
G1 X79.7900 Y109.1150 E3.2192
G1 X87.8890 Y117.2140 E3.9104
G1 X88.7040 Y117.2140 E3.9595
G1 X79.7900 Y108.3010 E4.7202
G1 X79.7900 Y107.4860 E4.7694
G1 X89.5180 Y117.2140 E5.5996
G1 X90.3330 Y117.2140 E5.6488
G1 X79.7900 Y106.6720 E6.5485
G1 X79.7900 Y105.8600 E6.5975
G1 X91.1480 Y117.2140 E7.5669
G1 X91.9620 Y117.2140 E7.6161
G1 X79.9030 Y105.1560 E8.6452
G1 X79.9360 Y105.0340 E8.6528
G1 X80.0320 Y104.7700 E8.6698
G1 X80.1280 Y104.5650 E8.6834
G1 X92.7770 Y117.2140 E9.7630
G1 X93.5910 Y117.2140 E9.8121
G1 X80.4390 Y104.0620 E10.9346
G1 X80.4510 Y104.0440 E10.9359
G1 X80.6310 Y103.8300 E10.9528
G1 X80.8260 Y103.6350 E10.9695
G1 X94.4060 Y117.2140 E12.1284
G1 X95.2210 Y117.2140 E12.1776
G1 X81.2930 Y103.2870 E13.3662
G1 X81.4110 Y103.2090 E13.3747
G1 X81.6420 Y103.0880 E13.3904
G1 X81.8310 Y103.0100 E13.4027
G1 X96.0350 Y117.2140 E14.6150
G1 X96.8500 Y117.2140 E14.6641
G1 X82.4680 Y102.8330 E15.8915
G1 X82.7200 Y102.8000 E15.9069
G1 X83.0390 Y102.7860 E15.9262
G1 X83.2360 Y102.7860 E15.9380
G1 X97.6640 Y117.2140 E17.1694
G1 X98.4790 Y117.2140 E17.2186
G1 X84.0500 Y102.7860 E18.4500
G1 X84.8650 Y102.7860 E18.4991
G1 X99.2930 Y117.2140 E19.7305
G1 X100.1080 Y117.2140 E19.7797
G1 X85.6790 Y102.7860 E21.0111
G1 X86.4940 Y102.7860 E21.0603
G1 X100.9230 Y117.2140 E22.2917
G1 X101.7370 Y117.2140 E22.3408
G1 X87.3080 Y102.7860 E23.5722
G1 X88.1230 Y102.7860 E23.6214
G1 X102.5520 Y117.2140 E24.8528
G1 X103.3660 Y117.2140 E24.9020
G1 X88.9380 Y102.7860 E26.1334
G1 X89.7520 Y102.7860 E26.1825
G1 X104.1810 Y117.2140 E27.4139
G1 X104.9960 Y117.2140 E27.4631
G1 X90.5670 Y102.7860 E28.6945
G1 X91.3810 Y102.7860 E28.7437
G1 X105.8100 Y117.2140 E29.9751
G1 X106.6250 Y117.2140 E30.0242
G1 X92.1960 Y102.7860 E31.2556
G1 X93.0110 Y102.7860 E31.3048
G1 X107.4390 Y117.2140 E32.5362
G1 X108.2540 Y117.2140 E32.5854
G1 X93.8250 Y102.7860 E33.8168
G1 X94.6400 Y102.7860 E33.8659
G1 X109.0690 Y117.2140 E35.0973
G1 X109.8830 Y117.2140 E35.1465
G1 X95.4540 Y102.7860 E36.3779
G1 X96.2690 Y102.7860 E36.4271
G1 X110.6980 Y117.2140 E37.6585
G1 X111.5120 Y117.2140 E37.7076
G1 X97.0840 Y102.7860 E38.9390
G1 X97.8980 Y102.7860 E38.9882
G1 X112.3270 Y117.2140 E40.2196
G1 X113.1410 Y117.2140 E40.2688
G1 X98.7130 Y102.7860 E41.5002
G1 X99.5270 Y102.7860 E41.5493
G1 X113.9560 Y117.2140 E42.7807
G1 X114.7710 Y117.2140 E42.8299
G1 X100.3420 Y102.7860 E44.0613
G1 X101.1560 Y102.7860 E44.1105
G1 X115.5850 Y117.2140 E45.3419
G1 X116.4000 Y117.2140 E45.3910
G1 X101.9710 Y102.7860 E46.6224
G1 X102.7860 Y102.7860 E46.6716
G1 X117.2140 Y117.2140 E47.9030
G1 X118.0290 Y117.2140 E47.9522
G1 X103.6000 Y102.7860 E49.1836
G1 X104.4150 Y102.7860 E49.2327
G1 X118.8440 Y117.2140 E50.4641
G1 X119.6580 Y117.2140 E50.5133
G1 X105.2290 Y102.7860 E51.7447
G1 X106.0440 Y102.7860 E51.7939
G1 X120.4730 Y117.2140 E53.0253
G1 X121.2870 Y117.2140 E53.0744
G1 X106.8590 Y102.7860 E54.3058
G1 X107.6730 Y102.7860 E54.3550
G1 X122.1020 Y117.2140 E55.5864
G1 X122.9170 Y117.2140 E55.6356
G1 X108.4880 Y102.7860 E56.8670
G1 X109.3020 Y102.7860 E56.9161
G1 X123.7310 Y117.2140 E58.1475
G1 X124.5460 Y117.2140 E58.1967
G1 X110.1170 Y102.7860 E59.4281
G1 X110.9310 Y102.7860 E59.4773
G1 X125.3600 Y117.2140 E60.7087
G1 X126.1750 Y117.2140 E60.7578
G1 X111.7460 Y102.7860 E61.9893
G1 X112.5610 Y102.7860 E62.0384
G1 X126.9890 Y117.2140 E63.2698
G1 X127.8040 Y117.2140 E63.3190
G1 X113.3750 Y102.7860 E64.5504
G1 X114.1900 Y102.7860 E64.5995
G1 X128.6190 Y117.2140 E65.8310
G1 X129.4330 Y117.2140 E65.8801
G1 X115.0040 Y102.7860 E67.1115
G1 X115.8190 Y102.7860 E67.1607
G1 X130.2480 Y117.2140 E68.3921
G1 X131.0620 Y117.2140 E68.4412
G1 X116.6340 Y102.7860 E69.6727
G1 X117.4480 Y102.7860 E69.7218
G1 X131.8770 Y117.2140 E70.9532
G1 X132.6920 Y117.2140 E71.0024
G1 X118.2630 Y102.7860 E72.2338
G1 X119.0770 Y102.7860 E72.2829
G1 X133.5060 Y117.2140 E73.5144
G1 X134.3210 Y117.2140 E73.5635
G1 X119.8920 Y102.7860 E74.7949
G1 X120.7070 Y102.7860 E74.8441
G1 X135.1350 Y117.2140 E76.0755
G1 X135.9500 Y117.2140 E76.1246
G1 X121.5210 Y102.7860 E77.3561
G1 X122.3360 Y102.7860 E77.4052
G1 X136.7650 Y117.2140 E78.6366
G1 X136.9610 Y117.2140 E78.6485
G1 X137.2800 Y117.2000 E78.6677
G1 X137.5320 Y117.1670 E78.6831
G1 X123.1500 Y102.7860 E79.9105
G1 X123.9650 Y102.7860 E79.9596
G1 X138.1670 Y116.9870 E81.1717
G1 X138.2470 Y116.9600 E81.1768
G1 X138.4830 Y116.8500 E81.1925
G1 X138.7120 Y116.7180 E81.2084
G1 X124.7790 Y102.7860 E82.3975
G1 X125.5940 Y102.7860 E82.4466
G1 X139.1740 Y116.3650 E83.6056
G1 X139.3690 Y116.1700 E83.6222
G1 X139.5490 Y115.9560 E83.6391
G1 X139.5610 Y115.9380 E83.6404
G1 X126.4090 Y102.7860 E84.7629
G1 X127.2230 Y102.7860 E84.8121
G1 X139.8720 Y115.4350 E85.8916
G1 X139.9680 Y115.2290 E85.9053
G1 X140.0640 Y114.9660 E85.9222
G1 X140.0970 Y114.8440 E85.9298
G1 X128.0380 Y102.7860 E86.9589
G1 X128.8520 Y102.7860 E87.0081
G1 X140.2020 Y114.1350 E87.9767
G1 X140.2140 Y113.9420 E87.9884
G1 X140.2140 Y113.3330 E88.0251
G1 X129.6670 Y102.7860 E88.9252
G1 X130.4820 Y102.7860 E88.9744
G1 X140.2140 Y112.5180 E89.8050
G1 X140.2140 Y111.7040 E89.8542
G1 X131.2960 Y102.7860 E90.6153
G1 X132.1110 Y102.7860 E90.6645
G1 X140.2140 Y110.8890 E91.3561
G1 X140.2140 Y110.0750 E91.4052
G1 X132.9250 Y102.7860 E92.0273
G1 X133.7400 Y102.7860 E92.0765
G1 X140.2140 Y109.2600 E92.6290
G1 X140.2140 Y108.4450 E92.6782
G1 X134.5550 Y102.7860 E93.1612
G1 X135.3690 Y102.7860 E93.2104
G1 X140.2140 Y107.6310 E93.6239
G1 X140.2140 Y106.8160 E93.6731
G1 X136.1840 Y102.7860 E94.0170
G1 X136.9420 Y102.7860 E94.0628
G1 X137.0020 Y102.7900 E94.0665
G1 X140.2130 Y106.0000 E94.3404
G1 X140.2000 Y105.7200 E94.3574
G1 X140.1660 Y105.4610 E94.3731
G1 X140.0620 Y105.0350 E94.3996
G1 X137.9750 Y102.9480 E94.5777
G92 E0.0000
G1 E-5 F2400 ; custom retraction - A
;layer 2, Z = 0.560
M106 S255; custom fan 100% from layer 2
G1 Z0.560 F1200
G1 X83.0260 Y102.2000 F11000 ; custom feedrate
G1 E0 F2400 ; custom un-retraction/prime - A
G92 E0.0000
G1 X136.9610 Y102.2000 E2.7123 F5280 ; custom feedrate
G1 X137.4960 Y102.2350 E2.7393
G1 X137.9830 Y102.3320 E2.7643
G1 X138.4530 Y102.4920 E2.7893
G1 X138.9110 Y102.7170 E2.8149
G1 X139.1790 Y102.8880 E2.8309
G1 X139.4310 Y103.0820 E2.8469
G1 X139.8000 Y103.4340 E2.8725
G1 X140.1190 Y103.8320 E2.8982
G1 X140.2900 Y104.1010 E2.9142
G1 X140.4370 Y104.3830 E2.9302
G1 X140.6220 Y104.8580 E2.9558
G1 X140.7430 Y105.3530 E2.9815
G1 X140.7840 Y105.6690 E2.9975
G1 X140.8000 Y106.0260 E3.0155
G1 X140.8000 Y113.9610 E3.4145
G1 X140.7640 Y114.5090 E3.4421
G1 X140.7090 Y114.8220 E3.4581
G1 X140.6230 Y115.1420 E3.4748
G1 X140.5100 Y115.4540 E3.4915
G1 X140.3700 Y115.7540 E3.5081
G1 X140.2040 Y116.0410 E3.5248
G1 X140.0140 Y116.3130 E3.5415
G1 X139.8010 Y116.5670 E3.5581
G1 X139.5670 Y116.8010 E3.5748
G1 X139.3130 Y117.0140 E3.5915
G1 X139.0410 Y117.2040 E3.6081
G1 X138.7540 Y117.3700 E3.6248
G1 X138.4660 Y117.5040 E3.6408
G1 X137.9700 Y117.6720 E3.6671
G1 X137.6600 Y117.7410 E3.6831
G1 X137.3310 Y117.7840 E3.6998
G1 X136.9740 Y117.8000 E3.7177
G1 X83.0390 Y117.8000 E6.4301
G1 X82.5040 Y117.7650 E6.4570
G1 X82.0170 Y117.6680 E6.4820
G1 X81.5340 Y117.5040 E6.5077
G1 X81.2460 Y117.3700 E6.5237
G1 X80.9700 Y117.2100 E6.5397
G1 X80.5590 Y116.9090 E6.5653
G1 X80.2000 Y116.5660 E6.5903
G1 X79.8810 Y116.1680 E6.6159
G1 X79.7100 Y115.8990 E6.6319
G1 X79.5630 Y115.6170 E6.6479
G1 X79.3780 Y115.1420 E6.6736
G1 X79.2600 Y114.6600 E6.6986
G1 X79.2050 Y114.1520 E6.7242
G1 X79.2050 Y105.8340 E7.1425
G1 X79.2340 Y105.5040 E7.1592
G1 X79.2910 Y105.1780 E7.1759
G1 X79.3770 Y104.8580 E7.1925
G1 X79.4900 Y104.5460 E7.2092
G1 X79.6300 Y104.2460 E7.2259
G1 X79.7960 Y103.9590 E7.2425
G1 X79.9860 Y103.6870 E7.2592
G1 X80.1990 Y103.4330 E7.2759
G1 X80.4340 Y103.1990 E7.2925
G1 X80.6770 Y102.9950 E7.3085
G1 X81.1120 Y102.7040 E7.3348
G1 X81.3950 Y102.5570 E7.3508
G1 X81.7010 Y102.4300 E7.3675
G1 X82.0170 Y102.3310 E7.3842
G1 X82.3400 Y102.2590 E7.4008
G1 X82.6690 Y102.2160 E7.4175
G1 X83.0260 Y102.2000 E7.4355
G1 X83.0160 Y101.7200 F11000 ; custom feedrate
G92 E0.0000
G1 X136.9770 Y101.7200 E2.7137 F5280 ; custom feedrate
G1 X137.5580 Y101.7580 E2.7430
G1 X138.1070 Y101.8670 E2.7711
G1 X138.6370 Y102.0470 E2.7993
G1 X139.1460 Y102.2980 E2.8278
G1 X139.4540 Y102.4950 E2.8462
G1 X139.7440 Y102.7170 E2.8646
G1 X140.1540 Y103.1090 E2.8931
G1 X140.5100 Y103.5520 E2.9217
G1 X140.7060 Y103.8600 E2.9400
G1 X140.8750 Y104.1850 E2.9584
G1 X141.0800 Y104.7130 E2.9869
G1 X141.2150 Y105.2650 E3.0155
G1 X141.2630 Y105.6270 E3.0339
G1 X141.2800 Y106.0160 E3.0534
G1 X141.2800 Y113.9770 E3.4538
G1 X141.2410 Y114.5660 E3.4835
G1 X141.1780 Y114.9260 E3.5019
G1 X141.0810 Y115.2870 E3.5206
G1 X140.9540 Y115.6380 E3.5394
G1 X140.7960 Y115.9760 E3.5582
G1 X140.6090 Y116.2990 E3.5770
G1 X140.3950 Y116.6050 E3.5957
G1 X140.1550 Y116.8910 E3.6145
G1 X139.8910 Y117.1550 E3.6333
G1 X139.6050 Y117.3950 E3.6521
G1 X139.2990 Y117.6090 E3.6708
G1 X138.9760 Y117.7960 E3.6896
G1 X138.6450 Y117.9500 E3.7080
G1 X138.1000 Y118.1350 E3.7369
G1 X137.7430 Y118.2140 E3.7553
G1 X137.3730 Y118.2630 E3.7741
G1 X136.9840 Y118.2800 E3.7936
G1 X83.0230 Y118.2800 E6.5073
G1 X82.4420 Y118.2420 E6.5366
G1 X81.8930 Y118.1330 E6.5648
G1 X81.3550 Y117.9500 E6.5933
G1 X81.0240 Y117.7960 E6.6117
G1 X80.7080 Y117.6130 E6.6301
G1 X80.2500 Y117.2780 E6.6586
G1 X79.8460 Y116.8900 E6.6868
G1 X79.4900 Y116.4480 E6.7153
G1 X79.2940 Y116.1400 E6.7337
G1 X79.1250 Y115.8160 E6.7521
G1 X78.9200 Y115.2860 E6.7806
G1 X78.7870 Y114.7430 E6.8087
G1 X78.7250 Y114.1790 E6.8373
G1 X78.7250 Y105.8130 E7.2580
G1 X78.7570 Y105.4420 E7.2767
G1 X78.8220 Y105.0740 E7.2955
G1 X78.9190 Y104.7130 E7.3143
G1 X79.0460 Y104.3620 E7.3331
G1 X79.2040 Y104.0240 E7.3518
G1 X79.3910 Y103.7010 E7.3706
G1 X79.6050 Y103.3950 E7.3894
G1 X79.8450 Y103.1090 E7.4082
G1 X80.1090 Y102.8450 E7.4269
G1 X80.3890 Y102.6100 E7.4453
G1 X80.8670 Y102.2900 E7.4743
G1 X81.1920 Y102.1220 E7.4926
G1 X81.5370 Y101.9790 E7.5114
G1 X81.8920 Y101.8670 E7.5302
G1 X82.2570 Y101.7860 E7.5490
G1 X82.6270 Y101.7370 E7.5677
G1 X83.0160 Y101.7200 E7.5873
G1 X83.0050 Y101.2400 F11000 ; custom feedrate
G92 E0.0000
G1 X136.9920 Y101.2400 E2.7150 F3960 ; custom feedrate
G1 X137.6210 Y101.2810 E2.7467
G1 X138.2320 Y101.4030 E2.7780
G1 X138.8210 Y101.6030 E2.8093
G1 X139.3820 Y101.8790 E2.8407
G1 X139.7300 Y102.1010 E2.8615
G1 X140.0570 Y102.3520 E2.8822
G1 X140.5090 Y102.7850 E2.9137
G1 X140.9000 Y103.2720 E2.9451
G1 X141.1220 Y103.6200 E2.9659
G1 X141.3130 Y103.9860 E2.9866
G1 X141.5390 Y104.5690 E3.0181
G1 X141.6880 Y105.1760 E3.0495
G1 X141.7420 Y105.5850 E3.0702
G1 X141.7600 Y106.0050 E3.0914
G1 X141.7600 Y113.9920 E3.4930
G1 X141.7190 Y114.6240 E3.5249
G1 X141.6470 Y115.0300 E3.5456
G1 X141.5390 Y115.4310 E3.5665
G1 X141.3970 Y115.8220 E3.5874
G1 X141.2220 Y116.1980 E3.6083
G1 X141.0140 Y116.5570 E3.6292
G1 X140.7760 Y116.8980 E3.6500
G1 X140.5090 Y117.2160 E3.6709
G1 X140.2160 Y117.5090 E3.6918
G1 X139.8980 Y117.7760 E3.7127
G1 X139.5570 Y118.0140 E3.7336
G1 X139.1980 Y118.2220 E3.7544
G1 X138.8240 Y118.3960 E3.7752
G1 X138.2290 Y118.5980 E3.8068
G1 X137.8270 Y118.6870 E3.8275
G1 X137.4150 Y118.7420 E3.8484
G1 X136.9950 Y118.7600 E3.8695
G1 X83.0080 Y118.7600 E6.5845
G1 X82.3790 Y118.7190 E6.6162
G1 X81.7680 Y118.5970 E6.6475
G1 X81.1760 Y118.3960 E6.6790
G1 X80.8020 Y118.2220 E6.6997
G1 X80.4450 Y118.0160 E6.7205
G1 X79.9410 Y117.6460 E6.7519
G1 X79.4910 Y117.2150 E6.7832
G1 X79.1000 Y116.7280 E6.8147
G1 X78.8780 Y116.3800 E6.8354
G1 X78.6870 Y116.0140 E6.8562
G1 X78.4610 Y115.4310 E6.8876
G1 X78.3130 Y114.8260 E6.9189
G1 X78.2450 Y114.2050 E6.9503
G1 X78.2450 Y105.7920 E7.3734
G1 X78.2810 Y105.3790 E7.3943
G1 X78.3530 Y104.9700 E7.4152
G1 X78.4600 Y104.5690 E7.4361
G1 X78.6030 Y104.1790 E7.4569
G1 X78.7780 Y103.8020 E7.4778
G1 X78.9860 Y103.4420 E7.4987
G1 X79.2240 Y103.1020 E7.5196
G1 X79.4910 Y102.7840 E7.5405
G1 X79.7840 Y102.4910 E7.5614
G1 X80.1000 Y102.2250 E7.5821
G1 X80.6220 Y101.8770 E7.6137
G1 X80.9880 Y101.6860 E7.6344
G1 X81.3720 Y101.5270 E7.6553
G1 X81.7680 Y101.4020 E7.6762
G1 X82.1730 Y101.3130 E7.6971
G1 X82.5850 Y101.2580 E7.7180
G1 X83.0050 Y101.2400 E7.7391
G1 X79.6130 Y105.0880 F11000 ; custom feedrate
G92 E0.0000
G1 X82.0920 Y102.6090 E0.1763 F5280 ; custom feedrate
G1 X82.3900 Y102.5430 E0.1917
G1 X82.6940 Y102.5030 E0.2071
G1 X82.8860 Y102.4940 E0.2167
G1 X79.4930 Y105.8870 E0.4580
G1 X79.4930 Y106.5660 E0.4921
G1 X83.5710 Y102.4880 E0.7822
G1 X84.2500 Y102.4880 E0.8163
G1 X79.4930 Y107.2450 E1.1546
G1 X79.4930 Y107.9240 E1.1888
G1 X84.9290 Y102.4880 E1.5754
G1 X85.6070 Y102.4880 E1.6095
G1 X79.4930 Y108.6030 E2.0444
G1 X79.4930 Y109.2810 E2.0785
G1 X86.2860 Y102.4880 E2.5617
G1 X86.9650 Y102.4880 E2.5958
G1 X79.4930 Y109.9600 E3.1272
G1 X79.4930 Y110.6390 E3.1614
G1 X87.6440 Y102.4880 E3.7411
G1 X88.3230 Y102.4880 E3.7752
G1 X79.4930 Y111.3180 E4.4032
G1 X79.4930 Y111.9970 E4.4373
G1 X89.0010 Y102.4880 E5.1136
G1 X89.6800 Y102.4880 E5.1477
G1 X79.4930 Y112.6760 E5.8723
G1 X79.4930 Y113.3540 E5.9064
G1 X90.3590 Y102.4880 E6.6792
G1 X91.0380 Y102.4880 E6.7134
G1 X79.4930 Y114.0330 E7.5344
G1 X79.4930 Y114.1370 E7.5397
G1 X79.5440 Y114.6090 E7.5636
G1 X79.5550 Y114.6500 E7.5657
G1 X91.7170 Y102.4880 E8.4307
G1 X92.3960 Y102.4880 E8.4648
G1 X79.7030 Y115.1810 E9.3675
G1 X79.8260 Y115.4980 E9.3846
G1 X79.9070 Y115.6550 E9.3935
G1 X93.0740 Y102.4880 E10.3300
G1 X93.7530 Y102.4880 E10.3641
G1 X80.1720 Y116.0700 E11.3300
G1 X80.4130 Y116.3700 E11.3494
G1 X80.4830 Y116.4370 E11.3543
G1 X94.4320 Y102.4880 E12.3463
G1 X95.1110 Y102.4880 E12.3805
G1 X80.8410 Y116.7580 E13.3954
G1 X81.1280 Y116.9690 E13.4133
G1 X81.2430 Y117.0350 E13.4200
G1 X95.7900 Y102.4880 E14.4545
G1 X96.4690 Y102.4880 E14.4887
G1 X81.7000 Y117.2560 E15.5390
G1 X82.0920 Y117.3890 E15.5598
G1 X82.2210 Y117.4150 E15.5664
G1 X97.1470 Y102.4880 E16.6280
G1 X97.8260 Y102.4880 E16.6621
G1 X82.8170 Y117.4970 E17.7296
G1 X83.0490 Y117.5120 E17.7412
G1 X83.4810 Y117.5120 E17.7630
G1 X98.5050 Y102.4880 E18.8315
G1 X99.1840 Y102.4880 E18.8656
G1 X84.1600 Y117.5120 E19.9341
G1 X84.8390 Y117.5120 E19.9682
G1 X99.8630 Y102.4880 E21.0367
G1 X100.5410 Y102.4880 E21.0709
G1 X85.5170 Y117.5120 E22.1394
G1 X86.1960 Y117.5120 E22.1735
G1 X101.2200 Y102.4880 E23.2420
G1 X101.8990 Y102.4880 E23.2762
G1 X86.8750 Y117.5120 E24.3447
G1 X87.5540 Y117.5120 E24.3788
G1 X102.5780 Y102.4880 E25.4473
G1 X103.2570 Y102.4880 E25.4815
G1 X88.2330 Y117.5120 E26.5500
G1 X88.9120 Y117.5120 E26.5841
G1 X103.9360 Y102.4880 E27.6526
G1 X104.6140 Y102.4880 E27.6867
G1 X89.5900 Y117.5120 E28.7552
G1 X90.2690 Y117.5120 E28.7894
G1 X105.2930 Y102.4880 E29.8579
G1 X105.9720 Y102.4880 E29.8920
G1 X90.9480 Y117.5120 E30.9605
G1 X91.6270 Y117.5120 E30.9947
G1 X106.6510 Y102.4880 E32.0632
G1 X107.3300 Y102.4880 E32.0973
G1 X92.3060 Y117.5120 E33.1658
G1 X92.9850 Y117.5120 E33.1999
G1 X108.0090 Y102.4880 E34.2684
G1 X108.6870 Y102.4880 E34.3026
G1 X93.6630 Y117.5120 E35.3711
G1 X94.3420 Y117.5120 E35.4052
G1 X109.3660 Y102.4880 E36.4737
G1 X110.0450 Y102.4880 E36.5079
G1 X95.0210 Y117.5120 E37.5764
G1 X95.7000 Y117.5120 E37.6105
G1 X110.7240 Y102.4880 E38.6790
G1 X111.4030 Y102.4880 E38.7132
G1 X96.3790 Y117.5120 E39.7817
G1 X97.0570 Y117.5120 E39.8158
G1 X112.0810 Y102.4880 E40.8843
G1 X112.7600 Y102.4880 E40.9184
G1 X97.7360 Y117.5120 E41.9869
G1 X98.4150 Y117.5120 E42.0211
G1 X113.4390 Y102.4880 E43.0896
G1 X114.1180 Y102.4880 E43.1237
G1 X99.0940 Y117.5120 E44.1922
G1 X99.7730 Y117.5120 E44.2264
G1 X114.7970 Y102.4880 E45.2949
G1 X115.4760 Y102.4880 E45.3290
G1 X100.4520 Y117.5120 E46.3975
G1 X101.1300 Y117.5120 E46.4316
G1 X116.1540 Y102.4880 E47.5002
G1 X116.8330 Y102.4880 E47.5343
G1 X101.8090 Y117.5120 E48.6028
G1 X102.4880 Y117.5120 E48.6369
G1 X117.5120 Y102.4880 E49.7054
G1 X118.1910 Y102.4880 E49.7396
G1 X103.1670 Y117.5120 E50.8081
G1 X103.8460 Y117.5120 E50.8422
G1 X118.8700 Y102.4880 E51.9107
G1 X119.5490 Y102.4880 E51.9449
G1 X104.5250 Y117.5120 E53.0134
G1 X105.2030 Y117.5120 E53.0475
G1 X120.2270 Y102.4880 E54.1160
G1 X120.9060 Y102.4880 E54.1501
G1 X105.8820 Y117.5120 E55.2186
G1 X106.5610 Y117.5120 E55.2528
G1 X121.5850 Y102.4880 E56.3213
G1 X122.2640 Y102.4880 E56.3554
G1 X107.2400 Y117.5120 E57.4239
G1 X107.9190 Y117.5120 E57.4581
G1 X122.9430 Y102.4880 E58.5266
G1 X123.6210 Y102.4880 E58.5607
G1 X108.5970 Y117.5120 E59.6292
G1 X109.2760 Y117.5120 E59.6634
G1 X124.3000 Y102.4880 E60.7319
G1 X124.9790 Y102.4880 E60.7660
G1 X109.9550 Y117.5120 E61.8345
G1 X110.6340 Y117.5120 E61.8686
G1 X125.6580 Y102.4880 E62.9371
G1 X126.3370 Y102.4880 E62.9713
G1 X111.3130 Y117.5120 E64.0398
G1 X111.9920 Y117.5120 E64.0739
G1 X127.0160 Y102.4880 E65.1424
G1 X127.6940 Y102.4880 E65.1766
G1 X112.6700 Y117.5120 E66.2451
G1 X113.3490 Y117.5120 E66.2792
G1 X128.3730 Y102.4880 E67.3477
G1 X129.0520 Y102.4880 E67.3818
G1 X114.0280 Y117.5120 E68.4504
G1 X114.7070 Y117.5120 E68.4845
G1 X129.7310 Y102.4880 E69.5530
G1 X130.4100 Y102.4880 E69.5871
G1 X115.3860 Y117.5120 E70.6556
G1 X116.0640 Y117.5120 E70.6898
G1 X131.0880 Y102.4880 E71.7583
G1 X131.7670 Y102.4880 E71.7924
G1 X116.7430 Y117.5120 E72.8609
G1 X117.4220 Y117.5120 E72.8951
G1 X132.4460 Y102.4880 E73.9636
G1 X133.1250 Y102.4880 E73.9977
G1 X118.1010 Y117.5120 E75.0662
G1 X118.7800 Y117.5120 E75.1003
G1 X133.8040 Y102.4880 E76.1688
G1 X134.4830 Y102.4880 E76.2030
G1 X119.4590 Y117.5120 E77.2715
G1 X120.1370 Y117.5120 E77.3056
G1 X135.1610 Y102.4880 E78.3741
G1 X135.8400 Y102.4880 E78.4083
G1 X120.8160 Y117.5120 E79.4768
G1 X121.4950 Y117.5120 E79.5109
G1 X136.5190 Y102.4880 E80.5794
G1 X136.9510 Y102.4880 E80.6011
G1 X137.1830 Y102.5030 E80.6128
G1 X122.1740 Y117.5120 E81.6802
G1 X122.8530 Y117.5120 E81.7144
G1 X137.7800 Y102.5850 E82.7760
G1 X137.9080 Y102.6110 E82.7826
G1 X138.3000 Y102.7440 E82.8034
G1 X123.5320 Y117.5120 E83.8537
G1 X124.2100 Y117.5120 E83.8878
G1 X138.7590 Y102.9630 E84.9225
G1 X138.7690 Y102.9680 E84.9231
G1 X139.0140 Y103.1240 E84.9377
G1 X139.1630 Y103.2390 E84.9471
G1 X124.8890 Y117.5120 E85.9622
G1 X125.5680 Y117.5120 E85.9964
G1 X139.5170 Y103.5630 E86.9884
G1 X139.5870 Y103.6290 E86.9933
G1 X139.8280 Y103.9300 E87.0127
G1 X126.2470 Y117.5120 E87.9786
G1 X126.9260 Y117.5120 E88.0128
G1 X140.0930 Y104.3450 E88.9492
G1 X140.1740 Y104.5020 E88.9581
G1 X140.2970 Y104.8190 E88.9752
G1 X127.6040 Y117.5120 E89.8779
G1 X128.2830 Y117.5120 E89.9120
G1 X140.4460 Y105.3500 E90.7770
G1 X140.4590 Y105.4060 E90.7799
G1 X140.4970 Y105.6940 E90.7945
G1 X140.5090 Y105.9650 E90.8082
G1 X128.9620 Y117.5120 E91.6294
G1 X129.6410 Y117.5120 E91.6635
G1 X140.5120 Y106.6410 E92.4367
G1 X140.5120 Y107.3200 E92.4708
G1 X130.3200 Y117.5120 E93.1957
G1 X130.9990 Y117.5120 E93.2298
G1 X140.5120 Y107.9990 E93.9064
G1 X140.5120 Y108.6770 E93.9406
G1 X131.6770 Y117.5120 E94.5689
G1 X132.3560 Y117.5120 E94.6030
G1 X140.5120 Y109.3560 E95.1830
G1 X140.5120 Y110.0350 E95.2172
G1 X133.0350 Y117.5120 E95.7489
G1 X133.7140 Y117.5120 E95.7831
G1 X140.5120 Y110.7140 E96.2666
G1 X140.5120 Y111.3930 E96.3007
G1 X134.3930 Y117.5120 E96.7359
G1 X135.0720 Y117.5120 E96.7700
G1 X140.5120 Y112.0720 E97.1570
G1 X140.5120 Y112.7500 E97.1911
G1 X135.7500 Y117.5120 E97.5298
G1 X136.4290 Y117.5120 E97.5639
G1 X140.5120 Y113.4290 E97.8543
G1 X140.5120 Y113.9510 E97.8805
G1 X140.5010 Y114.1190 E97.8890
G1 X137.1140 Y117.5060 E98.1298
G1 X137.3060 Y117.4970 E98.1395
G1 X137.6100 Y117.4570 E98.1549
G1 X137.8930 Y117.3940 E98.1695
G1 X137.9100 Y117.3880 E98.1704
G1 X140.3870 Y114.9120 E98.3465
G92 E0.0000
G1 E-5 F2400 ; custom retraction - A
;layer 3, Z = 0.840
;fan3;
G1 Z0.840 F1200
G1 X83.0260 Y102.2000 F11000 ; custom feedrate
G1 E0 F2400 ; custom un-retraction/prime - A
G92 E0.0000
G1 X136.9610 Y102.2000 E2.7123 F5280 ; custom feedrate
G1 X137.4960 Y102.2350 E2.7393
G1 X137.9830 Y102.3320 E2.7643
G1 X138.4530 Y102.4920 E2.7893
G1 X138.9110 Y102.7170 E2.8149
G1 X139.1790 Y102.8880 E2.8309
G1 X139.4310 Y103.0820 E2.8469
G1 X139.8000 Y103.4340 E2.8725
G1 X140.1190 Y103.8320 E2.8982
G1 X140.2900 Y104.1010 E2.9142
G1 X140.4370 Y104.3830 E2.9302
G1 X140.6220 Y104.8580 E2.9558
G1 X140.7430 Y105.3530 E2.9815
G1 X140.7840 Y105.6690 E2.9975
G1 X140.8000 Y106.0260 E3.0155
G1 X140.8000 Y113.9610 E3.4145
G1 X140.7640 Y114.5090 E3.4421
G1 X140.7090 Y114.8220 E3.4581
G1 X140.6230 Y115.1420 E3.4748
G1 X140.5100 Y115.4540 E3.4915
G1 X140.3700 Y115.7540 E3.5081
G1 X140.2040 Y116.0410 E3.5248
G1 X140.0140 Y116.3130 E3.5415
G1 X139.8010 Y116.5670 E3.5581
G1 X139.5670 Y116.8010 E3.5748
G1 X139.3130 Y117.0140 E3.5915
G1 X139.0410 Y117.2040 E3.6081
G1 X138.7540 Y117.3700 E3.6248
G1 X138.4660 Y117.5040 E3.6408
G1 X137.9700 Y117.6720 E3.6671
G1 X137.6600 Y117.7410 E3.6831
G1 X137.3310 Y117.7840 E3.6998
G1 X136.9740 Y117.8000 E3.7177
G1 X83.0390 Y117.8000 E6.4301
G1 X82.5040 Y117.7650 E6.4570
G1 X82.0170 Y117.6680 E6.4820
G1 X81.5340 Y117.5040 E6.5077
G1 X81.2460 Y117.3700 E6.5237
G1 X80.9700 Y117.2100 E6.5397
G1 X80.5590 Y116.9090 E6.5653
G1 X80.2000 Y116.5660 E6.5903
G1 X79.8810 Y116.1680 E6.6159
G1 X79.7100 Y115.8990 E6.6319
G1 X79.5630 Y115.6170 E6.6479
G1 X79.3780 Y115.1420 E6.6736
G1 X79.2600 Y114.6600 E6.6986
G1 X79.2050 Y114.1520 E6.7242
G1 X79.2050 Y105.8340 E7.1425
G1 X79.2340 Y105.5040 E7.1592
G1 X79.2910 Y105.1780 E7.1759
G1 X79.3770 Y104.8580 E7.1925
G1 X79.4900 Y104.5460 E7.2092
G1 X79.6300 Y104.2460 E7.2259
G1 X79.7960 Y103.9590 E7.2425
G1 X79.9860 Y103.6870 E7.2592
G1 X80.1990 Y103.4330 E7.2759
G1 X80.4340 Y103.1990 E7.2925
G1 X80.6770 Y102.9950 E7.3085
G1 X81.1120 Y102.7040 E7.3348
G1 X81.3950 Y102.5570 E7.3508
G1 X81.7010 Y102.4300 E7.3675
G1 X82.0170 Y102.3310 E7.3842
G1 X82.3400 Y102.2590 E7.4008
G1 X82.6690 Y102.2160 E7.4175
G1 X83.0260 Y102.2000 E7.4355
G1 X83.0160 Y101.7200 F11000 ; custom feedrate
G92 E0.0000
G1 X136.9770 Y101.7200 E2.7137 F5280 ; custom feedrate
G1 X137.5580 Y101.7580 E2.7430
G1 X138.1070 Y101.8670 E2.7711
G1 X138.6370 Y102.0470 E2.7993
G1 X139.1460 Y102.2980 E2.8278
G1 X139.4540 Y102.4950 E2.8462
G1 X139.7440 Y102.7170 E2.8646
G1 X140.1540 Y103.1090 E2.8931
G1 X140.5100 Y103.5520 E2.9217
G1 X140.7060 Y103.8600 E2.9400
G1 X140.8750 Y104.1850 E2.9584
G1 X141.0800 Y104.7130 E2.9869
G1 X141.2150 Y105.2650 E3.0155
G1 X141.2630 Y105.6270 E3.0339
G1 X141.2800 Y106.0160 E3.0534
G1 X141.2800 Y113.9770 E3.4538
G1 X141.2410 Y114.5660 E3.4835
G1 X141.1780 Y114.9260 E3.5019
G1 X141.0810 Y115.2870 E3.5206
G1 X140.9540 Y115.6380 E3.5394
G1 X140.7960 Y115.9760 E3.5582
G1 X140.6090 Y116.2990 E3.5770
G1 X140.3950 Y116.6050 E3.5957
G1 X140.1550 Y116.8910 E3.6145
G1 X139.8910 Y117.1550 E3.6333
G1 X139.6050 Y117.3950 E3.6521
G1 X139.2990 Y117.6090 E3.6708
G1 X138.9760 Y117.7960 E3.6896
G1 X138.6450 Y117.9500 E3.7080
G1 X138.1000 Y118.1350 E3.7369
G1 X137.7430 Y118.2140 E3.7553
G1 X137.3730 Y118.2630 E3.7741
G1 X136.9840 Y118.2800 E3.7936
G1 X83.0230 Y118.2800 E6.5073
G1 X82.4420 Y118.2420 E6.5366
G1 X81.8930 Y118.1330 E6.5648
G1 X81.3550 Y117.9500 E6.5933
G1 X81.0240 Y117.7960 E6.6117
G1 X80.7080 Y117.6130 E6.6301
G1 X80.2500 Y117.2780 E6.6586
G1 X79.8460 Y116.8900 E6.6868
G1 X79.4900 Y116.4480 E6.7153
G1 X79.2940 Y116.1400 E6.7337
G1 X79.1250 Y115.8160 E6.7521
G1 X78.9200 Y115.2860 E6.7806
G1 X78.7870 Y114.7430 E6.8087
G1 X78.7250 Y114.1790 E6.8373
G1 X78.7250 Y105.8130 E7.2580
G1 X78.7570 Y105.4420 E7.2767
G1 X78.8220 Y105.0740 E7.2955
G1 X78.9190 Y104.7130 E7.3143
G1 X79.0460 Y104.3620 E7.3331
G1 X79.2040 Y104.0240 E7.3518
G1 X79.3910 Y103.7010 E7.3706
G1 X79.6050 Y103.3950 E7.3894
G1 X79.8450 Y103.1090 E7.4082
G1 X80.1090 Y102.8450 E7.4269
G1 X80.3890 Y102.6100 E7.4453
G1 X80.8670 Y102.2900 E7.4743
G1 X81.1920 Y102.1220 E7.4926
G1 X81.5370 Y101.9790 E7.5114
G1 X81.8920 Y101.8670 E7.5302
G1 X82.2570 Y101.7860 E7.5490
G1 X82.6270 Y101.7370 E7.5677
G1 X83.0160 Y101.7200 E7.5873
G1 X83.0050 Y101.2400 F11000 ; custom feedrate
G92 E0.0000
G1 X136.9920 Y101.2400 E2.7150 F3960 ; custom feedrate
G1 X137.6210 Y101.2810 E2.7467
G1 X138.2320 Y101.4030 E2.7780
G1 X138.8210 Y101.6030 E2.8093
G1 X139.3820 Y101.8790 E2.8407
G1 X139.7300 Y102.1010 E2.8615
G1 X140.0570 Y102.3520 E2.8822
G1 X140.5090 Y102.7850 E2.9137
G1 X140.9000 Y103.2720 E2.9451
G1 X141.1220 Y103.6200 E2.9659
G1 X141.3130 Y103.9860 E2.9866
G1 X141.5390 Y104.5690 E3.0181
G1 X141.6880 Y105.1760 E3.0495
G1 X141.7420 Y105.5850 E3.0702
G1 X141.7600 Y106.0050 E3.0914
G1 X141.7600 Y113.9920 E3.4930
G1 X141.7190 Y114.6240 E3.5249
G1 X141.6470 Y115.0300 E3.5456
G1 X141.5390 Y115.4310 E3.5665
G1 X141.3970 Y115.8220 E3.5874
G1 X141.2220 Y116.1980 E3.6083
G1 X141.0140 Y116.5570 E3.6292
G1 X140.7760 Y116.8980 E3.6500
G1 X140.5090 Y117.2160 E3.6709
G1 X140.2160 Y117.5090 E3.6918
G1 X139.8980 Y117.7760 E3.7127
G1 X139.5570 Y118.0140 E3.7336
G1 X139.1980 Y118.2220 E3.7544
G1 X138.8240 Y118.3960 E3.7752
G1 X138.2290 Y118.5980 E3.8068
G1 X137.8270 Y118.6870 E3.8275
G1 X137.4150 Y118.7420 E3.8484
G1 X136.9950 Y118.7600 E3.8695
G1 X83.0080 Y118.7600 E6.5845
G1 X82.3790 Y118.7190 E6.6162
G1 X81.7680 Y118.5970 E6.6475
G1 X81.1760 Y118.3960 E6.6790
G1 X80.8020 Y118.2220 E6.6997
G1 X80.4450 Y118.0160 E6.7205
G1 X79.9410 Y117.6460 E6.7519
G1 X79.4910 Y117.2150 E6.7832
G1 X79.1000 Y116.7280 E6.8147
G1 X78.8780 Y116.3800 E6.8354
G1 X78.6870 Y116.0140 E6.8562
G1 X78.4610 Y115.4310 E6.8876
G1 X78.3130 Y114.8260 E6.9189
G1 X78.2450 Y114.2050 E6.9503
G1 X78.2450 Y105.7920 E7.3734
G1 X78.2810 Y105.3790 E7.3943
G1 X78.3530 Y104.9700 E7.4152
G1 X78.4600 Y104.5690 E7.4361
G1 X78.6030 Y104.1790 E7.4569
G1 X78.7780 Y103.8020 E7.4778
G1 X78.9860 Y103.4420 E7.4987
G1 X79.2240 Y103.1020 E7.5196
G1 X79.4910 Y102.7840 E7.5405
G1 X79.7840 Y102.4910 E7.5614
G1 X80.1000 Y102.2250 E7.5821
G1 X80.6220 Y101.8770 E7.6137
G1 X80.9880 Y101.6860 E7.6344
G1 X81.3720 Y101.5270 E7.6553
G1 X81.7680 Y101.4020 E7.6762
G1 X82.1730 Y101.3130 E7.6971
G1 X82.5850 Y101.2580 E7.7180
G1 X83.0050 Y101.2400 E7.7391
G1 X82.0900 Y117.3890 F11000 ; custom feedrate
G92 E0.0000
G1 X79.6200 Y114.9190 E0.1756 F5280 ; custom feedrate
G1 X79.5440 Y114.6090 E0.1917
G1 X79.4930 Y114.1370 E0.2156
G1 X79.4930 Y114.1130 E0.2168
G1 X82.8810 Y117.5010 E0.4578
G1 X83.0490 Y117.5120 E0.4662
G1 X83.5710 Y117.5120 E0.4925
G1 X79.4930 Y113.4340 E0.7825
G1 X79.4930 Y112.7550 E0.8166
G1 X84.2500 Y117.5120 E1.1550
G1 X84.9290 Y117.5120 E1.1891
G1 X79.4930 Y112.0760 E1.5757
G1 X79.4930 Y111.3970 E1.6098
G1 X85.6070 Y117.5120 E2.0447
G1 X86.2860 Y117.5120 E2.0788
G1 X79.4930 Y110.7190 E2.5620
G1 X79.4930 Y110.0400 E2.5961
G1 X86.9650 Y117.5120 E3.1275
G1 X87.6440 Y117.5120 E3.1617
G1 X79.4930 Y109.3610 E3.7414
G1 X79.4930 Y108.6820 E3.7755
G1 X88.3230 Y117.5120 E4.4035
G1 X89.0010 Y117.5120 E4.4376
G1 X79.4930 Y108.0030 E5.1139
G1 X79.4930 Y107.3240 E5.1480
G1 X89.6800 Y117.5120 E5.8726
G1 X90.3590 Y117.5120 E5.9067
G1 X79.4930 Y106.6460 E6.6795
G1 X79.4930 Y105.9670 E6.7137
G1 X91.0380 Y117.5120 E7.5348
G1 X91.7170 Y117.5120 E7.5689
G1 X79.5530 Y105.3490 E8.4339
G1 X79.5730 Y105.2400 E8.4395
G1 X79.6520 Y104.9440 E8.4549
G1 X79.6990 Y104.8150 E8.4618
G1 X92.3960 Y117.5120 E9.3648
G1 X93.0740 Y117.5120 E9.3989
G1 X79.9060 Y104.3440 E10.3354
G1 X80.0390 Y104.1140 E10.3488
G1 X80.1690 Y103.9280 E10.3602
G1 X93.7530 Y117.5120 E11.3263
G1 X94.4320 Y117.5120 E11.3604
G1 X80.4800 Y103.5600 E12.3527
G1 X80.6280 Y103.4120 E12.3632
G1 X80.8360 Y103.2370 E12.3769
G1 X95.1110 Y117.5120 E13.3921
G1 X95.7900 Y117.5120 E13.4262
G1 X81.2420 Y102.9640 E14.4609
G1 X81.2590 Y102.9520 E14.4619
G1 X81.5160 Y102.8180 E14.4765
G1 X81.6990 Y102.7430 E14.4865
G1 X96.4690 Y117.5120 E15.5369
G1 X97.1470 Y117.5120 E15.5710
G1 X82.2170 Y102.5810 E16.6329
G1 X82.3900 Y102.5430 E16.6418
G1 X82.6940 Y102.5030 E16.6572
G1 X82.8120 Y102.4980 E16.6632
G1 X97.8260 Y117.5120 E17.7310
G1 X98.5050 Y117.5120 E17.7651
G1 X83.4810 Y102.4880 E18.8336
G1 X84.1600 Y102.4880 E18.8678
G1 X99.1840 Y117.5120 E19.9363
G1 X99.8630 Y117.5120 E19.9704
G1 X84.8390 Y102.4880 E21.0389
G1 X85.5170 Y102.4880 E21.0730
G1 X100.5410 Y117.5120 E22.1416
G1 X101.2200 Y117.5120 E22.1757
G1 X86.1960 Y102.4880 E23.2442
G1 X86.8750 Y102.4880 E23.2783
G1 X101.8990 Y117.5120 E24.3468
G1 X102.5780 Y117.5120 E24.3810
G1 X87.5540 Y102.4880 E25.4495
G1 X88.2330 Y102.4880 E25.4836
G1 X103.2570 Y117.5120 E26.5521
G1 X103.9360 Y117.5120 E26.5863
G1 X88.9120 Y102.4880 E27.6548
G1 X89.5900 Y102.4880 E27.6889
G1 X104.6140 Y117.5120 E28.7574
G1 X105.2930 Y117.5120 E28.7915
G1 X90.2690 Y102.4880 E29.8600
G1 X90.9480 Y102.4880 E29.8942
G1 X105.9720 Y117.5120 E30.9627
G1 X106.6510 Y117.5120 E30.9968
G1 X91.6270 Y102.4880 E32.0653
G1 X92.3060 Y102.4880 E32.0995
G1 X107.3300 Y117.5120 E33.1680
G1 X108.0080 Y117.5120 E33.2021
G1 X92.9840 Y102.4880 E34.2706
G1 X93.6630 Y102.4880 E34.3048
G1 X108.6870 Y117.5120 E35.3733
G1 X109.3660 Y117.5120 E35.4074
G1 X94.3420 Y102.4880 E36.4759
G1 X95.0210 Y102.4880 E36.5100
G1 X110.0450 Y117.5120 E37.5785
G1 X110.7240 Y117.5120 E37.6127
G1 X95.7000 Y102.4880 E38.6812
G1 X96.3790 Y102.4880 E38.7153
G1 X111.4030 Y117.5120 E39.7838
G1 X112.0810 Y117.5120 E39.8180
G1 X97.0570 Y102.4880 E40.8865
G1 X97.7360 Y102.4880 E40.9206
G1 X112.7600 Y117.5120 E41.9891
G1 X113.4390 Y117.5120 E42.0232
G1 X98.4150 Y102.4880 E43.0918
G1 X99.0940 Y102.4880 E43.1259
G1 X114.1180 Y117.5120 E44.1944
G1 X114.7970 Y117.5120 E44.2285
G1 X99.7730 Y102.4880 E45.2970
G1 X100.4520 Y102.4880 E45.3312
G1 X115.4760 Y117.5120 E46.3997
G1 X116.1540 Y117.5120 E46.4338
G1 X101.1300 Y102.4880 E47.5023
G1 X101.8090 Y102.4880 E47.5365
G1 X116.8330 Y117.5120 E48.6050
G1 X117.5120 Y117.5120 E48.6391
G1 X102.4880 Y102.4880 E49.7076
G1 X103.1670 Y102.4880 E49.7417
G1 X118.1910 Y117.5120 E50.8102
G1 X118.8700 Y117.5120 E50.8444
G1 X103.8460 Y102.4880 E51.9129
G1 X104.5240 Y102.4880 E51.9470
G1 X119.5480 Y117.5120 E53.0155
G1 X120.2270 Y117.5120 E53.0497
G1 X105.2030 Y102.4880 E54.1182
G1 X105.8820 Y102.4880 E54.1523
G1 X120.9060 Y117.5120 E55.2208
G1 X121.5850 Y117.5120 E55.2550
G1 X106.5610 Y102.4880 E56.3235
G1 X107.2400 Y102.4880 E56.3576
G1 X122.2640 Y117.5120 E57.4261
G1 X122.9430 Y117.5120 E57.4602
G1 X107.9190 Y102.4880 E58.5287
G1 X108.5970 Y102.4880 E58.5629
G1 X123.6210 Y117.5120 E59.6314
G1 X124.3000 Y117.5120 E59.6655
G1 X109.2760 Y102.4880 E60.7340
G1 X109.9550 Y102.4880 E60.7682
G1 X124.9790 Y117.5120 E61.8367
G1 X125.6580 Y117.5120 E61.8708
G1 X110.6340 Y102.4880 E62.9393
G1 X111.3130 Y102.4880 E62.9734
G1 X126.3370 Y117.5120 E64.0420
G1 X127.0160 Y117.5120 E64.0761
G1 X111.9920 Y102.4880 E65.1446
G1 X112.6700 Y102.4880 E65.1787
G1 X127.6940 Y117.5120 E66.2472
G1 X128.3730 Y117.5120 E66.2814
G1 X113.3490 Y102.4880 E67.3499
G1 X114.0280 Y102.4880 E67.3840
G1 X129.0520 Y117.5120 E68.4525
G1 X129.7310 Y117.5120 E68.4867
G1 X114.7070 Y102.4880 E69.5552
G1 X115.3860 Y102.4880 E69.5893
G1 X130.4100 Y117.5120 E70.6578
G1 X131.0880 Y117.5120 E70.6919
G1 X116.0640 Y102.4880 E71.7604
G1 X116.7430 Y102.4880 E71.7946
G1 X131.7670 Y117.5120 E72.8631
G1 X132.4460 Y117.5120 E72.8972
G1 X117.4220 Y102.4880 E73.9657
G1 X118.1010 Y102.4880 E73.9999
G1 X133.1250 Y117.5120 E75.0684
G1 X133.8040 Y117.5120 E75.1025
G1 X118.7800 Y102.4880 E76.1710
G1 X119.4590 Y102.4880 E76.2052
G1 X134.4830 Y117.5120 E77.2737
G1 X135.1610 Y117.5120 E77.3078
G1 X120.1370 Y102.4880 E78.3763
G1 X120.8160 Y102.4880 E78.4104
G1 X135.8400 Y117.5120 E79.4789
G1 X136.5190 Y117.5120 E79.5131
G1 X121.4950 Y102.4880 E80.5816
G1 X122.1740 Y102.4880 E80.6157
G1 X137.1880 Y117.5020 E81.6835
G1 X137.3060 Y117.4970 E81.6895
G1 X137.6100 Y117.4570 E81.7049
G1 X137.7830 Y117.4190 E81.7138
G1 X122.8530 Y102.4880 E82.7757
G1 X123.5320 Y102.4880 E82.8098
G1 X138.3000 Y117.2560 E83.8601
G1 X138.3580 Y117.2360 E83.8633
G1 X138.6210 Y117.1140 E83.8778
G1 X138.7570 Y117.0350 E83.8858
G1 X124.2100 Y102.4880 E84.9203
G1 X124.8890 Y102.4880 E84.9545
G1 X139.1640 Y116.7630 E85.9697
G1 X139.3720 Y116.5880 E85.9833
G1 X139.5200 Y116.4400 E85.9939
G1 X125.5680 Y102.4880 E86.9861
G1 X126.2470 Y102.4880 E87.0203
G1 X139.8310 Y116.0720 E87.9864
G1 X139.9610 Y115.8860 E87.9978
G1 X140.0940 Y115.6560 E88.0111
G1 X126.9260 Y102.4880 E88.9477
G1 X127.6040 Y102.4880 E88.9818
G1 X140.3010 Y115.1850 E89.8848
G1 X140.3480 Y115.0560 E89.8917
G1 X140.4270 Y114.7600 E89.9071
G1 X140.4470 Y114.6510 E89.9126
G1 X128.2830 Y102.4880 E90.7777
G1 X128.9620 Y102.4880 E90.8118
G1 X140.5070 Y114.0330 E91.6329
G1 X140.5120 Y113.9510 E91.6370
G1 X140.5120 Y113.3590 E91.6667
G1 X129.6410 Y102.4880 E92.4399
G1 X130.3200 Y102.4880 E92.4740
G1 X140.5120 Y112.6800 E93.1989
G1 X140.5120 Y112.0010 E93.2330
G1 X130.9990 Y102.4880 E93.9096
G1 X131.6770 Y102.4880 E93.9438
G1 X140.5120 Y111.3230 E94.5721
G1 X140.5120 Y110.6440 E94.6062
G1 X132.3560 Y102.4880 E95.1863
G1 X133.0350 Y102.4880 E95.2204
G1 X140.5120 Y109.9650 E95.7522
G1 X140.5120 Y109.2860 E95.7863
G1 X133.7140 Y102.4880 E96.2698
G1 X134.3930 Y102.4880 E96.3039
G1 X140.5120 Y108.6070 E96.7391
G1 X140.5120 Y107.9290 E96.7733
G1 X135.0710 Y102.4880 E97.1602
G1 X135.7500 Y102.4880 E97.1943
G1 X140.5120 Y107.2500 E97.5330
G1 X140.5120 Y106.5710 E97.5671
G1 X136.4290 Y102.4880 E97.8575
G1 X136.9510 Y102.4880 E97.8837
G1 X137.1190 Y102.4990 E97.8922
G1 X140.5060 Y105.8860 E98.1331
G1 X140.4970 Y105.6940 E98.1427
G1 X140.4590 Y105.4060 E98.1573
G1 X140.3800 Y105.0810 E98.1741
G1 X137.9100 Y102.6110 E98.3498
G92 E0.0000
G1 E-5 F2400 ; custom retraction - A
;layer 4, Z = 1.120
;fan4;
G1 Z1.120 F1200
G1 X83.0260 Y102.2000 F11000 ; custom feedrate
G1 E0 F2400 ; custom un-retraction/prime - A
G92 E0.0000
G1 X136.9610 Y102.2000 E2.7123 F5280 ; custom feedrate
G1 X137.4960 Y102.2350 E2.7393
G1 X137.9830 Y102.3320 E2.7643
G1 X138.4530 Y102.4920 E2.7893
G1 X138.9110 Y102.7170 E2.8149
G1 X139.1790 Y102.8880 E2.8309
G1 X139.4310 Y103.0820 E2.8469
G1 X139.8000 Y103.4340 E2.8725
G1 X140.1190 Y103.8320 E2.8982
G1 X140.2900 Y104.1010 E2.9142
G1 X140.4370 Y104.3830 E2.9302
G1 X140.6220 Y104.8580 E2.9558
G1 X140.7430 Y105.3530 E2.9815
G1 X140.7840 Y105.6690 E2.9975
G1 X140.8000 Y106.0260 E3.0155
G1 X140.8000 Y113.9610 E3.4145
G1 X140.7640 Y114.5090 E3.4421
G1 X140.7090 Y114.8220 E3.4581
G1 X140.6230 Y115.1420 E3.4748
G1 X140.5100 Y115.4540 E3.4915
G1 X140.3700 Y115.7540 E3.5081
G1 X140.2040 Y116.0410 E3.5248
G1 X140.0140 Y116.3130 E3.5415
G1 X139.8010 Y116.5670 E3.5581
G1 X139.5670 Y116.8010 E3.5748
G1 X139.3130 Y117.0140 E3.5915
G1 X139.0410 Y117.2040 E3.6081
G1 X138.7540 Y117.3700 E3.6248
G1 X138.4660 Y117.5040 E3.6408
G1 X137.9700 Y117.6720 E3.6671
G1 X137.6600 Y117.7410 E3.6831
G1 X137.3310 Y117.7840 E3.6998
G1 X136.9740 Y117.8000 E3.7177
G1 X83.0390 Y117.8000 E6.4301
G1 X82.5040 Y117.7650 E6.4570
G1 X82.0170 Y117.6680 E6.4820
G1 X81.5340 Y117.5040 E6.5077
G1 X81.2460 Y117.3700 E6.5237
G1 X80.9700 Y117.2100 E6.5397
G1 X80.5590 Y116.9090 E6.5653
G1 X80.2000 Y116.5660 E6.5903
G1 X79.8810 Y116.1680 E6.6159
G1 X79.7100 Y115.8990 E6.6319
G1 X79.5630 Y115.6170 E6.6479
G1 X79.3780 Y115.1420 E6.6736
G1 X79.2600 Y114.6600 E6.6986
G1 X79.2050 Y114.1520 E6.7242
G1 X79.2050 Y105.8340 E7.1425
G1 X79.2340 Y105.5040 E7.1592
G1 X79.2910 Y105.1780 E7.1759
G1 X79.3770 Y104.8580 E7.1925
G1 X79.4900 Y104.5460 E7.2092
G1 X79.6300 Y104.2460 E7.2259
G1 X79.7960 Y103.9590 E7.2425
G1 X79.9860 Y103.6870 E7.2592
G1 X80.1990 Y103.4330 E7.2759
G1 X80.4340 Y103.1990 E7.2925
G1 X80.6770 Y102.9950 E7.3085
G1 X81.1120 Y102.7040 E7.3348
G1 X81.3950 Y102.5570 E7.3508
G1 X81.7010 Y102.4300 E7.3675
G1 X82.0170 Y102.3310 E7.3842
G1 X82.3400 Y102.2590 E7.4008
G1 X82.6690 Y102.2160 E7.4175
G1 X83.0260 Y102.2000 E7.4355
G1 X83.0160 Y101.7200 F11000 ; custom feedrate
G92 E0.0000
G1 X136.9770 Y101.7200 E2.7137 F5280 ; custom feedrate
G1 X137.5580 Y101.7580 E2.7430
G1 X138.1070 Y101.8670 E2.7711
G1 X138.6370 Y102.0470 E2.7993
G1 X139.1460 Y102.2980 E2.8278
G1 X139.4540 Y102.4950 E2.8462
G1 X139.7440 Y102.7170 E2.8646
G1 X140.1540 Y103.1090 E2.8931
G1 X140.5100 Y103.5520 E2.9217
G1 X140.7060 Y103.8600 E2.9400
G1 X140.8750 Y104.1850 E2.9584
G1 X141.0800 Y104.7130 E2.9869
G1 X141.2150 Y105.2650 E3.0155
G1 X141.2630 Y105.6270 E3.0339
G1 X141.2800 Y106.0160 E3.0534
G1 X141.2800 Y113.9770 E3.4538
G1 X141.2410 Y114.5660 E3.4835
G1 X141.1780 Y114.9260 E3.5019
G1 X141.0810 Y115.2870 E3.5206
G1 X140.9540 Y115.6380 E3.5394
G1 X140.7960 Y115.9760 E3.5582
G1 X140.6090 Y116.2990 E3.5770
G1 X140.3950 Y116.6050 E3.5957
G1 X140.1550 Y116.8910 E3.6145
G1 X139.8910 Y117.1550 E3.6333
G1 X139.6050 Y117.3950 E3.6521
G1 X139.2990 Y117.6090 E3.6708
G1 X138.9760 Y117.7960 E3.6896
G1 X138.6450 Y117.9500 E3.7080
G1 X138.1000 Y118.1350 E3.7369
G1 X137.7430 Y118.2140 E3.7553
G1 X137.3730 Y118.2630 E3.7741
G1 X136.9840 Y118.2800 E3.7936
G1 X83.0230 Y118.2800 E6.5073
G1 X82.4420 Y118.2420 E6.5366
G1 X81.8930 Y118.1330 E6.5648
G1 X81.3550 Y117.9500 E6.5933
G1 X81.0240 Y117.7960 E6.6117
G1 X80.7080 Y117.6130 E6.6301
G1 X80.2500 Y117.2780 E6.6586
G1 X79.8460 Y116.8900 E6.6868
G1 X79.4900 Y116.4480 E6.7153
G1 X79.2940 Y116.1400 E6.7337
G1 X79.1250 Y115.8160 E6.7521
G1 X78.9200 Y115.2860 E6.7806
G1 X78.7870 Y114.7430 E6.8087
G1 X78.7250 Y114.1790 E6.8373
G1 X78.7250 Y105.8130 E7.2580
G1 X78.7570 Y105.4420 E7.2767
G1 X78.8220 Y105.0740 E7.2955
G1 X78.9190 Y104.7130 E7.3143
G1 X79.0460 Y104.3620 E7.3331
G1 X79.2040 Y104.0240 E7.3518
G1 X79.3910 Y103.7010 E7.3706
G1 X79.6050 Y103.3950 E7.3894
G1 X79.8450 Y103.1090 E7.4082
G1 X80.1090 Y102.8450 E7.4269
G1 X80.3890 Y102.6100 E7.4453
G1 X80.8670 Y102.2900 E7.4743
G1 X81.1920 Y102.1220 E7.4926
G1 X81.5370 Y101.9790 E7.5114
G1 X81.8920 Y101.8670 E7.5302
G1 X82.2570 Y101.7860 E7.5490
G1 X82.6270 Y101.7370 E7.5677
G1 X83.0160 Y101.7200 E7.5873
G1 X83.0050 Y101.2400 F11000 ; custom feedrate
G92 E0.0000
G1 X136.9920 Y101.2400 E2.7150 F3960 ; custom feedrate
G1 X137.6210 Y101.2810 E2.7467
G1 X138.2320 Y101.4030 E2.7780
G1 X138.8210 Y101.6030 E2.8093
G1 X139.3820 Y101.8790 E2.8407
G1 X139.7300 Y102.1010 E2.8615
G1 X140.0570 Y102.3520 E2.8822
G1 X140.5090 Y102.7850 E2.9137
G1 X140.9000 Y103.2720 E2.9451
G1 X141.1220 Y103.6200 E2.9659
G1 X141.3130 Y103.9860 E2.9866
G1 X141.5390 Y104.5690 E3.0181
G1 X141.6880 Y105.1760 E3.0495
G1 X141.7420 Y105.5850 E3.0702
G1 X141.7600 Y106.0050 E3.0914
G1 X141.7600 Y113.9920 E3.4930
G1 X141.7190 Y114.6240 E3.5249
G1 X141.6470 Y115.0300 E3.5456
G1 X141.5390 Y115.4310 E3.5665
G1 X141.3970 Y115.8220 E3.5874
G1 X141.2220 Y116.1980 E3.6083
G1 X141.0140 Y116.5570 E3.6292
G1 X140.7760 Y116.8980 E3.6500
G1 X140.5090 Y117.2160 E3.6709
G1 X140.2160 Y117.5090 E3.6918
G1 X139.8980 Y117.7760 E3.7127
G1 X139.5570 Y118.0140 E3.7336
G1 X139.1980 Y118.2220 E3.7544
G1 X138.8240 Y118.3960 E3.7752
G1 X138.2290 Y118.5980 E3.8068
G1 X137.8270 Y118.6870 E3.8275
G1 X137.4150 Y118.7420 E3.8484
G1 X136.9950 Y118.7600 E3.8695
G1 X83.0080 Y118.7600 E6.5845
G1 X82.3790 Y118.7190 E6.6162
G1 X81.7680 Y118.5970 E6.6475
G1 X81.1760 Y118.3960 E6.6790
G1 X80.8020 Y118.2220 E6.6997
G1 X80.4450 Y118.0160 E6.7205
G1 X79.9410 Y117.6460 E6.7519
G1 X79.4910 Y117.2150 E6.7832
G1 X79.1000 Y116.7280 E6.8147
G1 X78.8780 Y116.3800 E6.8354
G1 X78.6870 Y116.0140 E6.8562
G1 X78.4610 Y115.4310 E6.8876
G1 X78.3130 Y114.8260 E6.9189
G1 X78.2450 Y114.2050 E6.9503
G1 X78.2450 Y105.7920 E7.3734
G1 X78.2810 Y105.3790 E7.3943
G1 X78.3530 Y104.9700 E7.4152
G1 X78.4600 Y104.5690 E7.4361
G1 X78.6030 Y104.1790 E7.4569
G1 X78.7780 Y103.8020 E7.4778
G1 X78.9860 Y103.4420 E7.4987
G1 X79.2240 Y103.1020 E7.5196
G1 X79.4910 Y102.7840 E7.5405
G1 X79.7840 Y102.4910 E7.5614
G1 X80.1000 Y102.2250 E7.5821
G1 X80.6220 Y101.8770 E7.6137
G1 X80.9880 Y101.6860 E7.6344
G1 X81.3720 Y101.5270 E7.6553
G1 X81.7680 Y101.4020 E7.6762
G1 X82.1730 Y101.3130 E7.6971
G1 X82.5850 Y101.2580 E7.7180
G1 X83.0050 Y101.2400 E7.7391
G1 X79.6130 Y105.0880 F11000 ; custom feedrate
G92 E0.0000
G1 X82.0920 Y102.6090 E0.1763 F5280 ; custom feedrate
G1 X82.3900 Y102.5430 E0.1916
G1 X82.6940 Y102.5030 E0.2071
G1 X82.8860 Y102.4940 E0.2167
G1 X79.4930 Y105.8870 E0.4580
G1 X79.4930 Y106.5660 E0.4921
G1 X83.5710 Y102.4880 E0.7822
G1 X84.2500 Y102.4880 E0.8163
G1 X79.4930 Y107.2450 E1.1546
G1 X79.4930 Y107.9240 E1.1888
G1 X84.9290 Y102.4880 E1.5754
G1 X85.6070 Y102.4880 E1.6095
G1 X79.4930 Y108.6030 E2.0444
G1 X79.4930 Y109.2810 E2.0785
G1 X86.2860 Y102.4880 E2.5617
G1 X86.9650 Y102.4880 E2.5958
G1 X79.4930 Y109.9600 E3.1272
G1 X79.4930 Y110.6390 E3.1614
G1 X87.6440 Y102.4880 E3.7411
G1 X88.3230 Y102.4880 E3.7752
G1 X83.7550 Y107.0560 E4.1001
G1 X82.7720 Y107.3750 E4.1520
G1 X82.7720 Y108.0390 E4.1854
G1 X79.4930 Y111.3180 E4.4186
G1 X79.4930 Y111.9970 E4.4528
G1 X82.7720 Y108.7180 E4.6860
G1 X82.7720 Y109.3960 E4.7201
G1 X79.4930 Y112.6760 E4.9533
G1 X79.4930 Y113.3540 E4.9875
G1 X82.7720 Y110.0750 E5.2207
G1 X82.7720 Y110.6130 E5.2477
G1 X82.8780 Y110.6480 E5.2534
G1 X79.4930 Y114.0330 E5.4941
G1 X79.4930 Y114.1370 E5.4994
G1 X79.5440 Y114.6090 E5.5233
G1 X79.5550 Y114.6500 E5.5254
G1 X83.3910 Y110.8140 E5.7982
G1 X83.9030 Y110.9810 E5.8253
G1 X79.7030 Y115.1810 E6.1240
G1 X79.8260 Y115.4980 E6.1411
G1 X79.9070 Y115.6550 E6.1500
G1 X84.4150 Y111.1470 E6.4706
G1 X84.9280 Y111.3130 E6.4977
G1 X80.1720 Y116.0700 E6.8360
G1 X80.4130 Y116.3700 E6.8554
G1 X80.4830 Y116.4370 E6.8602
G1 X85.4400 Y111.4800 E7.2128
G1 X85.8510 Y111.6130 E7.2345
G1 X87.2980 Y109.6230 E7.3583
G1 X94.4320 Y102.4880 E7.8657
G1 X95.1110 Y102.4880 E7.8998
G1 X80.8410 Y116.7580 E8.9147
G1 X81.1280 Y116.9690 E8.9327
G1 X81.2430 Y117.0350 E8.9393
G1 X95.7900 Y102.4880 E9.9739
G1 X96.4690 Y102.4880 E10.0080
G1 X81.7000 Y117.2560 E11.0584
G1 X82.0920 Y117.3890 E11.0792
G1 X82.2210 Y117.4150 E11.0858
G1 X97.1470 Y102.4880 E12.1474
G1 X97.8260 Y102.4880 E12.1815
G1 X82.8170 Y117.4970 E13.2489
G1 X83.0490 Y117.5120 E13.2606
G1 X83.4810 Y117.5120 E13.2823
G1 X98.5050 Y102.4880 E14.3508
G1 X99.1840 Y102.4880 E14.3850
G1 X84.1600 Y117.5120 E15.4535
G1 X84.8390 Y117.5120 E15.4876
G1 X99.8630 Y102.4880 E16.5561
G1 X100.5410 Y102.4880 E16.5902
G1 X85.5170 Y117.5120 E17.6588
G1 X86.1960 Y117.5120 E17.6929
G1 X101.2200 Y102.4880 E18.7614
G1 X101.8990 Y102.4880 E18.7955
G1 X86.8750 Y117.5120 E19.8640
G1 X87.5540 Y117.5120 E19.8982
G1 X102.5780 Y102.4880 E20.9667
G1 X103.2570 Y102.4880 E21.0008
G1 X88.2330 Y117.5120 E22.0693
G1 X88.9120 Y117.5120 E22.1035
G1 X103.9360 Y102.4880 E23.1720
G1 X104.6140 Y102.4880 E23.2061
G1 X89.5900 Y117.5120 E24.2746
G1 X90.2690 Y117.5120 E24.3087
G1 X105.2930 Y102.4880 E25.3772
G1 X105.9720 Y102.4880 E25.4114
G1 X90.9480 Y117.5120 E26.4799
G1 X91.6270 Y117.5120 E26.5140
G1 X106.6510 Y102.4880 E27.5825
G1 X107.3300 Y102.4880 E27.6167
G1 X92.3060 Y117.5120 E28.6852
G1 X92.9850 Y117.5120 E28.7193
G1 X108.0090 Y102.4880 E29.7878
G1 X108.6870 Y102.4880 E29.8220
G1 X93.6630 Y117.5120 E30.8905
G1 X94.3420 Y117.5120 E30.9246
G1 X109.3660 Y102.4880 E31.9931
G1 X110.0450 Y102.4880 E32.0272
G1 X95.0210 Y117.5120 E33.0957
G1 X95.7000 Y117.5120 E33.1299
G1 X110.7240 Y102.4880 E34.1984
G1 X111.4030 Y102.4880 E34.2325
G1 X96.3790 Y117.5120 E35.3010
G1 X97.0570 Y117.5120 E35.3352
G1 X112.0810 Y102.4880 E36.4037
G1 X112.7600 Y102.4880 E36.4378
G1 X97.7360 Y117.5120 E37.5063
G1 X98.4150 Y117.5120 E37.5404
G1 X113.4390 Y102.4880 E38.6090
G1 X114.1180 Y102.4880 E38.6431
G1 X99.0940 Y117.5120 E39.7116
G1 X99.7730 Y117.5120 E39.7457
G1 X114.7970 Y102.4880 E40.8142
G1 X115.4760 Y102.4880 E40.8484
G1 X100.4520 Y117.5120 E41.9169
G1 X101.1300 Y117.5120 E41.9510
G1 X116.1540 Y102.4880 E43.0195
G1 X116.8330 Y102.4880 E43.0537
G1 X101.8090 Y117.5120 E44.1222
G1 X102.4880 Y117.5120 E44.1563
G1 X117.5120 Y102.4880 E45.2248
G1 X118.1910 Y102.4880 E45.2589
G1 X103.1670 Y117.5120 E46.3274
G1 X103.8460 Y117.5120 E46.3616
G1 X118.8700 Y102.4880 E47.4301
G1 X119.5490 Y102.4880 E47.4642
G1 X104.5250 Y117.5120 E48.5327
G1 X105.2030 Y117.5120 E48.5669
G1 X120.2270 Y102.4880 E49.6354
G1 X120.9060 Y102.4880 E49.6695
G1 X105.8820 Y117.5120 E50.7380
G1 X106.5610 Y117.5120 E50.7722
G1 X121.5850 Y102.4880 E51.8407
G1 X122.2640 Y102.4880 E51.8748
G1 X107.2400 Y117.5120 E52.9433
G1 X107.9190 Y117.5120 E52.9774
G1 X122.9430 Y102.4880 E54.0459
G1 X123.6210 Y102.4880 E54.0801
G1 X108.5970 Y117.5120 E55.1486
G1 X109.2760 Y117.5120 E55.1827
G1 X124.3000 Y102.4880 E56.2512
G1 X124.9790 Y102.4880 E56.2854
G1 X109.9550 Y117.5120 E57.3539
G1 X110.6340 Y117.5120 E57.3880
G1 X125.6580 Y102.4880 E58.4565
G1 X126.3370 Y102.4880 E58.4906
G1 X111.3130 Y117.5120 E59.5591
G1 X111.9920 Y117.5120 E59.5933
G1 X127.0160 Y102.4880 E60.6618
G1 X127.6940 Y102.4880 E60.6959
G1 X112.6700 Y117.5120 E61.7644
G1 X113.3490 Y117.5120 E61.7986
G1 X128.3730 Y102.4880 E62.8671
G1 X129.0520 Y102.4880 E62.9012
G1 X114.0280 Y117.5120 E63.9697
G1 X114.7070 Y117.5120 E64.0039
G1 X129.7310 Y102.4880 E65.0724
G1 X130.4100 Y102.4880 E65.1065
G1 X115.3860 Y117.5120 E66.1750
G1 X116.0640 Y117.5120 E66.2091
G1 X131.0880 Y102.4880 E67.2776
G1 X131.7670 Y102.4880 E67.3118
G1 X116.7430 Y117.5120 E68.3803
G1 X117.4220 Y117.5120 E68.4144
G1 X132.4460 Y102.4880 E69.4829
G1 X133.1250 Y102.4880 E69.5171
G1 X118.1010 Y117.5120 E70.5856
G1 X118.7800 Y117.5120 E70.6197
G1 X133.8040 Y102.4880 E71.6882
G1 X134.4830 Y102.4880 E71.7223
G1 X119.4590 Y117.5120 E72.7909
G1 X120.1370 Y117.5120 E72.8250
G1 X135.1610 Y102.4880 E73.8935
G1 X135.8400 Y102.4880 E73.9276
G1 X120.8160 Y117.5120 E74.9961
G1 X121.4950 Y117.5120 E75.0303
G1 X136.5190 Y102.4880 E76.0988
G1 X136.9510 Y102.4880 E76.1205
G1 X137.1830 Y102.5030 E76.1322
G1 X122.1740 Y117.5120 E77.1996
G1 X122.8530 Y117.5120 E77.2337
G1 X137.7800 Y102.5850 E78.2953
G1 X137.9080 Y102.6110 E78.3019
G1 X138.3000 Y102.7440 E78.3227
G1 X134.5410 Y106.5020 E78.5900
G1 X134.1490 Y106.3750 E78.6108
G1 X132.7680 Y108.2750 E78.7289
G1 X123.5320 Y117.5120 E79.3858
G1 X124.2100 Y117.5120 E79.4200
G1 X132.4490 Y109.2730 E80.0059
G1 X132.7350 Y109.6670 E80.0303
G1 X124.8890 Y117.5120 E80.5883
G1 X125.5680 Y117.5120 E80.6224
G1 X133.0200 Y110.0600 E81.1524
G1 X133.3060 Y110.4530 E81.1769
G1 X126.2470 Y117.5120 E81.6789
G1 X126.9260 Y117.5120 E81.7130
G1 X133.5910 Y110.8460 E82.1871
G1 X133.8770 Y111.2390 E82.2115
G1 X127.6040 Y117.5120 E82.6577
G1 X128.2830 Y117.5120 E82.6918
G1 X134.1980 Y111.5980 E83.1124
G1 X135.2030 Y111.2710 E83.1656
G1 X128.9620 Y117.5120 E83.6095
G1 X129.6410 Y117.5120 E83.6436
G1 X136.2090 Y110.9440 E84.1107
G1 X137.2140 Y110.6170 E84.1639
G1 X130.3200 Y117.5120 E84.6542
G1 X130.9990 Y117.5120 E84.6884
G1 X140.5120 Y107.9990 E85.3649
G1 X140.5120 Y108.6770 E85.3991
G1 X131.6770 Y117.5120 E86.0274
G1 X132.3560 Y117.5120 E86.0615
G1 X140.5120 Y109.3560 E86.6416
G1 X140.5120 Y110.0350 E86.6757
G1 X133.0350 Y117.5120 E87.2075
G1 X133.7140 Y117.5120 E87.2416
G1 X140.5120 Y110.7140 E87.7251
G1 X140.5120 Y111.3930 E87.7592
G1 X134.3930 Y117.5120 E88.1944
G1 X135.0720 Y117.5120 E88.2286
G1 X140.5120 Y112.0720 E88.6155
G1 X140.5120 Y112.7500 E88.6496
G1 X135.7500 Y117.5120 E88.9883
G1 X136.4290 Y117.5120 E89.0224
G1 X140.5120 Y113.4290 E89.3128
G1 X140.5120 Y113.9510 E89.3390
G1 X140.5010 Y114.1190 E89.3475
G1 X137.1140 Y117.5060 E89.5884
G1 X137.3060 Y117.4970 E89.5980
G1 X137.6100 Y117.4570 E89.6134
G1 X137.7520 Y117.4260 E89.6208
G1 X137.8930 Y117.3940 E89.6280
G1 X137.9100 Y117.3890 E89.6289
G1 X140.3870 Y114.9120 E89.8050
G1 X137.2280 Y110.6040 F11000 ; custom feedrate
G92 E0.0000
G1 X140.5120 Y107.3200 E0.2336 F5280 ; custom feedrate
G1 X140.5120 Y106.6410 E0.2677
G1 X137.2280 Y109.9250 E0.5012
G1 X137.2280 Y109.2460 E0.5354
G1 X140.5090 Y105.9650 E0.7687
G1 X140.4970 Y105.6940 E0.7824
G1 X140.4590 Y105.4060 E0.7970
G1 X140.4460 Y105.3500 E0.7999
G1 X137.2280 Y108.5670 E1.0287
G1 X137.2280 Y107.8880 E1.0629
G1 X140.2970 Y104.8190 E1.2811
G1 X140.1740 Y104.5020 E1.2982
G1 X140.1100 Y104.3790 E1.3052
G1 X140.0930 Y104.3450 E1.3071
G1 X137.1030 Y107.3350 E1.5198
G1 X136.5910 Y107.1680 E1.5469
G1 X139.8280 Y103.9300 E1.7771
G1 X139.5870 Y103.6290 E1.7965
G1 X139.5170 Y103.5630 E1.8014
G1 X136.0780 Y107.0020 E2.0460
G1 X135.5660 Y106.8350 E2.0731
G1 X139.1630 Y103.2390 E2.3289
G1 X139.0140 Y103.1240 E2.3383
G1 X138.8680 Y103.0310 E2.3470
G1 X138.7690 Y102.9690 E2.3529
G1 X138.7590 Y102.9630 E2.3535
G1 X135.0540 Y106.6690 E2.6170
G1 X87.5410 Y108.7010 F11000 ; custom feedrate
G92 E0.0000
G1 X93.7530 Y102.4880 E0.4418 F5280 ; custom feedrate
G1 X93.0740 Y102.4880 E0.4760
G1 X87.2550 Y108.3070 E0.8898
G1 X86.9690 Y107.9140 E0.9143
G1 X92.3960 Y102.4880 E1.3002
G1 X91.7170 Y102.4880 E1.3343
G1 X86.6840 Y107.5210 E1.6923
G1 X86.3980 Y107.1280 E1.7167
G1 X91.0380 Y102.4880 E2.0467
G1 X90.3590 Y102.4880 E2.0808
G1 X86.1120 Y106.7350 E2.3829
G1 X85.8510 Y106.3750 E2.4052
G1 X85.7660 Y106.4030 E2.4097
G1 X89.6800 Y102.4880 E2.6882
G1 X89.0010 Y102.4880 E2.7223
G1 X84.7600 Y106.7290 E3.0239
G92 E0.0000
G1 E-5 F2400 ; custom retraction - A
;layer 5, Z = 1.400
;fan5;
;
G1 Z1.400 F1200
G1 X87.5170 Y108.9940 F11000 ; custom feedrate
G1 E0 F2400 ; custom un-retraction/prime - A
G92 E0.0000
G1 X85.7780 Y111.3880 E0.1488 F5280 ; custom feedrate
G1 X82.9640 Y110.4730 E0.2976
G1 X82.9640 Y107.5150 E0.4464
G1 X85.7780 Y106.6010 E0.5951
G1 X87.5170 Y108.9940 E0.7439
G1 X88.1100 Y108.9940 F11000 ; custom feedrate
G92 E0.0000
G1 X85.9610 Y111.9520 E0.1839 F5280 ; custom feedrate
G1 X82.4840 Y110.8220 E0.3677
G1 X82.4840 Y107.1660 E0.5516
G1 X85.9610 Y106.0360 E0.7354
G1 X88.1100 Y108.9940 E0.9193
G1 X88.7030 Y108.9940 F11000 ; custom feedrate
G92 E0.0000
G1 X86.1440 Y112.5160 E0.2189 F3960 ; custom feedrate
G1 X82.0040 Y111.1710 E0.4379
G1 X82.0040 Y106.8170 E0.6568
G1 X86.1440 Y105.4720 E0.8757
G1 X88.7030 Y108.9940 E1.0947
G92 E0.0000
G1 E-5 F2400 ; custom retraction - A
;zhop1
G1 X132.4830 Y108.9940 F11000 ; custom feedrate
G1 Z1.400 F1200
G1 E0 F2400 ; custom un-retraction/prime - A
G92 E0.0000
G1 X134.2220 Y106.6010 E0.1488 F5280 ; custom feedrate
G1 X137.0360 Y107.5150 E0.2976
G1 X137.0360 Y110.4730 E0.4464
G1 X134.2220 Y111.3880 E0.5951
G1 X132.4830 Y108.9940 E0.7439
G1 X131.8900 Y108.9940 F11000 ; custom feedrate
G92 E0.0000
G1 X134.0390 Y106.0360 E0.1839 F5280 ; custom feedrate
G1 X137.5160 Y107.1660 E0.3677
G1 X137.5160 Y110.8220 E0.5516
G1 X134.0390 Y111.9520 E0.7354
G1 X131.8900 Y108.9940 E0.9193
G1 X131.2970 Y108.9940 F11000 ; custom feedrate
G92 E0.0000
G1 X133.8560 Y105.4720 E0.2189 F3960 ; custom feedrate
G1 X137.9960 Y106.8170 E0.4379
G1 X137.9960 Y111.1710 E0.6568
G1 X133.8560 Y112.5160 E0.8757
G1 X131.2970 Y108.9940 E1.0947
G92 E0.0000
G1 E-5 F2400 ; custom retraction - A
;layer 6, Z = 1.680
;fan6;
G1 Z1.680 F1200
G1 X132.4830 Y108.9940 F11000 ; custom feedrate
G1 E0 F2400 ; custom un-retraction/prime - A
G92 E0.0000
G1 X134.2220 Y106.6010 E0.1488 F5280 ; custom feedrate
G1 X137.0360 Y107.5150 E0.2976
G1 X137.0360 Y110.4730 E0.4464
G1 X134.2220 Y111.3880 E0.5951
G1 X132.4830 Y108.9940 E0.7439
G1 X131.8900 Y108.9940 F11000 ; custom feedrate
G92 E0.0000
G1 X134.0390 Y106.0360 E0.1839 F5280 ; custom feedrate
G1 X137.5160 Y107.1660 E0.3677
G1 X137.5160 Y110.8220 E0.5516
G1 X134.0390 Y111.9520 E0.7354
G1 X131.8900 Y108.9940 E0.9193
G1 X131.2970 Y108.9940 F11000 ; custom feedrate
G92 E0.0000
G1 X133.8560 Y105.4720 E0.2189 F3960 ; custom feedrate
G1 X137.9960 Y106.8170 E0.4379
G1 X137.9960 Y111.1710 E0.6568
G1 X133.8560 Y112.5160 E0.8757
G1 X131.2970 Y108.9940 E1.0947
G92 E0.0000
G1 E-5 F2400 ; custom retraction - A
;zhop1
G1 X87.5170 Y108.9940 F11000 ; custom feedrate
G1 Z1.680 F1200
G1 E0 F2400 ; custom un-retraction/prime - A
G92 E0.0000
G1 X85.7780 Y111.3880 E0.1488 F5280 ; custom feedrate
G1 X82.9640 Y110.4730 E0.2976
G1 X82.9640 Y107.5150 E0.4464
G1 X85.7780 Y106.6010 E0.5951
G1 X87.5170 Y108.9940 E0.7439
G1 X88.1100 Y108.9940 F11000 ; custom feedrate
G92 E0.0000
G1 X85.9610 Y111.9520 E0.1839 F5280 ; custom feedrate
G1 X82.4840 Y110.8220 E0.3677
G1 X82.4840 Y107.1660 E0.5516
G1 X85.9610 Y106.0360 E0.7354
G1 X88.1100 Y108.9940 E0.9193
G1 X88.7030 Y108.9940 F11000 ; custom feedrate
G92 E0.0000
G1 X86.1440 Y112.5160 E0.2189 F3960 ; custom feedrate
G1 X82.0040 Y111.1710 E0.4379
G1 X82.0040 Y106.8170 E0.6568
G1 X86.1440 Y105.4720 E0.8757
G1 X88.7030 Y108.9940 E1.0947
G92 E0.0000
G1 E-5 F2400 ; custom retraction - A
;layer 7, Z = 1.960
;fan7;
G1 Z1.960 F1200
G1 X87.5170 Y108.9940 F11000 ; custom feedrate
G1 E0 F2400 ; custom un-retraction/prime - A
G92 E0.0000
G1 X85.7780 Y111.3880 E0.1488 F5280 ; custom feedrate
G1 X82.9640 Y110.4730 E0.2976
G1 X82.9640 Y107.5150 E0.4464
G1 X85.7780 Y106.6010 E0.5951
G1 X87.5170 Y108.9940 E0.7439
G1 X88.1100 Y108.9940 F11000 ; custom feedrate
G92 E0.0000
G1 X85.9610 Y111.9520 E0.1839 F5280 ; custom feedrate
G1 X82.4840 Y110.8220 E0.3677
G1 X82.4840 Y107.1660 E0.5516
G1 X85.9610 Y106.0360 E0.7354
G1 X88.1100 Y108.9940 E0.9193
G1 X88.7030 Y108.9940 F11000 ; custom feedrate
G92 E0.0000
G1 X86.1440 Y112.5160 E0.2189 F3960 ; custom feedrate
G1 X82.0040 Y111.1710 E0.4379
G1 X82.0040 Y106.8170 E0.6568
G1 X86.1440 Y105.4720 E0.8757
G1 X88.7030 Y108.9940 E1.0947
G92 E0.0000
G1 E-5 F2400 ; custom retraction - A
;zhop1
G1 X132.4830 Y108.9940 F11000 ; custom feedrate
G1 Z1.960 F1200
G1 E0 F2400 ; custom un-retraction/prime - A
G92 E0.0000
G1 X134.2220 Y106.6010 E0.1488 F5280 ; custom feedrate
G1 X137.0360 Y107.5150 E0.2976
G1 X137.0360 Y110.4730 E0.4464
G1 X134.2220 Y111.3880 E0.5951
G1 X132.4830 Y108.9940 E0.7439
G1 X131.8900 Y108.9940 F11000 ; custom feedrate
G92 E0.0000
G1 X134.0390 Y106.0360 E0.1839 F5280 ; custom feedrate
G1 X137.5160 Y107.1660 E0.3677
G1 X137.5160 Y110.8220 E0.5516
G1 X134.0390 Y111.9520 E0.7354
G1 X131.8900 Y108.9940 E0.9193
G1 X131.2970 Y108.9940 F11000 ; custom feedrate
G92 E0.0000
G1 X133.8560 Y105.4720 E0.2189 F3960 ; custom feedrate
G1 X137.9960 Y106.8170 E0.4379
G1 X137.9960 Y111.1710 E0.6568
G1 X133.8560 Y112.5160 E0.8757
G1 X131.2970 Y108.9940 E1.0947
G92 E0.0000
G1 E-5 F2400 ; custom retraction - A
;process Process-2
;layer 8, Z = 2.240
;fan8;
G1 Z2.240 F1200
G1 X132.4830 Y108.9940 F11000 ; custom feedrate
G1 E0 F2400 ; custom un-retraction/prime - A
G92 E0.0000
G1 X134.2220 Y106.6010 E0.1488 F5280 ; custom feedrate
G1 X137.0360 Y107.5150 E0.2976
G1 X137.0360 Y110.4730 E0.4464
G1 X134.2220 Y111.3880 E0.5951
G1 X132.4830 Y108.9940 E0.7439
G1 X131.8900 Y108.9940 F11000 ; custom feedrate
G92 E0.0000
G1 X134.0390 Y106.0360 E0.1839 F5280 ; custom feedrate
G1 X137.5160 Y107.1660 E0.3677
G1 X137.5160 Y110.8220 E0.5516
G1 X134.0390 Y111.9520 E0.7354
G1 X131.8900 Y108.9940 E0.9193
G1 X131.2970 Y108.9940 F11000 ; custom feedrate
G92 E0.0000
G1 X133.8560 Y105.4720 E0.2189 F3960 ; custom feedrate
G1 X137.9960 Y106.8170 E0.4379
G1 X137.9960 Y111.1710 E0.6568
G1 X133.8560 Y112.5160 E0.8757
G1 X131.2970 Y108.9940 E1.0947
G92 E0.0000
G1 E-5 F2400 ; custom retraction - A
;zhop1
G1 X87.5170 Y108.9940 F11000 ; custom feedrate
G1 Z2.240 F1200
G1 E0 F2400 ; custom un-retraction/prime - A
G92 E0.0000
G1 X85.7780 Y111.3880 E0.1488 F5280 ; custom feedrate
G1 X82.9640 Y110.4730 E0.2976
G1 X82.9640 Y107.5150 E0.4464
G1 X85.7780 Y106.6010 E0.5951
G1 X87.5170 Y108.9940 E0.7439
G1 X88.1100 Y108.9940 F11000 ; custom feedrate
G92 E0.0000
G1 X85.9610 Y111.9520 E0.1839 F5280 ; custom feedrate
G1 X82.4840 Y110.8220 E0.3677
G1 X82.4840 Y107.1660 E0.5516
G1 X85.9610 Y106.0360 E0.7354
G1 X88.1100 Y108.9940 E0.9193
G1 X88.7030 Y108.9940 F11000 ; custom feedrate
G92 E0.0000
G1 X86.1440 Y112.5160 E0.2189 F3960 ; custom feedrate
G1 X82.0040 Y111.1710 E0.4379
G1 X82.0040 Y106.8170 E0.6568
G1 X86.1440 Y105.4720 E0.8757
G1 X88.7030 Y108.9940 E1.0947
G92 E0.0000
G1 E-5 F2400 ; custom retraction - A
;layer 9, Z = 2.520
;fan9;
G1 Z2.520 F1200
G1 X87.5170 Y108.9940 F11000 ; custom feedrate
G1 E0 F2400 ; custom un-retraction/prime - A
G92 E0.0000
G1 X85.7780 Y111.3880 E0.1488 F5280 ; custom feedrate
G1 X82.9640 Y110.4730 E0.2976
G1 X82.9640 Y107.5150 E0.4464
G1 X85.7780 Y106.6010 E0.5951
G1 X87.5170 Y108.9940 E0.7439
G1 X88.1100 Y108.9940 F11000 ; custom feedrate
G92 E0.0000
G1 X85.9610 Y111.9520 E0.1839 F5280 ; custom feedrate
G1 X82.4840 Y110.8220 E0.3677
G1 X82.4840 Y107.1660 E0.5516
G1 X85.9610 Y106.0360 E0.7354
G1 X88.1100 Y108.9940 E0.9193
G1 X88.7030 Y108.9940 F11000 ; custom feedrate
G92 E0.0000
G1 X86.1440 Y112.5160 E0.2189 F3960 ; custom feedrate
G1 X82.0040 Y111.1710 E0.4379
G1 X82.0040 Y106.8170 E0.6568
G1 X86.1440 Y105.4720 E0.8757
G1 X88.7030 Y108.9940 E1.0947
G92 E0.0000
G1 E-5 F2400 ; custom retraction - A
;zhop1
G1 X132.4830 Y108.9940 F11000 ; custom feedrate
G1 Z2.520 F1200
G1 E0 F2400 ; custom un-retraction/prime - A
G92 E0.0000
G1 X134.2220 Y106.6010 E0.1488 F5280 ; custom feedrate
G1 X137.0360 Y107.5150 E0.2976
G1 X137.0360 Y110.4730 E0.4464
G1 X134.2220 Y111.3880 E0.5951
G1 X132.4830 Y108.9940 E0.7439
G1 X131.8900 Y108.9940 F11000 ; custom feedrate
G92 E0.0000
G1 X134.0390 Y106.0360 E0.1839 F5280 ; custom feedrate
G1 X137.5160 Y107.1660 E0.3677
G1 X137.5160 Y110.8220 E0.5516
G1 X134.0390 Y111.9520 E0.7354
G1 X131.8900 Y108.9940 E0.9193
G1 X131.2970 Y108.9940 F11000 ; custom feedrate
G92 E0.0000
G1 X133.8560 Y105.4720 E0.2189 F3960 ; custom feedrate
G1 X137.9960 Y106.8170 E0.4379
G1 X137.9960 Y111.1710 E0.6568
G1 X133.8560 Y112.5160 E0.8757
G1 X131.2970 Y108.9940 E1.0947
G92 E0.0000
G1 E-5 F2400 ; custom retraction - A
;layer 10, Z = 2.800
;fan10;
G1 Z2.800 F1200
G1 X132.4830 Y108.9940 F11000 ; custom feedrate
G1 E0 F2400 ; custom un-retraction/prime - A
G92 E0.0000
G1 X134.2220 Y106.6010 E0.1488 F5280 ; custom feedrate
G1 X137.0360 Y107.5150 E0.2976
G1 X137.0360 Y110.4730 E0.4464
G1 X134.2220 Y111.3880 E0.5951
G1 X132.4830 Y108.9940 E0.7439
G1 X131.8900 Y108.9940 F11000 ; custom feedrate
G92 E0.0000
G1 X134.0390 Y106.0360 E0.1839 F5280 ; custom feedrate
G1 X137.5160 Y107.1660 E0.3677
G1 X137.5160 Y110.8220 E0.5516
G1 X134.0390 Y111.9520 E0.7354
G1 X131.8900 Y108.9940 E0.9193
G1 X131.2970 Y108.9940 F11000 ; custom feedrate
G92 E0.0000
G1 X133.8560 Y105.4720 E0.2189 F3960 ; custom feedrate
G1 X137.9960 Y106.8170 E0.4379
G1 X137.9960 Y111.1710 E0.6568
G1 X133.8560 Y112.5160 E0.8757
G1 X131.2970 Y108.9940 E1.0947
G92 E0.0000
G1 E-5 F2400 ; custom retraction - A
;zhop1
G1 X87.5170 Y108.9940 F11000 ; custom feedrate
G1 Z2.800 F1200
G1 E0 F2400 ; custom un-retraction/prime - A
G92 E0.0000
G1 X85.7780 Y111.3880 E0.1488 F5280 ; custom feedrate
G1 X82.9640 Y110.4730 E0.2976
G1 X82.9640 Y107.5150 E0.4464
G1 X85.7780 Y106.6010 E0.5951
G1 X87.5170 Y108.9940 E0.7439
G1 X88.1100 Y108.9940 F11000 ; custom feedrate
G92 E0.0000
G1 X85.9610 Y111.9520 E0.1839 F5280 ; custom feedrate
G1 X82.4840 Y110.8220 E0.3677
G1 X82.4840 Y107.1660 E0.5516
G1 X85.9610 Y106.0360 E0.7354
G1 X88.1100 Y108.9940 E0.9193
G1 X88.7030 Y108.9940 F11000 ; custom feedrate
G92 E0.0000
G1 X86.1440 Y112.5160 E0.2189 F3960 ; custom feedrate
G1 X82.0040 Y111.1710 E0.4379
G1 X82.0040 Y106.8170 E0.6568
G1 X86.1440 Y105.4720 E0.8757
G1 X88.7030 Y108.9940 E1.0947
G92 E0.0000
G1 E-5 F2400 ; custom retraction - A
;layer 11, Z = 3.080
;fan11;
G1 Z3.080 F1200
G1 X87.5170 Y108.9940 F11000 ; custom feedrate
G1 E0 F2400 ; custom un-retraction/prime - A
G92 E0.0000
G1 X85.7780 Y111.3880 E0.1488 F5280 ; custom feedrate
G1 X82.9640 Y110.4730 E0.2976
G1 X82.9640 Y107.5150 E0.4464
G1 X85.7780 Y106.6010 E0.5951
G1 X87.5170 Y108.9940 E0.7439
G1 X88.1100 Y108.9940 F11000 ; custom feedrate
G92 E0.0000
G1 X85.9610 Y111.9520 E0.1839 F5280 ; custom feedrate
G1 X82.4840 Y110.8220 E0.3677
G1 X82.4840 Y107.1660 E0.5516
G1 X85.9610 Y106.0360 E0.7354
G1 X88.1100 Y108.9940 E0.9193
G1 X88.7030 Y108.9940 F11000 ; custom feedrate
G92 E0.0000
G1 X86.1440 Y112.5160 E0.2189 F3960 ; custom feedrate
G1 X82.0040 Y111.1710 E0.4379
G1 X82.0040 Y106.8170 E0.6568
G1 X86.1440 Y105.4720 E0.8757
G1 X88.7030 Y108.9940 E1.0947
G92 E0.0000
G1 E-5 F2400 ; custom retraction - A
;zhop1
G1 X132.4830 Y108.9940 F11000 ; custom feedrate
G1 Z3.080 F1200
G1 E0 F2400 ; custom un-retraction/prime - A
G92 E0.0000
G1 X134.2220 Y106.6010 E0.1488 F5280 ; custom feedrate
G1 X137.0360 Y107.5150 E0.2976
G1 X137.0360 Y110.4730 E0.4464
G1 X134.2220 Y111.3880 E0.5951
G1 X132.4830 Y108.9940 E0.7439
G1 X131.8900 Y108.9940 F11000 ; custom feedrate
G92 E0.0000
G1 X134.0390 Y106.0360 E0.1839 F5280 ; custom feedrate
G1 X137.5160 Y107.1660 E0.3677
G1 X137.5160 Y110.8220 E0.5516
G1 X134.0390 Y111.9520 E0.7354
G1 X131.8900 Y108.9940 E0.9193
G1 X131.2970 Y108.9940 F11000 ; custom feedrate
G92 E0.0000
G1 X133.8560 Y105.4720 E0.2189 F3960 ; custom feedrate
G1 X137.9960 Y106.8170 E0.4379
G1 X137.9960 Y111.1710 E0.6568
G1 X133.8560 Y112.5160 E0.8757
G1 X131.2970 Y108.9940 E1.0947
G92 E0.0000
G1 E-5 F2400 ; custom retraction - A
;layer 12, Z = 3.360
;fan12;
G1 Z3.360 F1200
G1 X132.4830 Y108.9940 F11000 ; custom feedrate
G1 E0 F2400 ; custom un-retraction/prime - A
G92 E0.0000
G1 X134.2220 Y106.6010 E0.1488 F5280 ; custom feedrate
G1 X137.0360 Y107.5150 E0.2976
G1 X137.0360 Y110.4730 E0.4464
G1 X134.2220 Y111.3880 E0.5951
G1 X132.4830 Y108.9940 E0.7439
G1 X131.8900 Y108.9940 F11000 ; custom feedrate
G92 E0.0000
G1 X134.0390 Y106.0360 E0.1839 F5280 ; custom feedrate
G1 X137.5160 Y107.1660 E0.3677
G1 X137.5160 Y110.8220 E0.5516
G1 X134.0390 Y111.9520 E0.7354
G1 X131.8900 Y108.9940 E0.9193
G1 X131.2970 Y108.9940 F11000 ; custom feedrate
G92 E0.0000
G1 X133.8560 Y105.4720 E0.2189 F3960 ; custom feedrate
G1 X137.9960 Y106.8170 E0.4379
G1 X137.9960 Y111.1710 E0.6568
G1 X133.8560 Y112.5160 E0.8757
G1 X131.2970 Y108.9940 E1.0947
G92 E0.0000
G1 E-5 F2400 ; custom retraction - A
;zhop1
G1 X87.5170 Y108.9940 F11000 ; custom feedrate
G1 Z3.360 F1200
G1 E0 F2400 ; custom un-retraction/prime - A
G92 E0.0000
G1 X85.7780 Y111.3880 E0.1488 F5280 ; custom feedrate
G1 X82.9640 Y110.4730 E0.2976
G1 X82.9640 Y107.5150 E0.4464
G1 X85.7780 Y106.6010 E0.5951
G1 X87.5170 Y108.9940 E0.7439
G1 X88.1100 Y108.9940 F11000 ; custom feedrate
G92 E0.0000
G1 X85.9610 Y111.9520 E0.1839 F5280 ; custom feedrate
G1 X82.4840 Y110.8220 E0.3677
G1 X82.4840 Y107.1660 E0.5516
G1 X85.9610 Y106.0360 E0.7354
G1 X88.1100 Y108.9940 E0.9193
G1 X88.7030 Y108.9940 F11000 ; custom feedrate
G92 E0.0000
G1 X86.1440 Y112.5160 E0.2189 F3960 ; custom feedrate
G1 X82.0040 Y111.1710 E0.4379
G1 X82.0040 Y106.8170 E0.6568
G1 X86.1440 Y105.4720 E0.8757
G1 X88.7030 Y108.9940 E1.0947
G92 E0.0000
G1 E-5 F2400 ; custom retraction - A
;layer 13, Z = 3.640
;fan13;
G1 Z3.640 F1200
G1 X87.5170 Y108.9940 F11000 ; custom feedrate
G1 E0 F2400 ; custom un-retraction/prime - A
G92 E0.0000
G1 X85.7780 Y111.3880 E0.1488 F5280 ; custom feedrate
G1 X82.9640 Y110.4730 E0.2976
G1 X82.9640 Y107.5150 E0.4464
G1 X85.7780 Y106.6010 E0.5951
G1 X87.5170 Y108.9940 E0.7439
G1 X88.1100 Y108.9940 F11000 ; custom feedrate
G92 E0.0000
G1 X85.9610 Y111.9520 E0.1839 F5280 ; custom feedrate
G1 X82.4840 Y110.8220 E0.3677
G1 X82.4840 Y107.1660 E0.5516
G1 X85.9610 Y106.0360 E0.7354
G1 X88.1100 Y108.9940 E0.9193
G1 X88.7030 Y108.9940 F11000 ; custom feedrate
G92 E0.0000
G1 X86.1440 Y112.5160 E0.2189 F3960 ; custom feedrate
G1 X82.0040 Y111.1710 E0.4379
G1 X82.0040 Y106.8170 E0.6568
G1 X86.1440 Y105.4720 E0.8757
G1 X88.7030 Y108.9940 E1.0947
G92 E0.0000
G1 E-5 F2400 ; custom retraction - A
;zhop1
G1 X132.4830 Y108.9940 F11000 ; custom feedrate
G1 Z3.640 F1200
G1 E0 F2400 ; custom un-retraction/prime - A
G92 E0.0000
G1 X134.2220 Y106.6010 E0.1488 F5280 ; custom feedrate
G1 X137.0360 Y107.5150 E0.2976
G1 X137.0360 Y110.4730 E0.4464
G1 X134.2220 Y111.3880 E0.5951
G1 X132.4830 Y108.9940 E0.7439
G1 X131.8900 Y108.9940 F11000 ; custom feedrate
G92 E0.0000
G1 X134.0390 Y106.0360 E0.1839 F5280 ; custom feedrate
G1 X137.5160 Y107.1660 E0.3677
G1 X137.5160 Y110.8220 E0.5516
G1 X134.0390 Y111.9520 E0.7354
G1 X131.8900 Y108.9940 E0.9193
G1 X131.2970 Y108.9940 F11000 ; custom feedrate
G92 E0.0000
G1 X133.8560 Y105.4720 E0.2189 F3960 ; custom feedrate
G1 X137.9960 Y106.8170 E0.4379
G1 X137.9960 Y111.1710 E0.6568
G1 X133.8560 Y112.5160 E0.8757
G1 X131.2970 Y108.9940 E1.0947
G92 E0.0000
G1 E-5 F2400 ; custom retraction - A
;layer 14, Z = 3.920
;fan14;
G1 Z3.920 F1200
G1 X132.4830 Y108.9940 F11000 ; custom feedrate
G1 E0 F2400 ; custom un-retraction/prime - A
G92 E0.0000
G1 X134.2220 Y106.6010 E0.1488 F5280 ; custom feedrate
G1 X137.0360 Y107.5150 E0.2976
G1 X137.0360 Y110.4730 E0.4464
G1 X134.2220 Y111.3880 E0.5951
G1 X132.4830 Y108.9940 E0.7439
G1 X131.8900 Y108.9940 F11000 ; custom feedrate
G92 E0.0000
G1 X134.0390 Y106.0360 E0.1839 F5280 ; custom feedrate
G1 X137.5160 Y107.1660 E0.3677
G1 X137.5160 Y110.8220 E0.5516
G1 X134.0390 Y111.9520 E0.7354
G1 X131.8900 Y108.9940 E0.9193
G1 X131.2970 Y108.9940 F11000 ; custom feedrate
G92 E0.0000
G1 X133.8560 Y105.4720 E0.2189 F3960 ; custom feedrate
G1 X137.9960 Y106.8170 E0.4379
G1 X137.9960 Y111.1710 E0.6568
G1 X133.8560 Y112.5160 E0.8757
G1 X131.2970 Y108.9940 E1.0947
G92 E0.0000
G1 E-5 F2400 ; custom retraction - A
;zhop1
G1 X87.5170 Y108.9940 F11000 ; custom feedrate
G1 Z3.920 F1200
G1 E0 F2400 ; custom un-retraction/prime - A
G92 E0.0000
G1 X85.7780 Y111.3880 E0.1488 F5280 ; custom feedrate
G1 X82.9640 Y110.4730 E0.2976
G1 X82.9640 Y107.5150 E0.4464
G1 X85.7780 Y106.6010 E0.5951
G1 X87.5170 Y108.9940 E0.7439
G1 X88.1100 Y108.9940 F11000 ; custom feedrate
G92 E0.0000
G1 X85.9610 Y111.9520 E0.1839 F5280 ; custom feedrate
G1 X82.4840 Y110.8220 E0.3677
G1 X82.4840 Y107.1660 E0.5516
G1 X85.9610 Y106.0360 E0.7354
G1 X88.1100 Y108.9940 E0.9193
G1 X88.7030 Y108.9940 F11000 ; custom feedrate
G92 E0.0000
G1 X86.1440 Y112.5160 E0.2189 F3960 ; custom feedrate
G1 X82.0040 Y111.1710 E0.4379
G1 X82.0040 Y106.8170 E0.6568
G1 X86.1440 Y105.4720 E0.8757
G1 X88.7030 Y108.9940 E1.0947
G92 E0.0000
G1 E-5 F2400 ; custom retraction - A
;layer 15, Z = 4.200
;fan15;
G1 Z4.200 F1200
G1 X87.5170 Y108.9940 F11000 ; custom feedrate
G1 E0 F2400 ; custom un-retraction/prime - A
G92 E0.0000
G1 X85.7780 Y111.3880 E0.1488 F5280 ; custom feedrate
G1 X82.9640 Y110.4730 E0.2976
G1 X82.9640 Y107.5150 E0.4464
G1 X85.7780 Y106.6010 E0.5951
G1 X87.5170 Y108.9940 E0.7439
G1 X88.1100 Y108.9940 F11000 ; custom feedrate
G92 E0.0000
G1 X85.9610 Y111.9520 E0.1839 F5280 ; custom feedrate
G1 X82.4840 Y110.8220 E0.3677
G1 X82.4840 Y107.1660 E0.5516
G1 X85.9610 Y106.0360 E0.7354
G1 X88.1100 Y108.9940 E0.9193
G1 X88.7030 Y108.9940 F11000 ; custom feedrate
G92 E0.0000
G1 X86.1440 Y112.5160 E0.2189 F3960 ; custom feedrate
G1 X82.0040 Y111.1710 E0.4379
G1 X82.0040 Y106.8170 E0.6568
G1 X86.1440 Y105.4720 E0.8757
G1 X88.7030 Y108.9940 E1.0947
G92 E0.0000
G1 E-5 F2400 ; custom retraction - A
;zhop1
G1 X132.4830 Y108.9940 F11000 ; custom feedrate
G1 Z4.200 F1200
G1 E0 F2400 ; custom un-retraction/prime - A
G92 E0.0000
G1 X134.2220 Y106.6010 E0.1488 F5280 ; custom feedrate
G1 X137.0360 Y107.5150 E0.2976
G1 X137.0360 Y110.4730 E0.4464
G1 X134.2220 Y111.3880 E0.5951
G1 X132.4830 Y108.9940 E0.7439
G1 X131.8900 Y108.9940 F11000 ; custom feedrate
G92 E0.0000
G1 X134.0390 Y106.0360 E0.1839 F5280 ; custom feedrate
G1 X137.5160 Y107.1660 E0.3677
G1 X137.5160 Y110.8220 E0.5516
G1 X134.0390 Y111.9520 E0.7354
G1 X131.8900 Y108.9940 E0.9193
G1 X131.2970 Y108.9940 F11000 ; custom feedrate
G92 E0.0000
G1 X133.8560 Y105.4720 E0.2189 F3960 ; custom feedrate
G1 X137.9960 Y106.8170 E0.4379
G1 X137.9960 Y111.1710 E0.6568
G1 X133.8560 Y112.5160 E0.8757
G1 X131.2970 Y108.9940 E1.0947
G92 E0.0000
G1 E-5 F2400 ; custom retraction - A
;layer 16, Z = 4.480
;fan16;
G1 Z4.480 F1200
G1 X132.4830 Y108.9940 F11000 ; custom feedrate
G1 E0 F2400 ; custom un-retraction/prime - A
G92 E0.0000
G1 X134.2220 Y106.6010 E0.1488 F5280 ; custom feedrate
G1 X137.0360 Y107.5150 E0.2976
G1 X137.0360 Y110.4730 E0.4464
G1 X134.2220 Y111.3880 E0.5951
G1 X132.4830 Y108.9940 E0.7439
G1 X131.8900 Y108.9940 F11000 ; custom feedrate
G92 E0.0000
G1 X134.0390 Y106.0360 E0.1839 F5280 ; custom feedrate
G1 X137.5160 Y107.1660 E0.3677
G1 X137.5160 Y110.8220 E0.5516
G1 X134.0390 Y111.9520 E0.7354
G1 X131.8900 Y108.9940 E0.9193
G1 X131.2970 Y108.9940 F11000 ; custom feedrate
G92 E0.0000
G1 X133.8560 Y105.4720 E0.2189 F3960 ; custom feedrate
G1 X137.9960 Y106.8170 E0.4379
G1 X137.9960 Y111.1710 E0.6568
G1 X133.8560 Y112.5160 E0.8757
G1 X131.2970 Y108.9940 E1.0947
G92 E0.0000
G1 E-5 F2400 ; custom retraction - A
;zhop1
G1 X87.5170 Y108.9940 F11000 ; custom feedrate
G1 Z4.480 F1200
G1 E0 F2400 ; custom un-retraction/prime - A
G92 E0.0000
G1 X85.7780 Y111.3880 E0.1488 F5280 ; custom feedrate
G1 X82.9640 Y110.4730 E0.2976
G1 X82.9640 Y107.5150 E0.4464
G1 X85.7780 Y106.6010 E0.5951
G1 X87.5170 Y108.9940 E0.7439
G1 X88.1100 Y108.9940 F11000 ; custom feedrate
G92 E0.0000
G1 X85.9610 Y111.9520 E0.1839 F5280 ; custom feedrate
G1 X82.4840 Y110.8220 E0.3677
G1 X82.4840 Y107.1660 E0.5516
G1 X85.9610 Y106.0360 E0.7354
G1 X88.1100 Y108.9940 E0.9193
G1 X88.7030 Y108.9940 F11000 ; custom feedrate
G92 E0.0000
G1 X86.1440 Y112.5160 E0.2189 F3960 ; custom feedrate
G1 X82.0040 Y111.1710 E0.4379
G1 X82.0040 Y106.8170 E0.6568
G1 X86.1440 Y105.4720 E0.8757
G1 X88.7030 Y108.9940 E1.0947
G92 E0.0000
G1 E-5 F2400 ; custom retraction - A
;layer 17, Z = 4.760
;fan17;
G1 Z4.760 F1200
G1 X87.5170 Y108.9940 F11000 ; custom feedrate
G1 E0 F2400 ; custom un-retraction/prime - A
G92 E0.0000
G1 X85.7780 Y111.3880 E0.1488 F5280 ; custom feedrate
G1 X82.9640 Y110.4730 E0.2976
G1 X82.9640 Y107.5150 E0.4464
G1 X85.7780 Y106.6010 E0.5951
G1 X87.5170 Y108.9940 E0.7439
G1 X88.1100 Y108.9940 F11000 ; custom feedrate
G92 E0.0000
G1 X85.9610 Y111.9520 E0.1839 F5280 ; custom feedrate
G1 X82.4840 Y110.8220 E0.3677
G1 X82.4840 Y107.1660 E0.5516
G1 X85.9610 Y106.0360 E0.7354
G1 X88.1100 Y108.9940 E0.9193
G1 X88.7030 Y108.9940 F11000 ; custom feedrate
G92 E0.0000
G1 X86.1440 Y112.5160 E0.2189 F3960 ; custom feedrate
G1 X82.0040 Y111.1710 E0.4379
G1 X82.0040 Y106.8170 E0.6568
G1 X86.1440 Y105.4720 E0.8757
G1 X88.7030 Y108.9940 E1.0947
G92 E0.0000
G1 E-5 F2400 ; custom retraction - A
;zhop1
G1 X132.4830 Y108.9940 F11000 ; custom feedrate
G1 Z4.760 F1200
G1 E0 F2400 ; custom un-retraction/prime - A
G92 E0.0000
G1 X134.2220 Y106.6010 E0.1488 F5280 ; custom feedrate
G1 X137.0360 Y107.5150 E0.2976
G1 X137.0360 Y110.4730 E0.4464
G1 X134.2220 Y111.3880 E0.5951
G1 X132.4830 Y108.9940 E0.7439
G1 X131.8900 Y108.9940 F11000 ; custom feedrate
G92 E0.0000
G1 X134.0390 Y106.0360 E0.1839 F5280 ; custom feedrate
G1 X137.5160 Y107.1660 E0.3677
G1 X137.5160 Y110.8220 E0.5516
G1 X134.0390 Y111.9520 E0.7354
G1 X131.8900 Y108.9940 E0.9193
G1 X131.2970 Y108.9940 F11000 ; custom feedrate
G92 E0.0000
G1 X133.8560 Y105.4720 E0.2189 F3960 ; custom feedrate
G1 X137.9960 Y106.8170 E0.4379
G1 X137.9960 Y111.1710 E0.6568
G1 X133.8560 Y112.5160 E0.8757
G1 X131.2970 Y108.9940 E1.0947
G92 E0.0000
G1 E-5 F2400 ; custom retraction - A
;layer 18, Z = 5.040
;fan18;
G1 Z5.040 F1200
G1 X132.4830 Y108.9940 F11000 ; custom feedrate
G1 E0 F2400 ; custom un-retraction/prime - A
G92 E0.0000
G1 X134.2220 Y106.6010 E0.1488 F5280 ; custom feedrate
G1 X137.0360 Y107.5150 E0.2976
G1 X137.0360 Y110.4730 E0.4464
G1 X134.2220 Y111.3880 E0.5951
G1 X132.4830 Y108.9940 E0.7439
G1 X131.8900 Y108.9940 F11000 ; custom feedrate
G92 E0.0000
G1 X134.0390 Y106.0360 E0.1839 F5280 ; custom feedrate
G1 X137.5160 Y107.1660 E0.3677
G1 X137.5160 Y110.8220 E0.5516
G1 X134.0390 Y111.9520 E0.7354
G1 X131.8900 Y108.9940 E0.9193
G1 X131.2970 Y108.9940 F11000 ; custom feedrate
G92 E0.0000
G1 X133.8560 Y105.4720 E0.2189 F3960 ; custom feedrate
G1 X137.9960 Y106.8170 E0.4379
G1 X137.9960 Y111.1710 E0.6568
G1 X133.8560 Y112.5160 E0.8757
G1 X131.2970 Y108.9940 E1.0947
G92 E0.0000
G1 E-5 F2400 ; custom retraction - A
;zhop1
G1 X87.5170 Y108.9940 F11000 ; custom feedrate
G1 Z5.040 F1200
G1 E0 F2400 ; custom un-retraction/prime - A
G92 E0.0000
G1 X85.7780 Y111.3880 E0.1488 F5280 ; custom feedrate
G1 X82.9640 Y110.4730 E0.2976
G1 X82.9640 Y107.5150 E0.4464
G1 X85.7780 Y106.6010 E0.5951
G1 X87.5170 Y108.9940 E0.7439
G1 X88.1100 Y108.9940 F11000 ; custom feedrate
G92 E0.0000
G1 X85.9610 Y111.9520 E0.1839 F5280 ; custom feedrate
G1 X82.4840 Y110.8220 E0.3677
G1 X82.4840 Y107.1660 E0.5516
G1 X85.9610 Y106.0360 E0.7354
G1 X88.1100 Y108.9940 E0.9193
G1 X88.7030 Y108.9940 F11000 ; custom feedrate
G92 E0.0000
G1 X86.1440 Y112.5160 E0.2189 F3960 ; custom feedrate
G1 X82.0040 Y111.1710 E0.4379
G1 X82.0040 Y106.8170 E0.6568
G1 X86.1440 Y105.4720 E0.8757
G1 X88.7030 Y108.9940 E1.0947
G92 E0.0000
G1 E-5 F2400 ; custom retraction - A
;process Process-3
;layer 19, Z = 5.320
;fan19;
G1 Z5.320 F1200
G1 X87.1210 Y108.9940 F11000 ; custom feedrate
G1 E0 F2400 ; custom un-retraction/prime - A
G92 E0.0000
G1 X85.6550 Y111.0120 E0.1254 F5280 ; custom feedrate
G1 X83.2840 Y110.2410 E0.2508
G1 X83.2840 Y107.7470 E0.3762
G1 X85.6550 Y106.9770 E0.5016
G1 X87.1210 Y108.9940 E0.6270
G1 X87.7140 Y108.9940 F11000 ; custom feedrate
G92 E0.0000
G1 X85.8390 Y111.5760 E0.1605 F5280 ; custom feedrate
G1 X82.8040 Y110.5900 E0.3210
G1 X82.8040 Y107.3990 E0.4814
G1 X85.8390 Y106.4130 E0.6419
G1 X87.7140 Y108.9940 E0.8024
G1 X88.3080 Y108.9940 F11000 ; custom feedrate
G92 E0.0000
G1 X86.0220 Y112.1400 E0.1956 F3960 ; custom feedrate
G1 X82.3240 Y110.9380 E0.3911
G1 X82.3240 Y107.0500 E0.5867
G1 X86.0220 Y105.8480 E0.7822
G1 X88.3080 Y108.9940 E0.9778
G92 E0.0000
G1 E-6 F2400 ; custom retraction - B
;zhop2
G1 X132.8790 Y108.9940 F11000 ; custom feedrate
G1 Z5.320 F1200
G1 E0 F2400 ; custom un-retraction/prime - B
G92 E0.0000
G1 X134.3450 Y106.9770 E0.1254 F5280 ; custom feedrate
G1 X136.7160 Y107.7470 E0.2508
G1 X136.7160 Y110.2410 E0.3762
G1 X134.3450 Y111.0120 E0.5016
G1 X132.8790 Y108.9940 E0.6270
G1 X132.2860 Y108.9940 F11000 ; custom feedrate
G92 E0.0000
G1 X134.1610 Y106.4130 E0.1605 F5280 ; custom feedrate
G1 X137.1960 Y107.3990 E0.3210
G1 X137.1960 Y110.5900 E0.4814
G1 X134.1610 Y111.5760 E0.6419
G1 X132.2860 Y108.9940 E0.8024
G1 X131.6920 Y108.9940 F11000 ; custom feedrate
G92 E0.0000
G1 X133.9780 Y105.8480 E0.1956 F3960 ; custom feedrate
G1 X137.6760 Y107.0500 E0.3911
G1 X137.6760 Y110.9380 E0.5867
G1 X133.9780 Y112.1400 E0.7822
G1 X131.6920 Y108.9940 E0.9778
G92 E0.0000
G1 E-6 F2400 ; custom retraction - B
;layer 20, Z = 5.600
;fan20;
G1 Z5.600 F1200
G1 X132.5330 Y108.9940 F11000 ; custom feedrate
G1 E0 F2400 ; custom un-retraction/prime - B
G92 E0.0000
G1 X134.2380 Y106.6480 E0.1459 F5280 ; custom feedrate
G1 X136.9960 Y107.5440 E0.2917
G1 X136.9960 Y110.4440 E0.4376
G1 X134.2380 Y111.3410 E0.5834
G1 X132.5330 Y108.9940 E0.7293
G1 X131.9390 Y108.9940 F11000 ; custom feedrate
G92 E0.0000
G1 X134.0540 Y106.0830 E0.1809 F5280 ; custom feedrate
G1 X137.4760 Y107.1950 E0.3619
G1 X137.4760 Y110.7930 E0.5428
G1 X134.0540 Y111.9050 E0.7238
G1 X131.9390 Y108.9940 E0.9047
G1 X131.3460 Y108.9940 F11000 ; custom feedrate
G92 E0.0000
G1 X133.8710 Y105.5190 E0.2160 F3960 ; custom feedrate
G1 X137.9560 Y106.8460 E0.4320
G1 X137.9560 Y111.1420 E0.6480
G1 X133.8710 Y112.4690 E0.8641
G1 X131.3460 Y108.9940 E1.0801
G92 E0.0000
G1 E-6 F2400 ; custom retraction - B
;zhop2
G1 X87.4670 Y108.9940 F11000 ; custom feedrate
G1 Z5.600 F1200
G1 E0 F2400 ; custom un-retraction/prime - B
G92 E0.0000
G1 X85.7620 Y111.3410 E0.1459 F5280 ; custom feedrate
G1 X83.0040 Y110.4440 E0.2917
G1 X83.0040 Y107.5440 E0.4376
G1 X85.7620 Y106.6480 E0.5834
G1 X87.4670 Y108.9940 E0.7293
G1 X88.0610 Y108.9940 F11000 ; custom feedrate
G92 E0.0000
G1 X85.9460 Y111.9050 E0.1809 F5280 ; custom feedrate
G1 X82.5240 Y110.7930 E0.3619
G1 X82.5240 Y107.1950 E0.5428
G1 X85.9460 Y106.0830 E0.7238
G1 X88.0610 Y108.9940 E0.9047
G1 X88.6540 Y108.9940 F11000 ; custom feedrate
G92 E0.0000
G1 X86.1290 Y112.4690 E0.2160 F3960 ; custom feedrate
G1 X82.0440 Y111.1420 E0.4320
G1 X82.0440 Y106.8460 E0.6480
G1 X86.1290 Y105.5190 E0.8641
G1 X88.6540 Y108.9940 E1.0801
G92 E0.0000
G1 E-6 F2400 ; custom retraction - B
;layer 21, Z = 5.880
;fan21;
G1 Z5.880 F1200
G1 X87.5170 Y108.9940 F11000 ; custom feedrate
G1 E0 F2400 ; custom un-retraction/prime - B
G92 E0.0000
G1 X85.7780 Y111.3880 E0.1488 F5280 ; custom feedrate
G1 X82.9640 Y110.4730 E0.2976
G1 X82.9640 Y107.5150 E0.4464
G1 X85.7780 Y106.6010 E0.5951
G1 X87.5170 Y108.9940 E0.7439
G1 X88.1100 Y108.9940 F11000 ; custom feedrate
G92 E0.0000
G1 X85.9610 Y111.9520 E0.1839 F5280 ; custom feedrate
G1 X82.4840 Y110.8220 E0.3677
G1 X82.4840 Y107.1660 E0.5516
G1 X85.9610 Y106.0360 E0.7354
G1 X88.1100 Y108.9940 E0.9193
G1 X88.7030 Y108.9940 F11000 ; custom feedrate
G92 E0.0000
G1 X86.1440 Y112.5160 E0.2189 F3960 ; custom feedrate
G1 X82.0040 Y111.1710 E0.4379
G1 X82.0040 Y106.8170 E0.6568
G1 X86.1440 Y105.4720 E0.8757
G1 X88.7030 Y108.9940 E1.0947
G92 E0.0000
G1 E-6 F2400 ; custom retraction - B
;zhop2
G1 X132.4830 Y108.9940 F11000 ; custom feedrate
G1 Z5.880 F1200
G1 E0 F2400 ; custom un-retraction/prime - B
G92 E0.0000
G1 X134.2220 Y106.6010 E0.1488 F5280 ; custom feedrate
G1 X137.0360 Y107.5150 E0.2976
G1 X137.0360 Y110.4730 E0.4464
G1 X134.2220 Y111.3880 E0.5951
G1 X132.4830 Y108.9940 E0.7439
G1 X131.8900 Y108.9940 F11000 ; custom feedrate
G92 E0.0000
G1 X134.0390 Y106.0360 E0.1839 F5280 ; custom feedrate
G1 X137.5160 Y107.1660 E0.3677
G1 X137.5160 Y110.8220 E0.5516
G1 X134.0390 Y111.9520 E0.7354
G1 X131.8900 Y108.9940 E0.9193
G1 X131.2970 Y108.9940 F11000 ; custom feedrate
G92 E0.0000
G1 X133.8560 Y105.4720 E0.2189 F3960 ; custom feedrate
G1 X137.9960 Y106.8170 E0.4379
G1 X137.9960 Y111.1710 E0.6568
G1 X133.8560 Y112.5160 E0.8757
G1 X131.2970 Y108.9940 E1.0947
G92 E0.0000
G1 E-6 F2400 ; custom retraction - B
;layer 22, Z = 6.160
;fan22;
G1 Z6.160 F1200
G1 X132.4830 Y108.9940 F11000 ; custom feedrate
G1 E0 F2400 ; custom un-retraction/prime - B
G92 E0.0000
G1 X134.2220 Y106.6010 E0.1488 F5280 ; custom feedrate
G1 X137.0360 Y107.5150 E0.2976
G1 X137.0360 Y110.4730 E0.4464
G1 X134.2220 Y111.3880 E0.5951
G1 X132.4830 Y108.9940 E0.7439
G1 X131.8900 Y108.9940 F11000 ; custom feedrate
G92 E0.0000
G1 X134.0390 Y106.0360 E0.1839 F5280 ; custom feedrate
G1 X137.5160 Y107.1660 E0.3677
G1 X137.5160 Y110.8220 E0.5516
G1 X134.0390 Y111.9520 E0.7354
G1 X131.8900 Y108.9940 E0.9193
G1 X131.2970 Y108.9940 F11000 ; custom feedrate
G92 E0.0000
G1 X133.8560 Y105.4720 E0.2189 F3960 ; custom feedrate
G1 X137.9960 Y106.8170 E0.4379
G1 X137.9960 Y111.1710 E0.6568
G1 X133.8560 Y112.5160 E0.8757
G1 X131.2970 Y108.9940 E1.0947
G92 E0.0000
G1 E-6 F2400 ; custom retraction - B
;zhop2
G1 X87.5170 Y108.9940 F11000 ; custom feedrate
G1 Z6.160 F1200
G1 E0 F2400 ; custom un-retraction/prime - B
G92 E0.0000
G1 X85.7780 Y111.3880 E0.1488 F5280 ; custom feedrate
G1 X82.9640 Y110.4730 E0.2976
G1 X82.9640 Y107.5150 E0.4464
G1 X85.7780 Y106.6010 E0.5951
G1 X87.5170 Y108.9940 E0.7439
G1 X88.1100 Y108.9940 F11000 ; custom feedrate
G92 E0.0000
G1 X85.9610 Y111.9520 E0.1839 F5280 ; custom feedrate
G1 X82.4840 Y110.8220 E0.3677
G1 X82.4840 Y107.1660 E0.5516
G1 X85.9610 Y106.0360 E0.7354
G1 X88.1100 Y108.9940 E0.9193
G1 X88.7030 Y108.9940 F11000 ; custom feedrate
G92 E0.0000
G1 X86.1440 Y112.5160 E0.2189 F3960 ; custom feedrate
G1 X82.0040 Y111.1710 E0.4379
G1 X82.0040 Y106.8170 E0.6568
G1 X86.1440 Y105.4720 E0.8757
G1 X88.7030 Y108.9940 E1.0947
G92 E0.0000
G1 E-6 F2400 ; custom retraction - B
;layer 23, Z = 6.440
;fan23;
G1 Z6.440 F1200
G1 X87.5170 Y108.9940 F11000 ; custom feedrate
G1 E0 F2400 ; custom un-retraction/prime - B
G92 E0.0000
G1 X85.7780 Y111.3880 E0.1488 F5280 ; custom feedrate
G1 X82.9640 Y110.4730 E0.2976
G1 X82.9640 Y107.5150 E0.4464
G1 X85.7780 Y106.6010 E0.5951
G1 X87.5170 Y108.9940 E0.7439
G1 X88.1100 Y108.9940 F11000 ; custom feedrate
G92 E0.0000
G1 X85.9610 Y111.9520 E0.1839 F5280 ; custom feedrate
G1 X82.4840 Y110.8220 E0.3677
G1 X82.4840 Y107.1660 E0.5516
G1 X85.9610 Y106.0360 E0.7354
G1 X88.1100 Y108.9940 E0.9193
G1 X88.7030 Y108.9940 F11000 ; custom feedrate
G92 E0.0000
G1 X86.1440 Y112.5160 E0.2189 F3960 ; custom feedrate
G1 X82.0040 Y111.1710 E0.4379
G1 X82.0040 Y106.8170 E0.6568
G1 X86.1440 Y105.4720 E0.8757
G1 X88.7030 Y108.9940 E1.0947
G92 E0.0000
G1 E-6 F2400 ; custom retraction - B
;zhop2
G1 X132.4830 Y108.9940 F11000 ; custom feedrate
G1 Z6.440 F1200
G1 E0 F2400 ; custom un-retraction/prime - B
G92 E0.0000
G1 X134.2220 Y106.6010 E0.1488 F5280 ; custom feedrate
G1 X137.0360 Y107.5150 E0.2976
G1 X137.0360 Y110.4730 E0.4464
G1 X134.2220 Y111.3880 E0.5951
G1 X132.4830 Y108.9940 E0.7439
G1 X131.8900 Y108.9940 F11000 ; custom feedrate
G92 E0.0000
G1 X134.0390 Y106.0360 E0.1839 F5280 ; custom feedrate
G1 X137.5160 Y107.1660 E0.3677
G1 X137.5160 Y110.8220 E0.5516
G1 X134.0390 Y111.9520 E0.7354
G1 X131.8900 Y108.9940 E0.9193
G1 X131.2970 Y108.9940 F11000 ; custom feedrate
G92 E0.0000
G1 X133.8560 Y105.4720 E0.2189 F3960 ; custom feedrate
G1 X137.9960 Y106.8170 E0.4379
G1 X137.9960 Y111.1710 E0.6568
G1 X133.8560 Y112.5160 E0.8757
G1 X131.2970 Y108.9940 E1.0947
G92 E0.0000
G1 E-6 F2400 ; custom retraction - B
;layer 24, Z = 6.720
;fan24;
G1 Z6.720 F1200
G1 X132.4830 Y108.9940 F11000 ; custom feedrate
G1 E0 F2400 ; custom un-retraction/prime - B
G92 E0.0000
G1 X134.2220 Y106.6010 E0.1488 F5280 ; custom feedrate
G1 X137.0360 Y107.5150 E0.2976
G1 X137.0360 Y110.4730 E0.4464
G1 X134.2220 Y111.3880 E0.5951
G1 X132.4830 Y108.9940 E0.7439
G1 X131.8900 Y108.9940 F11000 ; custom feedrate
G92 E0.0000
G1 X134.0390 Y106.0360 E0.1839 F5280 ; custom feedrate
G1 X137.5160 Y107.1660 E0.3677
G1 X137.5160 Y110.8220 E0.5516
G1 X134.0390 Y111.9520 E0.7354
G1 X131.8900 Y108.9940 E0.9193
G1 X131.2970 Y108.9940 F11000 ; custom feedrate
G92 E0.0000
G1 X133.8560 Y105.4720 E0.2189 F3960 ; custom feedrate
G1 X137.9960 Y106.8170 E0.4379
G1 X137.9960 Y111.1710 E0.6568
G1 X133.8560 Y112.5160 E0.8757
G1 X131.2970 Y108.9940 E1.0947
G92 E0.0000
G1 E-6 F2400 ; custom retraction - B
;zhop2
G1 X87.5170 Y108.9940 F11000 ; custom feedrate
G1 Z6.720 F1200
G1 E0 F2400 ; custom un-retraction/prime - B
G92 E0.0000
G1 X85.7780 Y111.3880 E0.1488 F5280 ; custom feedrate
G1 X82.9640 Y110.4730 E0.2976
G1 X82.9640 Y107.5150 E0.4464
G1 X85.7780 Y106.6010 E0.5951
G1 X87.5170 Y108.9940 E0.7439
G1 X88.1100 Y108.9940 F11000 ; custom feedrate
G92 E0.0000
G1 X85.9610 Y111.9520 E0.1839 F5280 ; custom feedrate
G1 X82.4840 Y110.8220 E0.3677
G1 X82.4840 Y107.1660 E0.5516
G1 X85.9610 Y106.0360 E0.7354
G1 X88.1100 Y108.9940 E0.9193
G1 X88.7030 Y108.9940 F11000 ; custom feedrate
G92 E0.0000
G1 X86.1440 Y112.5160 E0.2189 F3960 ; custom feedrate
G1 X82.0040 Y111.1710 E0.4379
G1 X82.0040 Y106.8170 E0.6568
G1 X86.1440 Y105.4720 E0.8757
G1 X88.7030 Y108.9940 E1.0947
G92 E0.0000
G1 E-6 F2400 ; custom retraction - B
;layer 25, Z = 7.000
;fan25;
G1 Z7.000 F1200
G1 X87.5170 Y108.9940 F11000 ; custom feedrate
G1 E0 F2400 ; custom un-retraction/prime - B
G92 E0.0000
G1 X85.7780 Y111.3880 E0.1488 F5280 ; custom feedrate
G1 X82.9640 Y110.4730 E0.2976
G1 X82.9640 Y107.5150 E0.4464
G1 X85.7780 Y106.6010 E0.5951
G1 X87.5170 Y108.9940 E0.7439
G1 X88.1100 Y108.9940 F11000 ; custom feedrate
G92 E0.0000
G1 X85.9610 Y111.9520 E0.1839 F5280 ; custom feedrate
G1 X82.4840 Y110.8220 E0.3677
G1 X82.4840 Y107.1660 E0.5516
G1 X85.9610 Y106.0360 E0.7354
G1 X88.1100 Y108.9940 E0.9193
G1 X88.7030 Y108.9940 F11000 ; custom feedrate
G92 E0.0000
G1 X86.1440 Y112.5160 E0.2189 F3960 ; custom feedrate
G1 X82.0040 Y111.1710 E0.4379
G1 X82.0040 Y106.8170 E0.6568
G1 X86.1440 Y105.4720 E0.8757
G1 X88.7030 Y108.9940 E1.0947
G92 E0.0000
G1 E-6 F2400 ; custom retraction - B
;zhop2
G1 X132.4830 Y108.9940 F11000 ; custom feedrate
G1 Z7.000 F1200
G1 E0 F2400 ; custom un-retraction/prime - B
G92 E0.0000
G1 X134.2220 Y106.6010 E0.1488 F5280 ; custom feedrate
G1 X137.0360 Y107.5150 E0.2976
G1 X137.0360 Y110.4730 E0.4464
G1 X134.2220 Y111.3880 E0.5951
G1 X132.4830 Y108.9940 E0.7439
G1 X131.8900 Y108.9940 F11000 ; custom feedrate
G92 E0.0000
G1 X134.0390 Y106.0360 E0.1839 F5280 ; custom feedrate
G1 X137.5160 Y107.1660 E0.3677
G1 X137.5160 Y110.8220 E0.5516
G1 X134.0390 Y111.9520 E0.7354
G1 X131.8900 Y108.9940 E0.9193
G1 X131.2970 Y108.9940 F11000 ; custom feedrate
G92 E0.0000
G1 X133.8560 Y105.4720 E0.2189 F3960 ; custom feedrate
G1 X137.9960 Y106.8170 E0.4379
G1 X137.9960 Y111.1710 E0.6568
G1 X133.8560 Y112.5160 E0.8757
G1 X131.2970 Y108.9940 E1.0947
G92 E0.0000
G1 E-6 F2400 ; custom retraction - B
;layer 26, Z = 7.280
;fan26;
G1 Z7.280 F1200
G1 X132.4830 Y108.9940 F11000 ; custom feedrate
G1 E0 F2400 ; custom un-retraction/prime - B
G92 E0.0000
G1 X134.2220 Y106.6010 E0.1488 F5280 ; custom feedrate
G1 X137.0360 Y107.5150 E0.2976
G1 X137.0360 Y110.4730 E0.4464
G1 X134.2220 Y111.3880 E0.5951
G1 X132.4830 Y108.9940 E0.7439
G1 X131.8900 Y108.9940 F11000 ; custom feedrate
G92 E0.0000
G1 X134.0390 Y106.0360 E0.1839 F5280 ; custom feedrate
G1 X137.5160 Y107.1660 E0.3677
G1 X137.5160 Y110.8220 E0.5516
G1 X134.0390 Y111.9520 E0.7354
G1 X131.8900 Y108.9940 E0.9193
G1 X131.2970 Y108.9940 F11000 ; custom feedrate
G92 E0.0000
G1 X133.8560 Y105.4720 E0.2189 F3960 ; custom feedrate
G1 X137.9960 Y106.8170 E0.4379
G1 X137.9960 Y111.1710 E0.6568
G1 X133.8560 Y112.5160 E0.8757
G1 X131.2970 Y108.9940 E1.0947
G92 E0.0000
G1 E-6 F2400 ; custom retraction - B
;zhop2
G1 X87.5170 Y108.9940 F11000 ; custom feedrate
G1 Z7.280 F1200
G1 E0 F2400 ; custom un-retraction/prime - B
G92 E0.0000
G1 X85.7780 Y111.3880 E0.1488 F5280 ; custom feedrate
G1 X82.9640 Y110.4730 E0.2976
G1 X82.9640 Y107.5150 E0.4464
G1 X85.7780 Y106.6010 E0.5951
G1 X87.5170 Y108.9940 E0.7439
G1 X88.1100 Y108.9940 F11000 ; custom feedrate
G92 E0.0000
G1 X85.9610 Y111.9520 E0.1839 F5280 ; custom feedrate
G1 X82.4840 Y110.8220 E0.3677
G1 X82.4840 Y107.1660 E0.5516
G1 X85.9610 Y106.0360 E0.7354
G1 X88.1100 Y108.9940 E0.9193
G1 X88.7030 Y108.9940 F11000 ; custom feedrate
G92 E0.0000
G1 X86.1440 Y112.5160 E0.2189 F3960 ; custom feedrate
G1 X82.0040 Y111.1710 E0.4379
G1 X82.0040 Y106.8170 E0.6568
G1 X86.1440 Y105.4720 E0.8757
G1 X88.7030 Y108.9940 E1.0947
G92 E0.0000
G1 E-6 F2400 ; custom retraction - B
;layer 27, Z = 7.560
;fan27;
G1 Z7.560 F1200
G1 X87.5170 Y108.9940 F11000 ; custom feedrate
G1 E0 F2400 ; custom un-retraction/prime - B
G92 E0.0000
G1 X85.7780 Y111.3880 E0.1488 F5280 ; custom feedrate
G1 X82.9640 Y110.4730 E0.2976
G1 X82.9640 Y107.5150 E0.4464
G1 X85.7780 Y106.6010 E0.5951
G1 X87.5170 Y108.9940 E0.7439
G1 X88.1100 Y108.9940 F11000 ; custom feedrate
G92 E0.0000
G1 X85.9610 Y111.9520 E0.1839 F5280 ; custom feedrate
G1 X82.4840 Y110.8220 E0.3677
G1 X82.4840 Y107.1660 E0.5516
G1 X85.9610 Y106.0360 E0.7354
G1 X88.1100 Y108.9940 E0.9193
G1 X88.7030 Y108.9940 F11000 ; custom feedrate
G92 E0.0000
G1 X86.1440 Y112.5160 E0.2189 F3960 ; custom feedrate
G1 X82.0040 Y111.1710 E0.4379
