;FLAVOR:Marlin
;TIME:4496
;Filament used: 3.81346m
;Layer height: 0.28
;MINX:81.15
;MINY:81.15
;MINZ:0.28
;MAXX:153.85
;MAXY:153.85
;MAXZ:56.28
;TARGET_MACHINE.NAME:Creality Ender-3
;MKSPREVIEWPROCESSED
; Postprocessed by [MKS WiFi plugin](https://github.com/PrintMakerLab/mks-wifi-plugin)
; simage=0
; gimage=0
;POSTPROCESSED
;  [BrickLayers]
;Generated with Cura_SteamEngine 5.8.1
M140 S50
M105
M190 S50
M104 S240
M105
M109 S240
M82 ;absolute extrusion mode
; Ender 3 Custom Start G-code
G92 E0 ; Reset Extruder
G28 ; Home all axes
G1 Z2.0 F3000 ; Move Z Axis up little to prevent scratching of Heat Bed
G1 X0.1 Y20 Z0.3 F5000.0 ; Move to start position
G1 X0.1 Y200.0 Z0.3 F1500.0 E15 ; Draw the first line
G1 X0.4 Y200.0 Z0.3 F5000.0 ; Move to side a little
G1 X0.4 Y20 Z0.3 F1500.0 E30 ; Draw the second line
G92 E0 ; Reset Extruder
G1 Z2.0 F3000 ; Move Z Axis up little to prevent scratching of Heat Bed
G1 X5 Y20 Z0.3 F5000.0 ; Move over to prevent blob squish
G92 E0
G92 E0
G1 F2700 E-6
;LAYER_COUNT:201
;LAYER:0
M107
M204 S500
M205 X5 Y5
G0 F7500 X84.703 Y84.27 Z0.28
M205 X8 Y8
;TYPE:SKIRT
G1 F2700 E0
G1 F1500 X85.457 Y83.617 E0.05659
G1 X86.188 Y83.082 E0.10798
G1 X87.087 Y82.539 E0.16756
G1 X87.942 Y82.119 E0.22161
G1 X88.967 Y81.727 E0.28387
G1 X89.839 Y81.479 E0.3353
G1 X90.932 Y81.271 E0.39842
G1 X92.197 Y81.163 E0.47045
G1 X92.806 Y81.15 E0.50501
G1 X141.807 Y81.15 E3.28496
G1 X142.702 Y81.163 E3.33574
G1 X143.607 Y81.216 E3.38717
G1 X144.692 Y81.376 E3.4494
G1 X145.665 Y81.613 E3.50621
G1 X146.524 Y81.901 E3.55761
G1 X147.485 Y82.319 E3.61706
G1 X148.365 Y82.799 E3.67393
G1 X149.16 Y83.327 E3.72808
G1 X150.014 Y84.012 E3.79019
G1 X150.668 Y84.639 E3.84159
G1 X151.391 Y85.466 E3.90391
G1 X151.924 Y86.198 E3.95528
G1 X152.466 Y87.097 E4.01483
G1 X152.923 Y88.041 E4.07433
G1 X153.276 Y88.977 E4.13108
G1 X153.547 Y89.942 E4.18795
G1 X153.716 Y90.832 E4.23934
G1 X153.837 Y92.198 E4.31714
G1 X153.85 Y92.83 E4.35301
G1 X153.849 Y141.905 E7.13716
G1 X153.838 Y142.678 E7.18102
G1 X153.787 Y143.583 E7.23244
G1 X153.638 Y144.621 E7.29194
G1 X153.42 Y145.549 E7.34602
G1 X153.073 Y146.591 E7.40832
G1 X152.692 Y147.465 E7.46242
G1 X152.214 Y148.346 E7.51928
G1 X151.688 Y149.142 E7.57341
G1 X151.004 Y149.997 E7.63553
G1 X150.378 Y150.653 E7.68697
G1 X149.552 Y151.377 E7.74928
G1 X148.781 Y151.938 E7.80338
G1 X147.968 Y152.432 E7.85735
G1 X146.982 Y152.914 E7.91961
G1 X146.136 Y153.239 E7.97103
G1 X145.174 Y153.518 E8.02785
G1 X144.08 Y153.728 E8.09105
G1 X142.802 Y153.837 E8.16382
G1 X142.17 Y153.85 E8.19968
G1 X93.061 Y153.849 E10.98577
G1 X92.315 Y153.838 E11.02809
G1 X91.41 Y153.786 E11.07952
G1 X90.372 Y153.636 E11.13902
G1 X89.352 Y153.392 E11.19852
G1 X88.492 Y153.105 E11.24996
G1 X87.486 Y152.668 E11.31218
G1 X86.609 Y152.186 E11.36896
G1 X85.854 Y151.685 E11.42036
G1 X85.071 Y151.063 E11.47709
G1 X84.277 Y150.303 E11.53945
G1 X83.621 Y149.549 E11.59615
G1 X83.059 Y148.777 E11.65032
G1 X82.542 Y147.919 E11.70715
G1 X82.102 Y147.019 E11.76399
G1 X81.759 Y146.131 E11.81799
G1 X81.458 Y145.073 E11.8804
G1 X81.279 Y144.128 E11.93497
G1 X81.163 Y142.791 E12.0111
G1 X81.15 Y142.158 E12.04702
G1 X81.151 Y93.02 E14.83475
G1 X81.162 Y92.308 E14.87515
G1 X81.214 Y91.403 E14.92658
G1 X81.365 Y90.365 E14.98608
G1 X81.61 Y89.344 E15.04565
G1 X81.931 Y88.396 E15.10243
G1 X82.313 Y87.523 E15.1565
G1 X82.768 Y86.685 E15.21059
G1 X83.348 Y85.81 E15.27015
G1 X83.944 Y85.064 E15.32432
G1 X84.703 Y84.27 E15.38664
M205 X5 Y5
G0 F7500 X85.057 Y84.678
M205 X8 Y8
G1 F1500 X85.776 Y84.053 E15.44069
G1 X86.507 Y83.518 E15.49208
G1 X87.325 Y83.024 E15.54629
G1 X88.18 Y82.604 E15.60033
G1 X89.115 Y82.246 E15.65713
G1 X89.987 Y81.998 E15.70857
G1 X90.978 Y81.809 E15.7658
G1 X92.209 Y81.703 E15.8359
G1 X92.818 Y81.69 E15.87046
G1 X141.8 Y81.69 E18.64933
G1 X142.67 Y81.702 E18.6987
G1 X143.575 Y81.755 E18.75013
G1 X144.565 Y81.901 E18.8069
G1 X145.493 Y82.125 E18.86106
G1 X146.352 Y82.413 E18.91246
G1 X147.226 Y82.793 E18.96653
G1 X148.106 Y83.273 E19.0234
G1 X148.86 Y83.776 E19.07482
G1 X149.64 Y84.402 E19.13156
G1 X150.294 Y85.029 E19.18296
G1 X150.954 Y85.784 E19.23985
G1 X151.487 Y86.516 E19.29122
G1 X151.98 Y87.333 E19.34536
G1 X152.418 Y88.233 E19.40214
G1 X152.756 Y89.124 E19.45621
G1 X153.016 Y90.043 E19.51039
G1 X153.185 Y90.933 E19.56178
G1 X153.297 Y92.209 E19.63445
G1 X153.31 Y92.83 E19.66969
G1 X153.309 Y141.898 E22.45345
G1 X153.299 Y142.648 E22.496
G1 X153.248 Y143.553 E22.54743
G1 X153.112 Y144.498 E22.60159
G1 X152.894 Y145.426 E22.65567
G1 X152.578 Y146.376 E22.71247
G1 X152.217 Y147.207 E22.76387
G1 X151.739 Y148.088 E22.82074
G1 X151.238 Y148.843 E22.87214
G1 X150.613 Y149.624 E22.92889
G1 X149.987 Y150.28 E22.98034
G1 X149.234 Y150.94 E23.03714
G1 X148.463 Y151.501 E23.09124
G1 X147.688 Y151.97 E23.14263
G1 X146.788 Y152.41 E23.19946
G1 X145.942 Y152.735 E23.25088
G1 X145.025 Y152.999 E23.30502
G1 X144.034 Y153.19 E23.36227
G1 X142.791 Y153.297 E23.43305
G1 X142.17 Y153.31 E23.46829
G1 X93.068 Y153.309 E26.25398
G1 X92.346 Y153.299 E26.29494
G1 X91.441 Y153.247 E26.34637
G1 X90.497 Y153.111 E26.40048
G1 X89.523 Y152.88 E26.45727
G1 X88.663 Y152.593 E26.5087
G1 X87.745 Y152.194 E26.56549
G1 X86.908 Y151.736 E26.61962
G1 X86.153 Y151.235 E26.67103
G1 X85.408 Y150.641 E26.72508
G1 X84.684 Y149.948 E26.78194
G1 X84.057 Y149.23 E26.83602
G1 X83.522 Y148.498 E26.88746
G1 X83.005 Y147.64 E26.94429
G1 X82.588 Y146.783 E26.99836
G1 X82.263 Y145.937 E27.04977
G1 X81.989 Y144.973 E27.10663
G1 X81.81 Y144.028 E27.16119
G1 X81.703 Y142.78 E27.23226
G1 X81.69 Y142.158 E27.26755
G1 X81.691 Y93.028 E30.05483
G1 X81.701 Y92.339 E30.09392
G1 X81.753 Y91.434 E30.14535
G1 X81.89 Y90.49 E30.19946
G1 X82.122 Y89.516 E30.25627
G1 X82.426 Y88.612 E30.31038
G1 X82.788 Y87.781 E30.3618
G1 X83.243 Y86.943 E30.4159
G1 X83.798 Y86.109 E30.47273
G1 X84.365 Y85.402 E30.52415
G1 X85.057 Y84.678 E30.58097
M205 X5 Y5
G0 F7500 X85.412 Y85.085
M205 X8 Y8
G1 F1500 X86.095 Y84.489 E30.63239
G1 X86.826 Y83.954 E30.68379
G1 X87.603 Y83.487 E30.73522
G1 X88.417 Y83.089 E30.78662
G1 X89.263 Y82.765 E30.83802
G1 X90.135 Y82.517 E30.88945
G1 X91.025 Y82.347 E30.94085
G1 X92.221 Y82.243 E31.00896
G1 X92.83 Y82.23 E31.04352
G1 X141.793 Y82.23 E33.82132
G1 X142.638 Y82.241 E33.86926
G1 X143.543 Y82.294 E33.92069
G1 X144.439 Y82.426 E33.97208
G1 X145.321 Y82.637 E34.02353
G1 X146.18 Y82.925 E34.07493
G1 X147.01 Y83.288 E34.12632
G1 X147.806 Y83.722 E34.17776
G1 X148.56 Y84.225 E34.22918
G1 X149.266 Y84.792 E34.28055
G1 X149.92 Y85.419 E34.33195
G1 X150.517 Y86.102 E34.38341
G1 X151.05 Y86.834 E34.43478
G1 X151.517 Y87.611 E34.48621
G1 X151.914 Y88.426 E34.53764
G1 X152.237 Y89.272 E34.58902
G1 X152.485 Y90.144 E34.64045
G1 X152.654 Y91.034 E34.69185
G1 X152.757 Y92.221 E34.75944
G1 X152.77 Y92.83 E34.794
G1 X152.769 Y141.891 E37.57736
G1 X152.76 Y142.618 E37.61861
G1 X152.709 Y143.523 E37.67003
G1 X152.578 Y144.42 E37.72146
G1 X152.369 Y145.301 E37.77283
G1 X152.083 Y146.161 E37.82425
G1 X151.722 Y146.992 E37.87565
G1 X151.289 Y147.789 E37.92711
G1 X150.788 Y148.544 E37.97851
G1 X150.222 Y149.251 E38.02989
G1 X149.596 Y149.907 E38.08133
G1 X148.915 Y150.504 E38.13271
G1 X148.183 Y151.039 E38.18415
G1 X147.408 Y151.508 E38.23554
G1 X146.594 Y151.906 E38.28695
G1 X145.748 Y152.231 E38.33836
G1 X144.877 Y152.48 E38.38976
G1 X143.987 Y152.652 E38.44118
G1 X142.779 Y152.757 E38.50998
G1 X142.17 Y152.77 E38.54453
G1 X93.075 Y152.769 E41.32982
G1 X92.377 Y152.76 E41.36943
G1 X91.472 Y152.708 E41.42085
G1 X90.575 Y152.577 E41.47228
G1 X89.694 Y152.368 E41.52365
G1 X88.834 Y152.081 E41.57509
G1 X88.003 Y151.72 E41.62649
G1 X87.207 Y151.286 E41.67792
G1 X86.452 Y150.785 E41.72933
G1 X85.745 Y150.219 E41.78071
G1 X85.09 Y149.592 E41.83215
G1 X84.493 Y148.911 E41.88353
G1 X83.958 Y148.179 E41.93497
G1 X83.49 Y147.403 E41.98638
G1 X83.092 Y146.589 E42.03778
G1 X82.767 Y145.743 E42.0892
G1 X82.519 Y144.871 E42.14063
G1 X82.348 Y143.981 E42.19205
G1 X82.243 Y142.768 E42.26112
G1 X82.23 Y142.158 E42.29573
G1 X82.231 Y93.035 E45.08261
G1 X82.24 Y92.37 E45.12034
G1 X82.292 Y91.465 E45.17177
G1 X82.424 Y90.569 E45.22315
G1 X82.634 Y89.687 E45.27459
G1 X82.921 Y88.828 E45.32597
G1 X83.283 Y87.997 E45.37739
G1 X83.717 Y87.201 E45.42883
G1 X84.219 Y86.447 E45.48022
G1 X84.786 Y85.74 E45.53163
G1 X85.412 Y85.085 E45.58304
M205 X5 Y5
G1 F2700 E39.58304
;MESH:AIl_In_One_3D_printer_test_micro.stl
G0 F7500 X93.07 Y91.96
G0 X93.07 Y93.07
G0 X93.736 Y141.26
G0 X141.45 Y141.532
G0 X141.532 Y141.532
M205 X8 Y8
;TYPE:WALL-INNER
G1 F2700 E45.58304
G1 F1500 X141.532 Y93.464 E48.61306
G1 X93.464 Y93.464 E51.64309
G1 X93.464 Y141.532 E54.67312
G1 X141.532 Y141.532 E57.70315
M205 X5 Y5
G0 F7500 X142.102 Y142.102
M205 X8 Y8
;TYPE:WALL-OUTER
G1 F1500 X142.102 Y92.894 E60.49485
G1 X92.894 Y92.894 E63.28655
G1 X92.894 Y142.102 E66.07825
G1 X142.102 Y142.102 E68.86995
M205 X5 Y5
G0 F7500 X142.102 Y141.902
G0 X141.48 Y141.48
G0 X141.332 Y141.102
G0 X141.102 Y141.102
M205 X8 Y8
;TYPE:SKIN
G1 F1500 X93.89 Y141.102 E71.54841
G1 X93.89 Y93.89 E74.22687
G1 X141.102 Y93.89 E76.90533
G1 X141.102 Y141.102 E79.58379
M205 X5 Y5
G1 F2700 E73.58379
G0 F7500 X141.332 Y141.102
G0 X141.26 Y93.736
G0 X140.562 Y93.664
G0 X140.562 Y94.43
M205 X8 Y8
G1 F2700 E79.58379
G1 F1500 X140.25 Y94.43 E79.60149
G1 X140.562 Y94.742 E79.62653
G1 X140.562 Y95.505 E79.66981
G1 X139.487 Y94.43 E79.75606
G1 X138.723 Y94.43 E79.79941
G1 X140.562 Y96.269 E79.94695
G1 X140.562 Y97.033 E79.9903
G1 X137.959 Y94.43 E80.19914
G1 X137.196 Y94.43 E80.24243
G1 X140.562 Y97.796 E80.51249
G1 X140.562 Y98.56 E80.55583
G1 X136.432 Y94.43 E80.88719
G1 X135.668 Y94.43 E80.93053
G1 X140.562 Y99.324 E81.32319
G1 X140.562 Y100.087 E81.36648
G1 X134.905 Y94.43 E81.82035
G1 X134.141 Y94.43 E81.86369
G1 X140.562 Y100.851 E82.37886
G1 X140.562 Y101.615 E82.42221
G1 X133.377 Y94.43 E82.99868
G1 X132.614 Y94.43 E83.04196
G1 X140.562 Y102.378 E83.67965
G1 X140.562 Y103.142 E83.72299
G1 X131.85 Y94.43 E84.42197
G1 X131.086 Y94.43 E84.46532
G1 X140.562 Y103.906 E85.2256
G1 X140.562 Y104.669 E85.26888
G1 X130.323 Y94.43 E86.09038
G1 X129.559 Y94.43 E86.13372
G1 X140.562 Y105.433 E87.01652
G1 X140.562 Y106.197 E87.05986
G1 X128.795 Y94.43 E88.00395
G1 X128.032 Y94.43 E88.04724
G1 X140.562 Y106.961 E89.05259
G1 X140.562 Y107.724 E89.09587
G1 X127.268 Y94.43 E90.16248
G1 X126.504 Y94.43 E90.20582
G1 X140.562 Y108.488 E91.33372
G1 X140.562 Y109.252 E91.37707
G1 X125.741 Y94.43 E92.56623
G1 X124.977 Y94.43 E92.60957
G1 X140.562 Y110.015 E93.85999
G1 X140.562 Y110.779 E93.90333
G1 X124.213 Y94.43 E95.21505
G1 X123.45 Y94.43 E95.25833
G1 X140.562 Y111.543 E96.6313
G1 X140.562 Y112.306 E96.67459
G1 X122.686 Y94.43 E98.10882
G1 X121.922 Y94.43 E98.15216
G1 X140.562 Y113.07 E99.64769
G1 X140.562 Y113.834 E99.69103
G1 X121.159 Y94.43 E101.24782
G1 X120.395 Y94.43 E101.29116
G1 X140.562 Y114.597 E102.9092
G1 X140.562 Y115.361 E102.95254
G1 X119.631 Y94.43 E104.63188
G1 X118.867 Y94.43 E104.67522
G1 X140.562 Y116.125 E106.41586
G1 X140.562 Y116.888 E106.45915
G1 X118.104 Y94.43 E108.261
G1 X117.34 Y94.43 E108.30434
G1 X140.562 Y117.652 E110.16749
G1 X140.562 Y118.416 E110.21084
G1 X116.576 Y94.43 E112.13528
G1 X115.813 Y94.43 E112.17857
G1 X140.562 Y119.179 E114.16423
G1 X140.562 Y119.943 E114.20758
G1 X115.049 Y94.43 E116.25454
G1 X114.285 Y94.43 E116.29788
G1 X140.562 Y120.707 E118.40614
G1 X140.562 Y121.47 E118.44943
G1 X113.522 Y94.43 E120.6189
G1 X112.758 Y94.43 E120.66225
G1 X140.562 Y122.234 E122.89302
G1 X140.562 Y122.998 E122.93636
G1 X111.994 Y94.43 E125.22843
G1 X111.231 Y94.43 E125.27172
G1 X140.562 Y123.761 E127.62501
G1 X140.562 Y124.525 E127.66835
G1 X110.467 Y94.43 E130.08293
G1 X109.703 Y94.43 E130.12628
G1 X140.562 Y125.289 E132.60216
G1 X140.562 Y126.052 E132.64545
G1 X108.94 Y94.43 E135.18254
G1 X108.176 Y94.43 E135.22589
G1 X140.562 Y126.816 E137.82428
G1 X140.562 Y127.58 E137.86763
G1 X107.412 Y94.43 E140.52732
G1 X106.649 Y94.43 E140.57061
G1 X140.562 Y128.343 E143.29152
G1 X140.562 Y129.107 E143.33486
G1 X105.885 Y94.43 E146.11707
G1 X105.121 Y94.43 E146.16041
G1 X140.562 Y129.871 E149.00392
G1 X140.562 Y130.634 E149.04721
G1 X104.358 Y94.43 E151.95193
G1 X103.594 Y94.43 E151.99527
G1 X140.562 Y131.398 E154.96129
G1 X140.562 Y132.162 E155.00463
G1 X102.83 Y94.43 E158.03195
G1 X102.067 Y94.43 E158.07524
G1 X140.562 Y132.925 E161.16377
G1 X140.562 Y133.689 E161.20712
G1 X101.303 Y94.43 E164.35695
G1 X100.539 Y94.43 E164.40029
G1 X140.562 Y134.453 E167.61142
G1 X140.562 Y135.216 E167.65471
G1 X99.776 Y94.43 E170.92705
G1 X99.012 Y94.43 E170.97039
G1 X140.562 Y135.98 E174.30404
G1 X140.562 Y136.744 E174.34738
G1 X98.248 Y94.43 E177.74232
G1 X97.485 Y94.43 E177.78561
G1 X140.562 Y137.508 E181.24181
G1 X140.562 Y138.271 E181.28509
G1 X96.721 Y94.43 E184.80255
G1 X95.957 Y94.43 E184.84589
G1 X140.562 Y139.035 E188.42464
G1 X140.562 Y139.799 E188.46799
G1 X95.194 Y94.43 E192.10799
G1 X94.43 Y94.43 E192.15134
G1 X140.562 Y140.562 E195.8526
G1 X139.798 Y140.562 E195.89595
G1 X94.43 Y95.194 E199.53592
G1 X94.43 Y95.957 E199.5792
G1 X139.034 Y140.562 E203.15792
G1 X138.27 Y140.562 E203.20126
G1 X94.43 Y96.721 E206.71867
G1 X94.43 Y97.485 E206.76202
G1 X137.507 Y140.562 E210.21817
G1 X136.743 Y140.562 E210.26152
G1 X94.43 Y98.248 E213.65642
G1 X94.43 Y99.012 E213.69976
G1 X135.979 Y140.562 E217.03336
G1 X135.216 Y140.562 E217.07665
G1 X94.43 Y99.776 E220.349
G1 X94.43 Y100.539 E220.39228
G1 X134.452 Y140.562 E223.60337
G1 X133.688 Y140.562 E223.64672
G1 X94.43 Y101.303 E226.79651
G1 X94.43 Y102.067 E226.83985
G1 X132.925 Y140.562 E229.92838
G1 X132.161 Y140.562 E229.97173
G1 X94.43 Y102.83 E232.999
G1 X94.43 Y103.594 E233.04235
G1 X131.397 Y140.562 E236.00833
G1 X130.634 Y140.562 E236.05161
G1 X94.43 Y104.358 E238.95634
G1 X94.43 Y105.121 E238.99962
G1 X129.87 Y140.562 E241.84309
G1 X129.106 Y140.562 E241.88643
G1 X94.43 Y105.885 E244.6686
G1 X94.43 Y106.649 E244.71194
G1 X128.343 Y140.562 E247.43285
G1 X127.579 Y140.562 E247.4762
G1 X94.43 Y107.412 E250.13585
G1 X94.43 Y108.176 E250.17919
G1 X126.815 Y140.562 E252.77755
G1 X126.052 Y140.562 E252.82084
G1 X94.43 Y108.94 E255.35794
G1 X94.43 Y109.703 E255.40122
G1 X125.288 Y140.562 E257.87706
G1 X124.524 Y140.562 E257.92041
G1 X94.43 Y110.467 E260.33495
G1 X94.43 Y111.231 E260.3783
G1 X123.761 Y140.562 E262.73158
G1 X122.997 Y140.562 E262.77493
G1 X94.43 Y111.994 E265.06696
G1 X94.43 Y112.758 E265.1103
G1 X122.233 Y140.562 E267.34103
G1 X121.47 Y140.562 E267.38432
G1 X94.43 Y113.522 E269.55379
G1 X94.43 Y114.285 E269.59708
G1 X120.706 Y140.562 E271.7053
G1 X119.942 Y140.562 E271.74864
G1 X94.43 Y115.049 E273.79556
G1 X94.43 Y115.813 E273.83891
G1 X119.179 Y140.562 E275.82457
G1 X118.415 Y140.562 E275.86792
G1 X94.43 Y116.576 E277.79232
G1 X94.43 Y117.34 E277.83567
G1 X117.651 Y140.562 E279.69877
G1 X116.888 Y140.562 E279.74206
G1 X94.43 Y118.104 E281.54391
G1 X94.43 Y118.867 E281.5872
G1 X116.124 Y140.562 E283.3278
G1 X115.36 Y140.562 E283.37114
G1 X94.43 Y119.631 E285.05044
G1 X94.43 Y120.395 E285.09378
G1 X114.597 Y140.562 E286.71182
G1 X113.833 Y140.562 E286.75516
G1 X94.43 Y121.159 E288.31191
G1 X94.43 Y121.922 E288.35519
G1 X113.069 Y140.562 E289.85068
G1 X112.306 Y140.562 E289.89397
G1 X94.43 Y122.686 E291.3282
G1 X94.43 Y123.45 E291.37154
G1 X111.542 Y140.562 E292.74447
G1 X110.778 Y140.562 E292.78781
G1 X94.43 Y124.213 E294.09949
G1 X94.43 Y124.977 E294.14283
G1 X110.015 Y140.562 E295.39325
G1 X109.251 Y140.562 E295.43659
G1 X94.43 Y125.741 E296.62571
