; G-Code originally generated by Simplify3D(R) Version 4.1.2
; This calibration test gcode modified by the Teaching Tech Calibration website: https://teachingtechyt.github.io/calibration.html
;M80 ; power supply on
G90
M82
M106 S0
M140 S80 ; custom bed temp
M190 S80 ; custom bed temp
M104 S185 T0 ; custom hot end temp minus 50 degrees
G28 ; home all axes
G29 ; probe ABL
;M420 S1 ; restore ABL mesh
M109 S235 T0 ; custom hot end temp 
;customstart
G0 Z3; fix for delta printers that home at max
;process Process-1
;layer 1, Z = 0.280
T0
G92 E0.0000
G1 E-6 F2400 ; custom retraction
;fan1;
G1 Z0.280 F1200
G1 X81.3780 Y102.5720 F11000 ; custom feedrate
G1 E0 F2400 ; custom un-retraction/prime
G92 E0.0000
G1 X82.4300 Y102.1360 E0.0688 F3300 ; custom feedrate
G1 X137.5700 Y102.1360 E3.3963
G1 X138.6220 Y102.5720 E3.4650
G1 X142.4280 Y106.3780 E3.7898
G1 X142.8640 Y107.4300 E3.8586
G1 X142.8640 Y112.5700 E4.1687
G1 X142.4280 Y113.6220 E4.2375
G1 X138.6220 Y117.4280 E4.5623
G1 X137.5700 Y117.8640 E4.6310
G1 X82.4300 Y117.8640 E7.9585
G1 X81.3780 Y117.4280 E8.0273
G1 X77.5720 Y113.6220 E8.3521
G1 X77.1360 Y112.5700 E8.4208
G1 X77.1360 Y107.4300 E8.7310
G1 X77.5720 Y106.3780 E8.7997
G1 X81.3780 Y102.5720 E9.1245
G92 E0.0000
G1 E-6 F2400 ; custom retraction
;zhop1
G1 X81.7040 Y103.0600 F11000 ; custom feedrate
G1 Z0.280 F1200
G1 E0 F2400 ; custom un-retraction/prime
G92 E0.0000
G1 X82.5450 Y102.7120 E0.0549 F3300 ; custom feedrate
G1 X137.4550 Y102.7120 E3.3686
G1 X138.2960 Y103.0600 E3.4235
G1 X141.9400 Y106.7040 E3.7345
G1 X142.2880 Y107.5450 E3.7894
G1 X142.2880 Y112.4550 E4.0857
G1 X141.9400 Y113.2960 E4.1407
G1 X138.2960 Y116.9400 E4.4516
G1 X137.4550 Y117.2880 E4.5066
G1 X82.5450 Y117.2880 E7.8202
G1 X81.7040 Y116.9400 E7.8752
G1 X78.0600 Y113.2960 E8.1861
G1 X77.7120 Y112.4550 E8.2411
G1 X77.7120 Y107.5450 E8.5374
G1 X78.0600 Y106.7040 E8.5923
G1 X81.7040 Y103.0600 E8.9033
G92 E0.0000
G1 E-6 F2400 ; custom retraction
;zhop1
G1 X83.1190 Y105.2880 F11000 ; custom feedrate
G1 X83.0120 Y105.3960
G1 X83.5960 Y106.4400
G1 Z0.280 F1200
G1 E0 F2400 ; custom un-retraction/prime
G92 E0.0000
G1 X136.4040 Y106.4400 E3.1868 F2640 ; custom feedrate
G1 X138.5600 Y108.5960 E3.3708
G1 X138.5600 Y111.4040 E3.5402
G1 X136.4040 Y113.5600 E3.7242
G1 X83.5960 Y113.5600 E6.9110
G1 X81.4400 Y111.4040 E7.0950
G1 X81.4400 Y108.5960 E7.2644
G1 X83.5960 Y106.4400 E7.4485
G1 X83.3580 Y105.8640 F11000 ; custom feedrate
G92 E0.0000
G1 X136.6420 Y105.8640 E3.2156 F2640 ; custom feedrate
G1 X139.1360 Y108.3580 E3.4284
G1 X139.1360 Y111.6420 E3.6266
G1 X136.6420 Y114.1360 E3.8394
G1 X83.3580 Y114.1360 E7.0550
G1 X80.8640 Y111.6420 E7.2678
G1 X80.8640 Y108.3580 E7.4660
G1 X83.3580 Y105.8640 E7.6788
G1 X83.1190 Y105.2880 F11000 ; custom feedrate
G92 E0.0000
G1 X136.8810 Y105.2880 E3.2443 F1980 ; custom feedrate
G1 X139.7120 Y108.1190 E3.4860
G1 X139.7120 Y111.8810 E3.7130
G1 X136.8810 Y114.7120 E3.9546
G1 X83.1190 Y114.7120 E7.1990
G1 X80.2880 Y111.8810 E7.4406
G1 X80.2880 Y108.1190 E7.6676
G1 X83.1190 Y105.2880 E7.9092
G1 X83.8890 Y113.2140 F11000 ; custom feedrate
G92 E0.0000
G1 X81.7860 Y111.1110 E0.1795 F2640 ; custom feedrate
G1 X81.7860 Y110.2960 E0.2287
G1 X84.7040 Y113.2140 E0.4778
G1 X85.5180 Y113.2140 E0.5269
G1 X81.7860 Y109.4820 E0.8455
G1 X81.7860 Y108.7400 E0.8903
G1 X81.8220 Y108.7030 E0.8934
G1 X86.3330 Y113.2140 E1.2784
G1 X87.1480 Y113.2140 E1.3275
G1 X82.2290 Y108.2960 E1.7473
G1 X82.6370 Y107.8890 E1.7820
G1 X87.9620 Y113.2140 E2.2365
G1 X88.7770 Y113.2140 E2.2857
G1 X83.0440 Y107.4810 E2.7750
G1 X83.4510 Y107.0740 E2.8097
G1 X89.5910 Y113.2140 E3.3338
G1 X90.4060 Y113.2140 E3.3829
G1 X83.9770 Y106.7860 E3.9316
G1 X84.7920 Y106.7860 E3.9807
G1 X91.2210 Y113.2140 E4.5294
G1 X92.0350 Y113.2140 E4.5786
G1 X85.6060 Y106.7860 E5.1272
G1 X86.4210 Y106.7860 E5.1764
G1 X92.8500 Y113.2140 E5.7250
G1 X93.6640 Y113.2140 E5.7742
G1 X87.2360 Y106.7860 E6.3229
G1 X88.0500 Y106.7860 E6.3720
G1 X94.4790 Y113.2140 E6.9207
G1 X95.2930 Y113.2140 E6.9698
G1 X88.8650 Y106.7860 E7.5185
G1 X89.6790 Y106.7860 E7.5676
G1 X96.1080 Y113.2140 E8.1163
G1 X96.9230 Y113.2140 E8.1655
G1 X90.4940 Y106.7860 E8.7141
G1 X91.3080 Y106.7860 E8.7633
G1 X97.7370 Y113.2140 E9.3119
G1 X98.5520 Y113.2140 E9.3611
G1 X92.1230 Y106.7860 E9.9098
G1 X92.9380 Y106.7860 E9.9589
G1 X99.3660 Y113.2140 E10.5076
G1 X100.1810 Y113.2140 E10.5567
G1 X93.7520 Y106.7860 E11.1054
G1 X94.5670 Y106.7860 E11.1545
G1 X100.9960 Y113.2140 E11.7032
G1 X101.8100 Y113.2140 E11.7524
G1 X95.3810 Y106.7860 E12.3010
G1 X96.1960 Y106.7860 E12.3502
G1 X102.6250 Y113.2140 E12.8988
G1 X103.4390 Y113.2140 E12.9480
G1 X97.0110 Y106.7860 E13.4966
G1 X97.8250 Y106.7860 E13.5458
G1 X104.2540 Y113.2140 E14.0945
G1 X105.0690 Y113.2140 E14.1436
G1 X98.6400 Y106.7860 E14.6923
G1 X99.4540 Y106.7860 E14.7414
G1 X105.8830 Y113.2140 E15.2901
G1 X106.6980 Y113.2140 E15.3393
G1 X100.2690 Y106.7860 E15.8879
G1 X101.0840 Y106.7860 E15.9371
G1 X107.5120 Y113.2140 E16.4857
G1 X108.3270 Y113.2140 E16.5349
G1 X101.8980 Y106.7860 E17.0835
G1 X102.7130 Y106.7860 E17.1327
G1 X109.1410 Y113.2140 E17.6814
G1 X109.9560 Y113.2140 E17.7305
G1 X103.5270 Y106.7860 E18.2792
G1 X104.3420 Y106.7860 E18.3283
G1 X110.7710 Y113.2140 E18.8770
G1 X111.5850 Y113.2140 E18.9262
G1 X105.1560 Y106.7860 E19.4748
G1 X105.9710 Y106.7860 E19.5240
G1 X112.4000 Y113.2140 E20.0726
G1 X113.2140 Y113.2140 E20.1218
G1 X106.7860 Y106.7860 E20.6704
G1 X107.6000 Y106.7860 E20.7196
G1 X114.0290 Y113.2140 E21.2683
G1 X114.8440 Y113.2140 E21.3174
G1 X108.4150 Y106.7860 E21.8661
G1 X109.2290 Y106.7860 E21.9152
G1 X115.6580 Y113.2140 E22.4639
G1 X116.4730 Y113.2140 E22.5131
G1 X110.0440 Y106.7860 E23.0617
G1 X110.8590 Y106.7860 E23.1109
G1 X117.2870 Y113.2140 E23.6595
G1 X118.1020 Y113.2140 E23.7087
G1 X111.6730 Y106.7860 E24.2573
G1 X112.4880 Y106.7860 E24.3065
G1 X118.9170 Y113.2140 E24.8552
G1 X119.7310 Y113.2140 E24.9043
G1 X113.3020 Y106.7860 E25.4530
G1 X114.1170 Y106.7860 E25.5021
G1 X120.5460 Y113.2140 E26.0508
G1 X121.3600 Y113.2140 E26.0999
G1 X114.9310 Y106.7860 E26.6486
G1 X115.7460 Y106.7860 E26.6978
G1 X122.1750 Y113.2140 E27.2464
G1 X122.9890 Y113.2140 E27.2956
G1 X116.5610 Y106.7860 E27.8442
G1 X117.3750 Y106.7860 E27.8934
G1 X123.8040 Y113.2140 E28.4421
G1 X124.6190 Y113.2140 E28.4912
G1 X118.1900 Y106.7860 E29.0399
G1 X119.0040 Y106.7860 E29.0890
G1 X125.4330 Y113.2140 E29.6377
G1 X126.2480 Y113.2140 E29.6868
G1 X119.8190 Y106.7860 E30.2355
G1 X120.6340 Y106.7860 E30.2847
G1 X127.0620 Y113.2140 E30.8333
G1 X127.8770 Y113.2140 E30.8825
G1 X121.4480 Y106.7860 E31.4311
G1 X122.2630 Y106.7860 E31.4803
G1 X128.6920 Y113.2140 E32.0290
G1 X129.5060 Y113.2140 E32.0781
G1 X123.0770 Y106.7860 E32.6268
G1 X123.8920 Y106.7860 E32.6759
G1 X130.3210 Y113.2140 E33.2246
G1 X131.1350 Y113.2140 E33.2737
G1 X124.7070 Y106.7860 E33.8224
G1 X125.5210 Y106.7860 E33.8716
G1 X131.9500 Y113.2140 E34.4202
G1 X132.7650 Y113.2140 E34.4694
G1 X126.3360 Y106.7860 E35.0180
G1 X127.1500 Y106.7860 E35.0672
G1 X133.5790 Y113.2140 E35.6159
G1 X134.3940 Y113.2140 E35.6650
G1 X127.9650 Y106.7860 E36.2137
G1 X128.7790 Y106.7860 E36.2628
G1 X135.2080 Y113.2140 E36.8115
G1 X136.0230 Y113.2140 E36.8606
G1 X129.5940 Y106.7860 E37.4093
G1 X130.4090 Y106.7860 E37.4585
G1 X136.5490 Y112.9260 E37.9825
G1 X136.9560 Y112.5190 E38.0173
G1 X131.2230 Y106.7860 E38.5065
G1 X132.0380 Y106.7860 E38.5557
G1 X137.3630 Y112.1110 E39.0102
G1 X137.7710 Y111.7040 E39.0450
G1 X132.8520 Y106.7860 E39.4647
G1 X133.6670 Y106.7860 E39.5139
G1 X138.1780 Y111.2970 E39.8989
G1 X138.2140 Y111.2600 E39.9020
G1 X138.2140 Y110.5180 E39.9467
G1 X134.4820 Y106.7860 E40.2653
G1 X135.2960 Y106.7860 E40.3145
G1 X138.2140 Y109.7040 E40.5635
G1 X138.2140 Y108.8890 E40.6127
G1 X136.1110 Y106.7860 E40.7922
G92 E0.0000
G1 E-6 F2400 ; custom retraction
M104 S205 T0 ; custom hot end temp - A
M106 S255; custom fan 100% from layer 2
G1 Z0.560 F1200
G1 X136.5030 Y106.2000 F11000 ; custom feedrate
G1 E0 F2400 ; custom un-retraction/prime
G92 E0.0000
G1 X138.8000 Y108.4970 E0.1634 F5280 ; custom feedrate
G1 X138.8000 Y111.5030 E0.3145
G1 X136.5030 Y113.8000 E0.4779
G1 X83.4970 Y113.8000 E3.1435
G1 X81.2000 Y111.5030 E3.3069
G1 X81.2000 Y108.4970 E3.4581
G1 X83.4970 Y106.2000 E3.6214
G1 X136.5030 Y106.2000 E6.2871
G1 X136.7020 Y105.7200 F11000 ; custom feedrate
G92 E0.0000
G1 X139.2800 Y108.2980 E0.1834 F5280 ; custom feedrate
G1 X139.2800 Y111.7020 E0.3545
G1 X136.7020 Y114.2800 E0.5379
G1 X83.2980 Y114.2800 E3.2235
G1 X80.7200 Y111.7020 E3.4069
G1 X80.7200 Y108.2980 E3.5780
G1 X83.2980 Y105.7200 E3.7614
G1 X136.7020 Y105.7200 E6.4470
G1 X136.9010 Y105.2400 F11000 ; custom feedrate
G92 E0.0000
G1 X139.7600 Y108.0990 E0.2034 F3960 ; custom feedrate
G1 X139.7600 Y111.9010 E0.3945
G1 X136.9010 Y114.7600 E0.5979
G1 X83.0990 Y114.7600 E3.3035
G1 X80.2400 Y111.9010 E3.5069
G1 X80.2400 Y108.0990 E3.6980
G1 X83.0990 Y105.2400 E3.9014
G1 X136.9010 Y105.2400 E6.6070
G1 X138.5120 Y111.3560 F11000 ; custom feedrate
G92 E0.0000
G1 X136.3560 Y113.5120 E0.1533 F5280 ; custom feedrate
G1 X135.6770 Y113.5120 E0.1875
G1 X138.5120 Y110.6770 E0.3891
G1 X138.5120 Y109.9990 E0.4232
G1 X134.9990 Y113.5120 E0.6731
G1 X134.3200 Y113.5120 E0.7072
G1 X138.5120 Y109.3200 E1.0054
G1 X138.5120 Y108.6410 E1.0395
G1 X133.6410 Y113.5120 E1.3859
G1 X132.9620 Y113.5120 E1.4201
G1 X138.1850 Y108.2890 E1.7915
G1 X137.8450 Y107.9500 E1.8156
G1 X132.2830 Y113.5120 E2.2112
G1 X131.6040 Y113.5120 E2.2454
G1 X137.5060 Y107.6100 E2.6651
G1 X137.1670 Y107.2710 E2.6892
G1 X130.9260 Y113.5120 E3.1331
G1 X130.2470 Y113.5120 E3.1672
G1 X136.8270 Y106.9320 E3.6352
G1 X136.4880 Y106.5920 E3.6593
G1 X129.5680 Y113.5120 E4.1515
G1 X128.8890 Y113.5120 E4.1856
G1 X135.9130 Y106.4880 E4.6852
G1 X135.2340 Y106.4880 E4.7193
G1 X128.2100 Y113.5120 E5.2189
G1 X127.5320 Y113.5120 E5.2530
G1 X134.5560 Y106.4880 E5.7525
G1 X133.8770 Y106.4880 E5.7867
G1 X126.8530 Y113.5120 E6.2862
G1 X126.1740 Y113.5120 E6.3204
G1 X133.1980 Y106.4880 E6.8199
G1 X132.5190 Y106.4880 E6.8540
G1 X125.4950 Y113.5120 E7.3536
G1 X124.8160 Y113.5120 E7.3877
G1 X131.8400 Y106.4880 E7.8873
G1 X131.1610 Y106.4880 E7.9214
G1 X124.1370 Y113.5120 E8.4210
G1 X123.4590 Y113.5120 E8.4551
G1 X130.4830 Y106.4880 E8.9546
G1 X129.8040 Y106.4880 E8.9888
G1 X122.7800 Y113.5120 E9.4883
G1 X122.1010 Y113.5120 E9.5225
G1 X129.1250 Y106.4880 E10.0220
G1 X128.4460 Y106.4880 E10.0561
G1 X121.4220 Y113.5120 E10.5557
G1 X120.7430 Y113.5120 E10.5898
G1 X127.7670 Y106.4880 E11.0894
G1 X127.0880 Y106.4880 E11.1235
G1 X120.0640 Y113.5120 E11.6231
G1 X119.3860 Y113.5120 E11.6572
G1 X126.4100 Y106.4880 E12.1567
G1 X125.7310 Y106.4880 E12.1909
G1 X118.7070 Y113.5120 E12.6904
G1 X118.0280 Y113.5120 E12.7246
G1 X125.0520 Y106.4880 E13.2241
G1 X124.3730 Y106.4880 E13.2582
G1 X117.3490 Y113.5120 E13.7578
G1 X116.6700 Y113.5120 E13.7919
G1 X123.6940 Y106.4880 E14.2915
G1 X123.0160 Y106.4880 E14.3256
G1 X115.9920 Y113.5120 E14.8252
G1 X115.3130 Y113.5120 E14.8593
G1 X122.3370 Y106.4880 E15.3588
G1 X121.6580 Y106.4880 E15.3930
G1 X114.6340 Y113.5120 E15.8925
G1 X113.9550 Y113.5120 E15.9267
G1 X120.9790 Y106.4880 E16.4262
G1 X120.3000 Y106.4880 E16.4603
G1 X113.2760 Y113.5120 E16.9599
G1 X112.5970 Y113.5120 E16.9940
G1 X119.6210 Y106.4880 E17.4936
G1 X118.9430 Y106.4880 E17.5277
G1 X111.9190 Y113.5120 E18.0273
G1 X111.2400 Y113.5120 E18.0614
G1 X118.2640 Y106.4880 E18.5609
G1 X117.5850 Y106.4880 E18.5951
G1 X110.5610 Y113.5120 E19.0946
G1 X109.8820 Y113.5120 E19.1288
G1 X116.9060 Y106.4880 E19.6283
G1 X116.2270 Y106.4880 E19.6624
G1 X109.2030 Y113.5120 E20.1620
G1 X108.5250 Y113.5120 E20.1961
G1 X115.5490 Y106.4880 E20.6957
G1 X114.8700 Y106.4880 E20.7298
G1 X107.8460 Y113.5120 E21.2294
G1 X107.1670 Y113.5120 E21.2635
G1 X114.1910 Y106.4880 E21.7630
G1 X113.5120 Y106.4880 E21.7972
G1 X106.4880 Y113.5120 E22.2967
G1 X105.8090 Y113.5120 E22.3309
G1 X112.8330 Y106.4880 E22.8304
G1 X112.1540 Y106.4880 E22.8645
G1 X105.1300 Y113.5120 E23.3641
G1 X104.4520 Y113.5120 E23.3982
G1 X111.4760 Y106.4880 E23.8978
G1 X110.7970 Y106.4880 E23.9319
G1 X103.7730 Y113.5120 E24.4315
G1 X103.0940 Y113.5120 E24.4656
G1 X110.1180 Y106.4880 E24.9651
G1 X109.4390 Y106.4880 E24.9993
G1 X102.4150 Y113.5120 E25.4988
G1 X101.7360 Y113.5120 E25.5330
G1 X108.7600 Y106.4880 E26.0325
G1 X108.0810 Y106.4880 E26.0666
G1 X101.0570 Y113.5120 E26.5662
G1 X100.3790 Y113.5120 E26.6003
G1 X107.4030 Y106.4880 E27.0999
G1 X106.7240 Y106.4880 E27.1340
G1 X99.7000 Y113.5120 E27.6336
G1 X99.0210 Y113.5120 E27.6677
G1 X106.0450 Y106.4880 E28.1672
G1 X105.3660 Y106.4880 E28.2014
G1 X98.3420 Y113.5120 E28.7009
G1 X97.6630 Y113.5120 E28.7351
G1 X104.6870 Y106.4880 E29.2346
G1 X104.0090 Y106.4880 E29.2687
G1 X96.9850 Y113.5120 E29.7683
G1 X96.3060 Y113.5120 E29.8024
G1 X103.3300 Y106.4880 E30.3020
G1 X102.6510 Y106.4880 E30.3361
G1 X95.6270 Y113.5120 E30.8357
G1 X94.9480 Y113.5120 E30.8698
G1 X101.9720 Y106.4880 E31.3693
G1 X101.2930 Y106.4880 E31.4035
G1 X94.2690 Y113.5120 E31.9030
G1 X93.5900 Y113.5120 E31.9372
G1 X100.6140 Y106.4880 E32.4367
G1 X99.9360 Y106.4880 E32.4708
G1 X92.9120 Y113.5120 E32.9704
G1 X92.2330 Y113.5120 E33.0045
G1 X99.2570 Y106.4880 E33.5041
G1 X98.5780 Y106.4880 E33.5382
G1 X91.5540 Y113.5120 E34.0378
G1 X90.8750 Y113.5120 E34.0719
G1 X97.8990 Y106.4880 E34.5714
G1 X97.2200 Y106.4880 E34.6056
G1 X90.1960 Y113.5120 E35.1051
G1 X89.5170 Y113.5120 E35.1393
G1 X96.5410 Y106.4880 E35.6388
G1 X95.8630 Y106.4880 E35.6729
G1 X88.8390 Y113.5120 E36.1725
G1 X88.1600 Y113.5120 E36.2066
G1 X95.1840 Y106.4880 E36.7062
G1 X94.5050 Y106.4880 E36.7403
G1 X87.4810 Y113.5120 E37.2399
G1 X86.8020 Y113.5120 E37.2740
G1 X93.8260 Y106.4880 E37.7735
G1 X93.1470 Y106.4880 E37.8077
G1 X86.1230 Y113.5120 E38.3072
G1 X85.4450 Y113.5120 E38.3414
G1 X92.4690 Y106.4880 E38.8409
G1 X91.7900 Y106.4880 E38.8750
G1 X84.7660 Y113.5120 E39.3746
G1 X84.0870 Y113.5120 E39.4087
G1 X91.1110 Y106.4880 E39.9083
G1 X90.4320 Y106.4880 E39.9424
G1 X83.5120 Y113.4080 E40.4345
G1 X83.1730 Y113.0680 E40.4587
G1 X89.7530 Y106.4880 E40.9267
G1 X89.0740 Y106.4880 E40.9608
G1 X82.8330 Y112.7290 E41.4047
G1 X82.4940 Y112.3900 E41.4288
G1 X88.3960 Y106.4880 E41.8485
G1 X87.7170 Y106.4880 E41.8827
G1 X82.1550 Y112.0500 E42.2783
G1 X81.8150 Y111.7110 E42.3024
G1 X87.0380 Y106.4880 E42.6738
G1 X86.3590 Y106.4880 E42.7080
G1 X81.4880 Y111.3590 E43.0544
G1 X81.4880 Y110.6800 E43.0886
G1 X85.6800 Y106.4880 E43.3867
G1 X85.0010 Y106.4880 E43.4209
G1 X81.4880 Y110.0010 E43.6707
G1 X81.4880 Y109.3230 E43.7049
G1 X84.3230 Y106.4880 E43.9065
G1 X83.6440 Y106.4880 E43.9406
G1 X81.4880 Y108.6440 E44.0939
G92 E0.0000
G1 E-6 F2400 ; custom retraction
;layer 3, Z = 0.840
;fan3;
G1 Z0.840 F1200
G1 X81.2000 Y108.4970 F11000 ; custom feedrate
G1 E0 F2400 ; custom un-retraction/prime
G92 E0.0000
G1 X83.4970 Y106.2000 E0.1634 F5280 ; custom feedrate
G1 X136.5030 Y106.2000 E2.8290
G1 X138.8000 Y108.4970 E2.9924
G1 X138.8000 Y111.5030 E3.1435
G1 X136.5030 Y113.8000 E3.3069
G1 X83.4970 Y113.8000 E5.9725
G1 X81.2000 Y111.5030 E6.1359
G1 X81.2000 Y108.4970 E6.2871
G1 X80.7200 Y108.2980 F11000 ; custom feedrate
G92 E0.0000
G1 X83.2980 Y105.7200 E0.1834 F5280 ; custom feedrate
G1 X136.7020 Y105.7200 E2.8690
G1 X139.2800 Y108.2980 E3.0524
G1 X139.2800 Y111.7020 E3.2235
G1 X136.7020 Y114.2800 E3.4069
G1 X83.2980 Y114.2800 E6.0925
G1 X80.7200 Y111.7020 E6.2759
G1 X80.7200 Y108.2980 E6.4470
G1 X80.2400 Y108.0990 F11000 ; custom feedrate
G92 E0.0000
G1 X83.0990 Y105.2400 E0.2034 F3960 ; custom feedrate
G1 X136.9010 Y105.2400 E2.9090
G1 X139.7600 Y108.0990 E3.1123
G1 X139.7600 Y111.9010 E3.3035
G1 X136.9010 Y114.7600 E3.5069
G1 X83.0990 Y114.7600 E6.2125
G1 X80.2400 Y111.9010 E6.4159
G1 X80.2400 Y108.0990 E6.6070
G1 X83.6440 Y113.5120 F11000 ; custom feedrate
G92 E0.0000
G1 X81.4880 Y111.3560 E0.1533 F5280 ; custom feedrate
G1 X81.4880 Y110.6770 E0.1875
G1 X84.3230 Y113.5120 E0.3891
G1 X85.0010 Y113.5120 E0.4232
G1 X81.4880 Y109.9990 E0.6731
G1 X81.4880 Y109.3200 E0.7072
G1 X85.6800 Y113.5120 E1.0054
G1 X86.3590 Y113.5120 E1.0395
G1 X81.4880 Y108.6410 E1.3859
G1 X81.4880 Y108.6160 E1.3872
G1 X81.8150 Y108.2890 E1.4104
G1 X87.0380 Y113.5120 E1.7819
G1 X87.7170 Y113.5120 E1.8160
G1 X82.1550 Y107.9500 E2.2116
G1 X82.4940 Y107.6100 E2.2357
G1 X88.3960 Y113.5120 E2.6555
G1 X89.0740 Y113.5120 E2.6896
G1 X82.8330 Y107.2710 E3.1335
G1 X83.1730 Y106.9320 E3.1576
G1 X89.7530 Y113.5120 E3.6256
G1 X90.4320 Y113.5120 E3.6597
G1 X83.5120 Y106.5920 E4.1519
G1 X83.6160 Y106.4880 E4.1593
G1 X84.0870 Y106.4880 E4.1829
G1 X91.1110 Y113.5120 E4.6825
G1 X91.7900 Y113.5120 E4.7166
G1 X84.7660 Y106.4880 E5.2162
G1 X85.4450 Y106.4880 E5.2503
G1 X92.4690 Y113.5120 E5.7499
G1 X93.1470 Y113.5120 E5.7840
G1 X86.1230 Y106.4880 E6.2835
G1 X86.8020 Y106.4880 E6.3177
G1 X93.8260 Y113.5120 E6.8172
G1 X94.5050 Y113.5120 E6.8514
G1 X87.4810 Y106.4880 E7.3509
G1 X88.1600 Y106.4880 E7.3850
G1 X95.1840 Y113.5120 E7.8846
G1 X95.8630 Y113.5120 E7.9187
G1 X88.8390 Y106.4880 E8.4183
G1 X89.5170 Y106.4880 E8.4524
G1 X96.5410 Y113.5120 E8.9520
G1 X97.2200 Y113.5120 E8.9861
G1 X90.1960 Y106.4880 E9.4856
G1 X90.8750 Y106.4880 E9.5198
G1 X97.8990 Y113.5120 E10.0193
G1 X98.5780 Y113.5120 E10.0535
G1 X91.5540 Y106.4880 E10.5530
G1 X92.2330 Y106.4880 E10.5871
G1 X99.2570 Y113.5120 E11.0867
G1 X99.9360 Y113.5120 E11.1208
G1 X92.9120 Y106.4880 E11.6204
G1 X93.5900 Y106.4880 E11.6545
G1 X100.6140 Y113.5120 E12.1541
G1 X101.2930 Y113.5120 E12.1882
G1 X94.2690 Y106.4880 E12.6877
G1 X94.9480 Y106.4880 E12.7219
G1 X101.9720 Y113.5120 E13.2214
G1 X102.6510 Y113.5120 E13.2556
G1 X95.6270 Y106.4880 E13.7551
G1 X96.3060 Y106.4880 E13.7892
G1 X103.3300 Y113.5120 E14.2888
G1 X104.0080 Y113.5120 E14.3229
G1 X96.9840 Y106.4880 E14.8225
G1 X97.6630 Y106.4880 E14.8566
G1 X104.6870 Y113.5120 E15.3562
G1 X105.3660 Y113.5120 E15.3903
G1 X98.3420 Y106.4880 E15.8898
G1 X99.0210 Y106.4880 E15.9240
G1 X106.0450 Y113.5120 E16.4235
G1 X106.7240 Y113.5120 E16.4577
G1 X99.7000 Y106.4880 E16.9572
G1 X100.3790 Y106.4880 E16.9913
G1 X107.4030 Y113.5120 E17.4909
G1 X108.0810 Y113.5120 E17.5250
G1 X101.0570 Y106.4880 E18.0246
G1 X101.7360 Y106.4880 E18.0587
G1 X108.7600 Y113.5120 E18.5583
G1 X109.4390 Y113.5120 E18.5924
G1 X102.4150 Y106.4880 E19.0919
G1 X103.0940 Y106.4880 E19.1261
G1 X110.1180 Y113.5120 E19.6256
G1 X110.7970 Y113.5120 E19.6598
G1 X103.7730 Y106.4880 E20.1593
G1 X104.4520 Y106.4880 E20.1934
G1 X111.4760 Y113.5120 E20.6930
G1 X112.1540 Y113.5120 E20.7271
G1 X105.1300 Y106.4880 E21.2267
G1 X105.8090 Y106.4880 E21.2608
G1 X112.8330 Y113.5120 E21.7604
G1 X113.5120 Y113.5120 E21.7945
G1 X106.4880 Y106.4880 E22.2940
G1 X107.1670 Y106.4880 E22.3282
G1 X114.1910 Y113.5120 E22.8277
G1 X114.8700 Y113.5120 E22.8619
G1 X107.8460 Y106.4880 E23.3614
G1 X108.5240 Y106.4880 E23.3955
G1 X115.5480 Y113.5120 E23.8951
G1 X116.2270 Y113.5120 E23.9292
G1 X109.2030 Y106.4880 E24.4288
G1 X109.8820 Y106.4880 E24.4629
G1 X116.9060 Y113.5120 E24.9625
G1 X117.5850 Y113.5120 E24.9966
G1 X110.5610 Y106.4880 E25.4961
G1 X111.2400 Y106.4880 E25.5303
G1 X118.2640 Y113.5120 E26.0298
G1 X118.9430 Y113.5120 E26.0640
G1 X111.9190 Y106.4880 E26.5635
G1 X112.5970 Y106.4880 E26.5976
G1 X119.6210 Y113.5120 E27.0972
G1 X120.3000 Y113.5120 E27.1313
G1 X113.2760 Y106.4880 E27.6309
G1 X113.9550 Y106.4880 E27.6650
G1 X120.9790 Y113.5120 E28.1646
G1 X121.6580 Y113.5120 E28.1987
G1 X114.6340 Y106.4880 E28.6982
G1 X115.3130 Y106.4880 E28.7324
G1 X122.3370 Y113.5120 E29.2319
G1 X123.0160 Y113.5120 E29.2661
G1 X115.9920 Y106.4880 E29.7656
G1 X116.6700 Y106.4880 E29.7997
G1 X123.6940 Y113.5120 E30.2993
G1 X124.3730 Y113.5120 E30.3334
G1 X117.3490 Y106.4880 E30.8330
G1 X118.0280 Y106.4880 E30.8671
G1 X125.0520 Y113.5120 E31.3667
G1 X125.7310 Y113.5120 E31.4008
G1 X118.7070 Y106.4880 E31.9003
G1 X119.3860 Y106.4880 E31.9345
G1 X126.4100 Y113.5120 E32.4340
G1 X127.0880 Y113.5120 E32.4682
G1 X120.0640 Y106.4880 E32.9677
G1 X120.7430 Y106.4880 E33.0018
G1 X127.7670 Y113.5120 E33.5014
G1 X128.4460 Y113.5120 E33.5355
G1 X121.4220 Y106.4880 E34.0351
G1 X122.1010 Y106.4880 E34.0692
G1 X129.1250 Y113.5120 E34.5688
G1 X129.8040 Y113.5120 E34.6029
G1 X122.7800 Y106.4880 E35.1024
G1 X123.4590 Y106.4880 E35.1366
G1 X130.4830 Y113.5120 E35.6361
G1 X131.1610 Y113.5120 E35.6703
G1 X124.1370 Y106.4880 E36.1698
G1 X124.8160 Y106.4880 E36.2039
G1 X131.8400 Y113.5120 E36.7035
G1 X132.5190 Y113.5120 E36.7376
G1 X125.4950 Y106.4880 E37.2372
G1 X126.1740 Y106.4880 E37.2713
G1 X133.1980 Y113.5120 E37.7709
G1 X133.8770 Y113.5120 E37.8050
G1 X126.8530 Y106.4880 E38.3045
G1 X127.5320 Y106.4880 E38.3387
G1 X134.5560 Y113.5120 E38.8382
G1 X135.2340 Y113.5120 E38.8724
G1 X128.2100 Y106.4880 E39.3719
G1 X128.8890 Y106.4880 E39.4060
G1 X135.9130 Y113.5120 E39.9056
G1 X136.3840 Y113.5120 E39.9292
G1 X136.4880 Y113.4080 E39.9367
G1 X129.5680 Y106.4880 E40.4288
G1 X130.2470 Y106.4880 E40.4629
G1 X136.8270 Y113.0680 E40.9309
G1 X137.1670 Y112.7290 E40.9551
G1 X130.9260 Y106.4880 E41.3989
G1 X131.6040 Y106.4880 E41.4331
G1 X137.5060 Y112.3900 E41.8528
G1 X137.8450 Y112.0500 E41.8769
G1 X132.2830 Y106.4880 E42.2725
G1 X132.9620 Y106.4880 E42.3066
G1 X138.1850 Y111.7110 E42.6781
G1 X138.5120 Y111.3840 E42.7014
G1 X138.5120 Y111.3590 E42.7026
G1 X133.6410 Y106.4880 E43.0490
G1 X134.3200 Y106.4880 E43.0832
G1 X138.5120 Y110.6800 E43.3813
G1 X138.5120 Y110.0010 E43.4154
G1 X134.9990 Y106.4880 E43.6653
G1 X135.6770 Y106.4880 E43.6995
G1 X138.5120 Y109.3230 E43.9011
G1 X138.5120 Y108.6440 E43.9352
G1 X136.3560 Y106.4880 E44.0885
G92 E0.0000
G1 E-6 F2400 ; custom retraction
;layer 4, Z = 1.120
;fan4;
G1 Z1.120 F1200
G1 X136.5030 Y106.2000 F11000 ; custom feedrate
G1 E0 F2400 ; custom un-retraction/prime
G92 E0.0000
G1 X138.8000 Y108.4970 E0.1634 F5280 ; custom feedrate
G1 X138.8000 Y111.5030 E0.3145
G1 X136.5030 Y113.8000 E0.4779
G1 X83.4970 Y113.8000 E3.1435
G1 X81.2000 Y111.5030 E3.3069
G1 X81.2000 Y108.4970 E3.4581
G1 X83.4970 Y106.2000 E3.6214
G1 X136.5030 Y106.2000 E6.2871
G1 X136.7020 Y105.7200 F11000 ; custom feedrate
G92 E0.0000
G1 X139.2800 Y108.2980 E0.1834 F5280 ; custom feedrate
G1 X139.2800 Y111.7020 E0.3545
G1 X136.7020 Y114.2800 E0.5379
G1 X83.2980 Y114.2800 E3.2235
G1 X80.7200 Y111.7020 E3.4069
G1 X80.7200 Y108.2980 E3.5780
G1 X83.2980 Y105.7200 E3.7614
G1 X136.7020 Y105.7200 E6.4470
G1 X136.9010 Y105.2400 F11000 ; custom feedrate
G92 E0.0000
G1 X139.7600 Y108.0990 E0.2034 F3960 ; custom feedrate
G1 X139.7600 Y111.9010 E0.3945
G1 X136.9010 Y114.7600 E0.5979
G1 X83.0990 Y114.7600 E3.3035
G1 X80.2400 Y111.9010 E3.5069
G1 X80.2400 Y108.0990 E3.6980
G1 X83.0990 Y105.2400 E3.9014
G1 X136.9010 Y105.2400 E6.6070
G1 X136.7520 Y111.0800 F11000 ; custom feedrate
G92 E0.0000
G1 X138.5120 Y109.3200 E0.1252 F5280 ; custom feedrate
G1 X138.5120 Y108.6410 E0.1593
G1 X136.7520 Y110.4010 E0.2845
G1 X136.7520 Y109.7220 E0.3186
G1 X138.1850 Y108.2890 E0.4205
G1 X137.8450 Y107.9500 E0.4447
G1 X136.7520 Y109.0430 E0.5224
G1 X136.7520 Y108.3640 E0.5566
G1 X137.5060 Y107.6100 E0.6102
G1 X137.1670 Y107.2710 E0.6343
G1 X136.1900 Y108.2480 E0.7038
G1 X135.5110 Y108.2480 E0.7380
G1 X136.8270 Y106.9320 E0.8316
G1 X136.4880 Y106.5920 E0.8557
G1 X134.8320 Y108.2480 E0.9735
G1 X134.1530 Y108.2480 E1.0076
G1 X135.9130 Y106.4880 E1.1328
G1 X135.2340 Y106.4880 E1.1669
G1 X133.4740 Y108.2480 E1.2921
G1 X132.7960 Y108.2480 E1.3262
G1 X134.5560 Y106.4880 E1.4514
G1 X133.8770 Y106.4880 E1.4855
G1 X132.1170 Y108.2480 E1.6107
G1 X131.4380 Y108.2480 E1.6448
G1 X133.1980 Y106.4880 E1.7700
G1 X132.5190 Y106.4880 E1.8042
G1 X130.7590 Y108.2480 E1.9293
G1 X130.0800 Y108.2480 E1.9635
G1 X131.8400 Y106.4880 E2.0886
G1 X131.1610 Y106.4880 E2.1228
G1 X129.4010 Y108.2480 E2.2479
G1 X138.5120 Y111.3560 F11000 ; custom feedrate
G92 E0.0000
G1 X136.3560 Y113.5120 E0.1533 F5280 ; custom feedrate
G1 X135.6770 Y113.5120 E0.1875
G1 X138.5120 Y110.6770 E0.3891
G1 X138.5120 Y109.9990 E0.4232
G1 X134.9990 Y113.5120 E0.6731
G1 X134.3200 Y113.5120 E0.7072
G1 X136.0800 Y111.7520 E0.8324
G1 X135.4010 Y111.7520 E0.8665
G1 X133.6410 Y113.5120 E0.9917
G1 X132.9620 Y113.5120 E1.0258
G1 X134.7220 Y111.7520 E1.1510
G1 X134.0430 Y111.7520 E1.1851
G1 X132.2830 Y113.5120 E1.3103
G1 X131.6040 Y113.5120 E1.3444
G1 X133.3640 Y111.7520 E1.4696
G1 X132.6860 Y111.7520 E1.5037
G1 X130.9260 Y113.5120 E1.6289
G1 X130.2470 Y113.5120 E1.6631
G1 X132.0070 Y111.7520 E1.7882
G1 X131.3280 Y111.7520 E1.8224
G1 X129.5680 Y113.5120 E1.9475
G1 X128.8890 Y113.5120 E1.9817
G1 X130.6490 Y111.7520 E2.1068
G1 X129.9700 Y111.7520 E2.1410
G1 X128.2100 Y113.5120 E2.2662
G1 X127.5320 Y113.5120 E2.3003
G1 X129.2920 Y111.7520 E2.4255
G1 X129.2160 Y111.7520 E2.4293
G1 X129.2160 Y111.1490 E2.4596
G1 X126.8530 Y113.5120 E2.6277
G1 X126.1740 Y113.5120 E2.6618
G1 X129.2160 Y110.4700 E2.8782
G1 X129.2160 Y109.7910 E2.9123
G1 X125.4950 Y113.5120 E3.1769
G1 X124.8160 Y113.5120 E3.2111
G1 X129.2160 Y109.1120 E3.5240
G1 X129.2160 Y108.4330 E3.5581
G1 X124.1370 Y113.5120 E3.9193
G1 X123.4590 Y113.5120 E3.9535
G1 X130.4830 Y106.4880 E4.4530
G1 X129.8040 Y106.4880 E4.4871
G1 X122.7800 Y113.5120 E4.9867
G1 X122.1010 Y113.5120 E5.0208
G1 X129.1250 Y106.4880 E5.5204
G1 X128.4460 Y106.4880 E5.5545
G1 X121.4220 Y113.5120 E6.0541
G1 X120.7430 Y113.5120 E6.0882
G1 X127.7670 Y106.4880 E6.5877
G1 X127.0880 Y106.4880 E6.6219
G1 X120.0640 Y113.5120 E7.1214
G1 X119.3860 Y113.5120 E7.1556
G1 X126.4100 Y106.4880 E7.6551
G1 X125.7310 Y106.4880 E7.6892
G1 X118.7070 Y113.5120 E8.1888
G1 X118.0280 Y113.5120 E8.2229
G1 X125.0520 Y106.4880 E8.7225
G1 X124.3730 Y106.4880 E8.7566
G1 X117.3490 Y113.5120 E9.2562
G1 X116.6700 Y113.5120 E9.2903
G1 X123.6940 Y106.4880 E9.7898
G1 X123.0160 Y106.4880 E9.8240
G1 X115.9920 Y113.5120 E10.3235
G1 X115.3130 Y113.5120 E10.3577
G1 X122.3370 Y106.4880 E10.8572
G1 X121.6580 Y106.4880 E10.8913
G1 X114.6340 Y113.5120 E11.3909
G1 X113.9550 Y113.5120 E11.4250
G1 X120.9790 Y106.4880 E11.9246
G1 X120.3000 Y106.4880 E11.9587
G1 X113.2760 Y113.5120 E12.4583
G1 X112.5970 Y113.5120 E12.4924
G1 X119.6210 Y106.4880 E12.9919
G1 X118.9430 Y106.4880 E13.0261
G1 X111.9190 Y113.5120 E13.5256
G1 X111.2400 Y113.5120 E13.5598
G1 X118.2640 Y106.4880 E14.0593
G1 X117.5850 Y106.4880 E14.0934
G1 X110.5610 Y113.5120 E14.5930
G1 X109.8820 Y113.5120 E14.6271
G1 X116.9060 Y106.4880 E15.1267
G1 X116.2270 Y106.4880 E15.1608
G1 X109.2030 Y113.5120 E15.6604
G1 X108.5250 Y113.5120 E15.6945
G1 X115.5490 Y106.4880 E16.1940
G1 X114.8700 Y106.4880 E16.2282
G1 X107.8460 Y113.5120 E16.7277
G1 X107.1670 Y113.5120 E16.7619
G1 X114.1910 Y106.4880 E17.2614
G1 X113.5120 Y106.4880 E17.2955
G1 X106.4880 Y113.5120 E17.7951
G1 X105.8090 Y113.5120 E17.8292
G1 X112.8330 Y106.4880 E18.3288
G1 X112.1540 Y106.4880 E18.3629
G1 X105.1300 Y113.5120 E18.8625
G1 X104.4520 Y113.5120 E18.8966
G1 X111.4760 Y106.4880 E19.3961
G1 X110.7970 Y106.4880 E19.4303
G1 X103.7730 Y113.5120 E19.9298
G1 X103.0940 Y113.5120 E19.9640
G1 X110.1180 Y106.4880 E20.4635
G1 X109.4390 Y106.4880 E20.4976
G1 X102.4150 Y113.5120 E20.9972
G1 X101.7360 Y113.5120 E21.0313
G1 X108.7600 Y106.4880 E21.5309
G1 X108.0810 Y106.4880 E21.5650
G1 X101.0570 Y113.5120 E22.0646
G1 X100.3790 Y113.5120 E22.0987
G1 X107.4030 Y106.4880 E22.5982
G1 X106.7240 Y106.4880 E22.6324
G1 X99.7000 Y113.5120 E23.1319
G1 X99.0210 Y113.5120 E23.1661
G1 X106.0450 Y106.4880 E23.6656
G1 X105.3660 Y106.4880 E23.6997
G1 X98.3420 Y113.5120 E24.1993
G1 X97.6630 Y113.5120 E24.2334
G1 X104.6870 Y106.4880 E24.7330
G1 X104.0090 Y106.4880 E24.7671
G1 X96.9850 Y113.5120 E25.2667
G1 X96.3060 Y113.5120 E25.3008
G1 X103.3300 Y106.4880 E25.8003
G1 X102.6510 Y106.4880 E25.8345
G1 X95.6270 Y113.5120 E26.3340
G1 X94.9480 Y113.5120 E26.3682
G1 X101.9720 Y106.4880 E26.8677
G1 X101.2930 Y106.4880 E26.9018
G1 X94.2690 Y113.5120 E27.4014
G1 X93.5900 Y113.5120 E27.4355
G1 X100.6140 Y106.4880 E27.9351
G1 X99.9360 Y106.4880 E27.9692
G1 X92.9120 Y113.5120 E28.4688
G1 X92.2330 Y113.5120 E28.5029
G1 X99.2570 Y106.4880 E29.0024
G1 X98.5780 Y106.4880 E29.0366
G1 X91.5540 Y113.5120 E29.5361
G1 X90.8750 Y113.5120 E29.5703
G1 X97.8990 Y106.4880 E30.0698
G1 X97.2200 Y106.4880 E30.1039
G1 X90.1960 Y113.5120 E30.6035
G1 X89.5170 Y113.5120 E30.6376
G1 X96.5410 Y106.4880 E31.1372
G1 X95.8630 Y106.4880 E31.1713
G1 X88.8390 Y113.5120 E31.6709
G1 X88.1600 Y113.5120 E31.7050
G1 X95.1840 Y106.4880 E32.2045
G1 X94.5050 Y106.4880 E32.2387
G1 X87.4810 Y113.5120 E32.7382
G1 X86.8020 Y113.5120 E32.7724
G1 X88.5620 Y111.7520 E32.8975
G1 X87.8830 Y111.7520 E32.9317
G1 X86.1230 Y113.5120 E33.0568
G1 X85.4450 Y113.5120 E33.0910
G1 X87.2050 Y111.7520 E33.2161
G1 X86.5260 Y111.7520 E33.2503
G1 X84.7660 Y113.5120 E33.3755
G1 X84.0870 Y113.5120 E33.4096
G1 X86.2480 Y111.3510 E33.5633
G1 X86.2480 Y110.6720 E33.5974
G1 X83.5120 Y113.4080 E33.7920
G1 X83.1730 Y113.0680 E33.8161
G1 X86.2480 Y109.9930 E34.0348
G1 X86.2480 Y109.3140 E34.0690
G1 X82.8330 Y112.7290 E34.3118
G1 X82.4940 Y112.3900 E34.3360
G1 X86.2480 Y108.6360 E34.6030
G1 X86.2480 Y108.2480 E34.6224
G1 X86.6360 Y108.2480 E34.6419
G1 X88.3960 Y106.4880 E34.7671
G1 X87.7170 Y106.4880 E34.8012
G1 X82.1550 Y112.0500 E35.1968
G1 X81.8150 Y111.7110 E35.2210
G1 X87.0380 Y106.4880 E35.5924
G1 X86.3590 Y106.4880 E35.6265
G1 X81.4880 Y111.3590 E35.9730
G1 X81.4880 Y110.6800 E36.0071
G1 X85.6800 Y106.4880 E36.3053
G1 X85.0010 Y106.4880 E36.3394
G1 X81.4880 Y110.0010 E36.5893
G1 X81.4880 Y109.3230 E36.6234
G1 X84.3230 Y106.4880 E36.8250
G1 X83.6440 Y106.4880 E36.8592
G1 X81.4880 Y108.6440 E37.0125
G1 X87.3140 Y108.2480 F11000 ; custom feedrate
G92 E0.0000
G1 X89.0740 Y106.4880 E0.1252 F5280 ; custom feedrate
G1 X89.7530 Y106.4880 E0.1593
G1 X87.9930 Y108.2480 E0.2845
G1 X88.6720 Y108.2480 E0.3186
G1 X90.4320 Y106.4880 E0.4438
G1 X91.1110 Y106.4880 E0.4779
G1 X88.7840 Y108.8150 E0.6434
G1 X88.7840 Y109.4940 E0.6776
G1 X91.7900 Y106.4880 E0.8913
G1 X92.4690 Y106.4880 E0.9255
G1 X88.7840 Y110.1730 E1.1875
G1 X88.7840 Y110.8510 E1.2216
G1 X93.1470 Y106.4880 E1.5320
G1 X93.8260 Y106.4880 E1.5661
G1 X88.7840 Y111.5300 E1.9247
G1 X130.0010 Y111.2120 F11000 ; custom feedrate
G92 E0.0000
G1 X132.4250 Y108.7880 E0.2155 F6600 ; custom feedrate
G1 X136.2120 Y108.7880 E0.4535
G1 X136.2120 Y109.2440 E0.4822
G1 X134.2440 Y111.2120 E0.6572
G92 E0.0000
G1 E-6 F2400 ; custom retraction
;layer 5, Z = 1.400
;fan5;
;
G1 Z1.400 F1200
G1 X136.5600 Y111.5600 F11000 ; custom feedrate
G1 E0 F2400 ; custom un-retraction/prime
G92 E0.0000
G1 X129.4080 Y111.5600 E0.3597 F5280 ; custom feedrate
G1 X129.4080 Y108.4400 E0.5166
G1 X136.5600 Y108.4400 E0.8762
G1 X136.5600 Y111.5600 E1.0331
G1 X137.0400 Y112.0400 F11000 ; custom feedrate
G92 E0.0000
G1 X128.9280 Y112.0400 E0.4079 F5280 ; custom feedrate
G1 X128.9280 Y107.9600 E0.6131
G1 X137.0400 Y107.9600 E1.0211
G1 X137.0400 Y112.0400 E1.2262
G1 X137.5200 Y112.5200 F11000 ; custom feedrate
G92 E0.0000
G1 X128.4480 Y112.5200 E0.4562 F3960 ; custom feedrate
G1 X128.4480 Y107.4800 E0.7097
G1 X137.5200 Y107.4800 E1.1659
G1 X137.5200 Y112.5200 E1.4194
G1 X134.2440 Y108.7880 F11000 ; custom feedrate
G92 E0.0000
G1 X136.2120 Y110.7560 E0.1750 F6600 ; custom feedrate
G1 X136.2120 Y111.2120 E0.2036
G1 X132.4250 Y111.2120 E0.4417
G1 X130.0010 Y108.7880 E0.6572
G92 E0.0000
G1 E-6 F2400 ; custom retraction
;zhop1
G1 X88.5920 Y108.4400 F11000 ; custom feedrate
G1 Z1.400 F1200
G1 E0 F2400 ; custom un-retraction/prime
G92 E0.0000
G1 X88.5920 Y111.5600 E0.1569 F5280 ; custom feedrate
G1 X86.4400 Y111.5600 E0.2651
G1 X86.4400 Y108.4400 E0.4220
G1 X88.5920 Y108.4400 E0.5302
G1 X89.0720 Y107.9600 F11000 ; custom feedrate
G92 E0.0000
G1 X89.0720 Y112.0400 E0.2052 F5280 ; custom feedrate
G1 X85.9600 Y112.0400 E0.3617
G1 X85.9600 Y107.9600 E0.5669
G1 X89.0720 Y107.9600 E0.7234
G1 X89.5520 Y107.4800 F11000 ; custom feedrate
G92 E0.0000
G1 X89.5520 Y112.5200 E0.2535 F3960 ; custom feedrate
G1 X85.4800 Y112.5200 E0.4582
G1 X85.4800 Y107.4800 E0.7117
G1 X89.5520 Y107.4800 E0.9165
G92 E0.0000
G1 E-6 F2400 ; custom retraction
;zhop1
G1 X85.4800 Y108.6690 F11000 ; custom feedrate
G1 X82.2190 Y109.2810
G1 X82.2190 Y109.6210
G1 X81.7390 Y109.7610
G1 Z1.400 F1200
G1 E0 F2400 ; custom un-retraction/prime
G92 E0.0000
G1 X81.7390 Y110.2390 E0.0240 F5280 ; custom feedrate
G1 X81.2610 Y110.2390 E0.0480
G1 X81.2610 Y109.7610 E0.0721
G1 X81.7390 Y109.7610 E0.0961
G1 X82.2190 Y109.2810 F11000 ; custom feedrate
G92 E0.0000
G1 X82.2190 Y110.7190 E0.0723 F3960 ; custom feedrate
G1 X80.7810 Y110.7190 E0.1446
G1 X80.7810 Y109.2810 E0.2169
G1 X82.2190 Y109.2810 E0.2892
G92 E0.0000
G1 E-6 F2400 ; custom retraction
;layer 6, Z = 1.680
;fan6;
G1 Z1.680 F1200
G1 X82.1740 Y109.3260 F11000 ; custom feedrate
G1 E0 F2400 ; custom un-retraction/prime
G92 E0.0000
G1 X82.1740 Y110.6740 E0.0678 F3960 ; custom feedrate
G1 X80.8260 Y110.6740 E0.1357
G1 X80.8260 Y109.3260 E0.2035
G1 X82.1740 Y109.3260 E0.2714
G1 X81.8860 Y110.2820 F11000 ; custom feedrate
G92 E0.0000
G1 X81.7820 Y110.3860 E0.0074 F6600 ; custom feedrate
G1 X81.1140 Y110.3860 E0.0411
G1 X81.1140 Y110.3760 E0.0416
G1 X81.8760 Y109.6140 E0.0958
G1 X81.1970 Y109.6140 E0.1299
G1 X81.1140 Y109.6970 E0.1359
G92 E0.0000
G1 E-6 F2400 ; custom retraction
;zhop1
G1 X82.1740 Y109.3850 F11000 ; custom feedrate
G1 X82.1740 Y109.3260
G1 X85.2400 Y108.4830
G1 X86.2000 Y108.2000
G1 Z1.680 F1200
G1 E0 F2400 ; custom un-retraction/prime
G92 E0.0000
G1 X88.8200 Y108.2000 E0.1318 F5280 ; custom feedrate
G1 X88.8200 Y111.8000 E0.3128
G1 X86.2000 Y111.8000 E0.4445
G1 X86.2000 Y108.2000 E0.6256
G1 X85.7200 Y107.7200 F11000 ; custom feedrate
G92 E0.0000
G1 X89.3000 Y107.7200 E0.1800 F5280 ; custom feedrate
G1 X89.3000 Y112.2800 E0.4093
G1 X85.7200 Y112.2800 E0.5894
G1 X85.7200 Y107.7200 E0.8187
G1 X85.2400 Y107.2400 F11000 ; custom feedrate
G92 E0.0000
G1 X89.7800 Y107.2400 E0.2283 F3960 ; custom feedrate
G1 X89.7800 Y112.7600 E0.5059
G1 X85.2400 Y112.7600 E0.7342
G1 X85.2400 Y107.2400 E1.0118
G92 E0.0000
G1 E-6 F2400 ; custom retraction
;zhop1
G1 X89.7800 Y107.3390 F11000 ; custom feedrate
G1 X128.2200 Y107.2400
G1 X128.2200 Y108.1790
G1 X129.1800 Y108.2000
G1 Z1.680 F1200
G1 E0 F2400 ; custom un-retraction/prime
G92 E0.0000
G1 X136.8000 Y108.2000 E0.3832 F5280 ; custom feedrate
G1 X136.8000 Y111.8000 E0.5642
G1 X129.1800 Y111.8000 E0.9474
G1 X129.1800 Y108.2000 E1.1285
G1 X128.7000 Y107.7200 F11000 ; custom feedrate
G92 E0.0000
G1 X137.2800 Y107.7200 E0.4315 F5280 ; custom feedrate
G1 X137.2800 Y112.2800 E0.6608
G1 X128.7000 Y112.2800 E1.0923
G1 X128.7000 Y107.7200 E1.3216
G1 X128.2200 Y107.2400 F11000 ; custom feedrate
G92 E0.0000
G1 X137.7600 Y107.2400 E0.4798 F3960 ; custom feedrate
G1 X137.7600 Y112.7600 E0.7574
G1 X128.2200 Y112.7600 E1.2371
G1 X128.2200 Y107.2400 E1.5147
G1 X129.7610 Y111.4520 F11000 ; custom feedrate
G92 E0.0000
G1 X132.6650 Y108.5480 E0.2582 F6600 ; custom feedrate
G1 X136.4520 Y108.5480 E0.4962
G1 X136.4520 Y109.0040 E0.5249
G1 X134.0040 Y111.4520 E0.7425
G92 E0.0000
G1 E-6 F2400 ; custom retraction
;layer 7, Z = 1.960
;fan7;
G1 Z1.960 F1200
G1 X136.8000 Y111.8000 F11000 ; custom feedrate
G1 E0 F2400 ; custom un-retraction/prime
G92 E0.0000
G1 X129.1550 Y111.8000 E0.3845 F5280 ; custom feedrate
G1 X129.1550 Y108.2000 E0.5655
G1 X136.8000 Y108.2000 E0.9499
G1 X136.8000 Y111.8000 E1.1310
G1 X137.2800 Y112.2800 F11000 ; custom feedrate
G92 E0.0000
G1 X128.6750 Y112.2800 E0.4327 F5280 ; custom feedrate
G1 X128.6750 Y107.7200 E0.6620
G1 X137.2800 Y107.7200 E1.0948
G1 X137.2800 Y112.2800 E1.3241
G1 X137.7600 Y112.7600 F11000 ; custom feedrate
G92 E0.0000
G1 X128.1950 Y112.7600 E0.4810 F3960 ; custom feedrate
G1 X128.1950 Y107.2400 E0.7586
G1 X137.7600 Y107.2400 E1.2396
G1 X137.7600 Y112.7600 E1.5172
G1 X134.0040 Y108.5480 F11000 ; custom feedrate
G92 E0.0000
G1 X136.4520 Y110.9960 E0.2176 F6600 ; custom feedrate
G1 X136.4520 Y111.4520 E0.2463
G1 X132.6650 Y111.4520 E0.4843
G1 X129.7610 Y108.5480 E0.7425
G92 E0.0000
G1 E-6 F2400 ; custom retraction
;zhop1
G1 X88.8450 Y108.2000 F11000 ; custom feedrate
G1 Z1.960 F1200
G1 E0 F2400 ; custom un-retraction/prime
G92 E0.0000
G1 X88.8450 Y111.8000 E0.1810 F5280 ; custom feedrate
G1 X86.2000 Y111.8000 E0.3140
G1 X86.2000 Y108.2000 E0.4951
G1 X88.8450 Y108.2000 E0.6281
G1 X89.3250 Y107.7200 F11000 ; custom feedrate
G92 E0.0000
G1 X89.3250 Y112.2800 E0.2293 F5280 ; custom feedrate
G1 X85.7200 Y112.2800 E0.4106
G1 X85.7200 Y107.7200 E0.6399
G1 X89.3250 Y107.7200 E0.8212
G1 X89.8050 Y107.2400 F11000 ; custom feedrate
G92 E0.0000
G1 X89.8050 Y112.7600 E0.2776 F3960 ; custom feedrate
G1 X85.2400 Y112.7600 E0.5072
G1 X85.2400 Y107.2400 E0.7848
G1 X89.8050 Y107.2400 E1.0143
G92 E0.0000
G1 E-6 F2400 ; custom retraction
;zhop1
G1 X82.1300 Y109.3700 F11000 ; custom feedrate
G1 Z1.960 F1200
G1 E0 F2400 ; custom un-retraction/prime
G92 E0.0000
G1 X82.1300 Y110.6300 E0.0634 F3960 ; custom feedrate
G1 X80.8700 Y110.6300 E0.1268
G1 X80.8700 Y109.3700 E0.1901
G1 X82.1300 Y109.3700 E0.2535
G1 X81.8260 Y109.6580 F11000 ; custom feedrate
G92 E0.0000
G1 X81.8420 Y109.6740 E0.0011 F6600 ; custom feedrate
G1 X81.8420 Y110.3420 E0.0347
G1 X81.8320 Y110.3420 E0.0353
G1 X81.1580 Y109.6680 E0.0832
G92 E0.0000
G1 E-6 F2400 ; custom retraction
;layer 8, Z = 2.240
;fan8;
G1 Z2.240 F1200
G1 X80.9140 Y109.4140 F11000 ; custom feedrate
G1 E0 F2400 ; custom un-retraction/prime
G92 E0.0000
G1 X82.0860 Y109.4140 E0.0589 F3960 ; custom feedrate
G1 X82.0860 Y110.5860 E0.1178
G1 X80.9140 Y110.5860 E0.1767
G1 X80.9140 Y109.4140 E0.2357
G1 X81.7870 Y109.7020 F11000 ; custom feedrate
G92 E0.0000
G1 X81.2020 Y110.2870 E0.0416 F6600 ; custom feedrate
G92 E0.0000
G1 E-6 F2400 ; custom retraction
;zhop1
G1 X82.0860 Y110.5550 F11000 ; custom feedrate
G1 X82.0860 Y110.5860
G1 X85.2400 Y111.5090
G1 X86.2000 Y111.8000
G1 Z2.240 F1200
G1 E0 F2400 ; custom un-retraction/prime
G92 E0.0000
G1 X86.2000 Y108.2000 E0.1810 F5280 ; custom feedrate
G1 X88.8800 Y108.2000 E0.3158
G1 X88.8800 Y111.8000 E0.4969
G1 X86.2000 Y111.8000 E0.6317
G1 X85.7200 Y112.2800 F11000 ; custom feedrate
G92 E0.0000
G1 X85.7200 Y107.7200 E0.2293 F5280 ; custom feedrate
G1 X89.3600 Y107.7200 E0.4124
G1 X89.3600 Y112.2800 E0.6417
G1 X85.7200 Y112.2800 E0.8248
G1 X85.2400 Y112.7600 F11000 ; custom feedrate
G92 E0.0000
G1 X85.2400 Y107.2400 E0.2776 F3960 ; custom feedrate
G1 X89.8400 Y107.2400 E0.5089
G1 X89.8400 Y112.7600 E0.7865
G1 X85.2400 Y112.7600 E1.0179
G92 E0.0000
G1 E-6 F2400 ; custom retraction
;zhop1
G1 X89.8400 Y112.6590 F11000 ; custom feedrate
G1 X128.1600 Y112.7600
G1 X128.1600 Y111.8210
G1 X129.1200 Y111.8000
G1 Z2.240 F1200
G1 E0 F2400 ; custom un-retraction/prime
G92 E0.0000
G1 X129.1200 Y108.2000 E0.1810 F5280 ; custom feedrate
G1 X136.8000 Y108.2000 E0.5673
G1 X136.8000 Y111.8000 E0.7483
G1 X129.1200 Y111.8000 E1.1346
G1 X128.6400 Y112.2800 F11000 ; custom feedrate
G92 E0.0000
G1 X128.6400 Y107.7200 E0.2293 F5280 ; custom feedrate
G1 X137.2800 Y107.7200 E0.6638
G1 X137.2800 Y112.2800 E0.8932
G1 X128.6400 Y112.2800 E1.3277
G1 X128.1600 Y112.7600 F11000 ; custom feedrate
G92 E0.0000
G1 X128.1600 Y107.2400 E0.2776 F3960 ; custom feedrate
G1 X137.7600 Y107.2400 E0.7604
G1 X137.7600 Y112.7600 E1.0380
G1 X128.1600 Y112.7600 E1.5208
G1 X129.7610 Y111.4520 F11000 ; custom feedrate
G92 E0.0000
G1 X132.6650 Y108.5480 E0.2582 F6600 ; custom feedrate
G1 X136.4520 Y108.5480 E0.4962
G1 X136.4520 Y109.0040 E0.5249
G1 X134.0040 Y111.4520 E0.7425
G92 E0.0000
G1 E-6 F2400 ; custom retraction
;layer 9, Z = 2.520
;fan9;
G1 Z2.520 F1200
G1 X136.8000 Y111.8000 F11000 ; custom feedrate
G1 E0 F2400 ; custom un-retraction/prime
G92 E0.0000
G1 X129.0730 Y111.8000 E0.3886 F5280 ; custom feedrate
G1 X129.0730 Y108.2000 E0.5696
G1 X136.8000 Y108.2000 E0.9582
G1 X136.8000 Y111.8000 E1.1393
G1 X137.2800 Y112.2800 F11000 ; custom feedrate
G92 E0.0000
G1 X128.5930 Y112.2800 E0.4369 F5280 ; custom feedrate
G1 X128.5930 Y107.7200 E0.6662
G1 X137.2800 Y107.7200 E1.1031
G1 X137.2800 Y112.2800 E1.3324
G1 X137.7600 Y112.7600 F11000 ; custom feedrate
G92 E0.0000
G1 X128.1130 Y112.7600 E0.4852 F3960 ; custom feedrate
G1 X128.1130 Y107.2400 E0.7627
G1 X137.7600 Y107.2400 E1.2479
G1 X137.7600 Y112.7600 E1.5255
G1 X134.0040 Y108.5480 F11000 ; custom feedrate
G92 E0.0000
G1 X136.4520 Y110.9960 E0.2176 F6600 ; custom feedrate
G1 X136.4520 Y111.4520 E0.2463
G1 X132.6650 Y111.4520 E0.4843
G1 X129.7610 Y108.5480 E0.7425
G92 E0.0000
G1 E-6 F2400 ; custom retraction
;zhop1
G1 X88.9270 Y108.2000 F11000 ; custom feedrate
G1 Z2.520 F1200
G1 E0 F2400 ; custom un-retraction/prime
G92 E0.0000
G1 X88.9270 Y111.8000 E0.1810 F5280 ; custom feedrate
G1 X86.2000 Y111.8000 E0.3182
G1 X86.2000 Y108.2000 E0.4992
G1 X88.9270 Y108.2000 E0.6364
G1 X89.4070 Y107.7200 F11000 ; custom feedrate
G92 E0.0000
G1 X89.4070 Y112.2800 E0.2293 F5280 ; custom feedrate
G1 X85.7200 Y112.2800 E0.4147
G1 X85.7200 Y107.7200 E0.6441
G1 X89.4070 Y107.7200 E0.8295
G1 X89.8870 Y107.2400 F11000 ; custom feedrate
G92 E0.0000
G1 X89.8870 Y112.7600 E0.2776 F3960 ; custom feedrate
G1 X85.2400 Y112.7600 E0.5113
G1 X85.2400 Y107.2400 E0.7889
G1 X89.8870 Y107.2400 E1.0226
G92 E0.0000
G1 E-6 F2400 ; custom retraction
;zhop1
G1 X82.0410 Y109.4590 F11000 ; custom feedrate
G1 Z2.520 F1200
G1 E0 F2400 ; custom un-retraction/prime
G92 E0.0000
G1 X82.0410 Y110.5410 E0.0545 F3960 ; custom feedrate
G1 X80.9590 Y110.5410 E0.1089
G1 X80.9590 Y109.4590 E0.1634
G1 X82.0410 Y109.4590 E0.2178
G1 X81.2470 Y109.7570 F11000 ; custom feedrate
G92 E0.0000
G1 X81.7430 Y110.2530 E0.0353 F6600 ; custom feedrate
G92 E0.0000
G1 E-6 F2400 ; custom retraction
;layer 10, Z = 2.800
;fan10;
G1 Z2.800 F1200
G1 X81.9970 Y110.4970 F11000 ; custom feedrate
G1 E0 F2400 ; custom un-retraction/prime
G92 E0.0000
G1 X81.0030 Y110.4970 E0.0500 F3960 ; custom feedrate
G1 X81.0030 Y109.5030 E0.1000
G1 X81.9970 Y109.5030 E0.1500
G1 X81.9970 Y110.4970 E0.2000
G1 X81.6990 Y109.7910 F11000 ; custom feedrate
G92 E0.0000
G1 X81.2910 Y110.1990 E0.0290 F6600 ; custom feedrate
G92 E0.0000
G1 E-6 F2400 ; custom retraction
;zhop1
G1 X81.9970 Y110.4290 F11000 ; custom feedrate
G1 X81.9970 Y110.4970
G1 X85.2400 Y111.4870
G1 X86.2000 Y111.8000
G1 Z2.800 F1200
G1 E0 F2400 ; custom un-retraction/prime
G92 E0.0000
G1 X86.2000 Y108.2000 E0.1810 F5280 ; custom feedrate
G1 X88.9850 Y108.2000 E0.3211
G1 X88.9850 Y111.8000 E0.5021
G1 X86.2000 Y111.8000 E0.6422
G1 X85.7200 Y112.2800 F11000 ; custom feedrate
G92 E0.0000
G1 X85.7200 Y107.7200 E0.2293 F5280 ; custom feedrate
G1 X89.4650 Y107.7200 E0.4176
G1 X89.4650 Y112.2800 E0.6470
G1 X85.7200 Y112.2800 E0.8353
G1 X85.2400 Y112.7600 F11000 ; custom feedrate
G92 E0.0000
G1 X85.2400 Y107.2400 E0.2776 F3960 ; custom feedrate
G1 X89.9450 Y107.2400 E0.5142
G1 X89.9450 Y112.7600 E0.7918
G1 X85.2400 Y112.7600 E1.0284
G92 E0.0000
G1 E-6 F2400 ; custom retraction
;zhop1
G1 X89.9450 Y112.6570 F11000 ; custom feedrate
G1 X128.0550 Y112.7600
G1 X128.0550 Y111.8210
G1 X129.0150 Y111.8000
G1 Z2.800 F1200
G1 E0 F2400 ; custom un-retraction/prime
G92 E0.0000
G1 X129.0150 Y108.2000 E0.1810 F5280 ; custom feedrate
G1 X136.8000 Y108.2000 E0.5725
G1 X136.8000 Y111.8000 E0.7536
G1 X129.0150 Y111.8000 E1.1451
G1 X128.5350 Y112.2800 F11000 ; custom feedrate
G92 E0.0000
G1 X128.5350 Y107.7200 E0.2293 F5280 ; custom feedrate
G1 X137.2800 Y107.7200 E0.6691
G1 X137.2800 Y112.2800 E0.8984
G1 X128.5350 Y112.2800 E1.3382
G1 X128.0550 Y112.7600 F11000 ; custom feedrate
G92 E0.0000
G1 X128.0550 Y107.2400 E0.2776 F3960 ; custom feedrate
G1 X137.7600 Y107.2400 E0.7656
G1 X137.7600 Y112.7600 E1.0432
G1 X128.0550 Y112.7600 E1.5313
G1 X129.7610 Y111.4520 F11000 ; custom feedrate
G92 E0.0000
G1 X132.6650 Y108.5480 E0.2582 F6600 ; custom feedrate
G1 X136.4520 Y108.5480 E0.4962
G1 X136.4520 Y109.0040 E0.5249
G1 X134.0040 Y111.4520 E0.7425
G92 E0.0000
G1 E-6 F2400 ; custom retraction
;layer 11, Z = 3.080
;fan11;
G1 Z3.080 F1200
G1 X136.8000 Y111.8000 F11000 ; custom feedrate
G1 E0 F2400 ; custom un-retraction/prime
G92 E0.0000
G1 X128.9470 Y111.8000 E0.3949 F5280 ; custom feedrate
G1 X128.9470 Y108.2000 E0.5760
G1 X136.8000 Y108.2000 E0.9709
G1 X136.8000 Y111.8000 E1.1519
G1 X137.2800 Y112.2800 F11000 ; custom feedrate
G92 E0.0000
G1 X128.4670 Y112.2800 E0.4432 F5280 ; custom feedrate
G1 X128.4670 Y107.7200 E0.6725
G1 X137.2800 Y107.7200 E1.1157
G1 X137.2800 Y112.2800 E1.3450
G1 X137.7600 Y112.7600 F11000 ; custom feedrate
G92 E0.0000
G1 X127.9870 Y112.7600 E0.4915 F3960 ; custom feedrate
G1 X127.9870 Y107.2400 E0.7691
G1 X137.7600 Y107.2400 E1.2606
G1 X137.7600 Y112.7600 E1.5382
G1 X134.0040 Y108.5480 F11000 ; custom feedrate
G92 E0.0000
G1 X136.4520 Y110.9960 E0.2176 F6600 ; custom feedrate
G1 X136.4520 Y111.4520 E0.2463
G1 X132.6650 Y111.4520 E0.4843
G1 X129.7610 Y108.5480 E0.7425
G92 E0.0000
G1 E-6 F2400 ; custom retraction
;zhop1
G1 X89.0530 Y108.2000 F11000 ; custom feedrate
G1 Z3.080 F1200
G1 E0 F2400 ; custom un-retraction/prime
G92 E0.0000
G1 X89.0530 Y111.8000 E0.1810 F5280 ; custom feedrate
G1 X86.2000 Y111.8000 E0.3245
G1 X86.2000 Y108.2000 E0.5056
G1 X89.0530 Y108.2000 E0.6490
G1 X89.5330 Y107.7200 F11000 ; custom feedrate
G92 E0.0000
G1 X89.5330 Y112.2800 E0.2293 F5280 ; custom feedrate
G1 X85.7200 Y112.2800 E0.4211
G1 X85.7200 Y107.7200 E0.6504
G1 X89.5330 Y107.7200 E0.8421
G1 X90.0130 Y107.2400 F11000 ; custom feedrate
G92 E0.0000
G1 X90.0130 Y112.7600 E0.2776 F3960 ; custom feedrate
G1 X85.2400 Y112.7600 E0.5176
G1 X85.2400 Y107.2400 E0.7952
G1 X90.0130 Y107.2400 E1.0353
G92 E0.0000
G1 E-6 F2400 ; custom retraction
;zhop1
G1 X85.2400 Y108.6060 F11000 ; custom feedrate
G1 X81.9530 Y109.5470
G1 Z3.080 F1200
G1 E0 F2400 ; custom un-retraction/prime
G92 E0.0000
G1 X81.9530 Y110.4530 E0.0455 F3960 ; custom feedrate
G1 X81.0470 Y110.4530 E0.0911
G1 X81.0470 Y109.5470 E0.1366
G1 X81.9530 Y109.5470 E0.1821
G1 X81.3350 Y109.8460 F11000 ; custom feedrate
G92 E0.0000
G1 X81.6540 Y110.1650 E0.0227 F6600 ; custom feedrate
G92 E0.0000
G1 E-6 F2400 ; custom retraction
;layer 12, Z = 3.360
;fan12;
G1 Z3.360 F1200
G1 X81.9080 Y110.4080 F11000 ; custom feedrate
G1 E0 F2400 ; custom un-retraction/prime
G92 E0.0000
G1 X81.0920 Y110.4080 E0.0411 F3960 ; custom feedrate
G1 X81.0920 Y109.5920 E0.0821
G1 X81.9080 Y109.5920 E0.1232
G1 X81.9080 Y110.4080 E0.1643
G1 X81.3800 Y110.1100 F11000 ; custom feedrate
G92 E0.0000
G1 X81.6100 Y109.8800 E0.0164 F6600 ; custom feedrate
G92 E0.0000
G1 E-6 F2400 ; custom retraction
;zhop1
G1 X81.9080 Y109.7700 F11000 ; custom feedrate
G1 X81.9080 Y109.5920
G1 X85.2400 Y108.5510
G1 X86.2000 Y108.2000
G1 Z3.360 F1200
G1 E0 F2400 ; custom un-retraction/prime
G92 E0.0000
G1 X89.1330 Y108.2000 E0.1475 F5280 ; custom feedrate
G1 X89.1330 Y111.8000 E0.3285
G1 X86.2000 Y111.8000 E0.4760
G1 X86.2000 Y108.2000 E0.6570
G1 X85.7200 Y107.7200 F11000 ; custom feedrate
G92 E0.0000
G1 X89.6130 Y107.7200 E0.1958 F5280 ; custom feedrate
G1 X89.6130 Y112.2800 E0.4251
G1 X85.7200 Y112.2800 E0.6208
G1 X85.7200 Y107.7200 E0.8501
G1 X85.2400 Y107.2400 F11000 ; custom feedrate
G92 E0.0000
G1 X90.0930 Y107.2400 E0.2440 F3960 ; custom feedrate
G1 X90.0930 Y112.7600 E0.5216
G1 X85.2400 Y112.7600 E0.7657
G1 X85.2400 Y107.2400 E1.0433
G92 E0.0000
G1 E-6 F2400 ; custom retraction
;zhop1
G1 X90.0930 Y107.3470 F11000 ; custom feedrate
G1 X127.9070 Y107.2400
G1 X127.9070 Y108.1790
G1 X128.8670 Y108.2000
G1 Z3.360 F1200
G1 E0 F2400 ; custom un-retraction/prime
G92 E0.0000
G1 X136.8000 Y108.2000 E0.3989 F5280 ; custom feedrate
G1 X136.8000 Y111.8000 E0.5800
G1 X128.8670 Y111.8000 E0.9789
G1 X128.8670 Y108.2000 E1.1599
G1 X128.3870 Y107.7200 F11000 ; custom feedrate
G92 E0.0000
G1 X137.2800 Y107.7200 E0.4472 F5280 ; custom feedrate
G1 X137.2800 Y112.2800 E0.6765
G1 X128.3870 Y112.2800 E1.1237
G1 X128.3870 Y107.7200 E1.3530
G1 X127.9070 Y107.2400 F11000 ; custom feedrate
G92 E0.0000
G1 X137.7600 Y107.2400 E0.4955 F3960 ; custom feedrate
G1 X137.7600 Y112.7600 E0.7731
G1 X127.9070 Y112.7600 E1.2686
G1 X127.9070 Y107.2400 E1.5462
G1 X129.7610 Y111.4520 F11000 ; custom feedrate
G92 E0.0000
G1 X132.6650 Y108.5480 E0.2582 F6600 ; custom feedrate
G1 X136.4520 Y108.5480 E0.4962
G1 X136.4520 Y109.0040 E0.5249
G1 X134.0040 Y111.4520 E0.7425
G92 E0.0000
G1 E-6 F2400 ; custom retraction
;layer 13, Z = 3.640
;fan13;
G1 Z3.640 F1200
G1 X136.8000 Y111.8000 F11000 ; custom feedrate
G1 E0 F2400 ; custom un-retraction/prime
G92 E0.0000
G1 X128.7760 Y111.8000 E0.4035 F5280 ; custom feedrate
G1 X128.7760 Y108.2000 E0.5845
G1 X136.8000 Y108.2000 E0.9881
G1 X136.8000 Y111.8000 E1.1691
G1 X137.2800 Y112.2800 F11000 ; custom feedrate
G92 E0.0000
G1 X128.2960 Y112.2800 E0.4518 F5280 ; custom feedrate
G1 X128.2960 Y107.7200 E0.6811
G1 X137.2800 Y107.7200 E1.1329
G1 X137.2800 Y112.2800 E1.3622
G1 X137.7600 Y112.7600 F11000 ; custom feedrate
G92 E0.0000
G1 X127.8160 Y112.7600 E0.5001 F3960 ; custom feedrate
G1 X127.8160 Y107.2400 E0.7777
G1 X137.7600 Y107.2400 E1.2777
G1 X137.7600 Y112.7600 E1.5553
G1 X134.0040 Y108.5480 F11000 ; custom feedrate
G92 E0.0000
G1 X136.4520 Y110.9960 E0.2176 F6600 ; custom feedrate
G1 X136.4520 Y111.4520 E0.2463
G1 X132.6650 Y111.4520 E0.4843
G1 X129.7610 Y108.5480 E0.7425
G92 E0.0000
G1 E-6 F2400 ; custom retraction
;zhop1
G1 X89.2240 Y108.2000 F11000 ; custom feedrate
G1 Z3.640 F1200
G1 E0 F2400 ; custom un-retraction/prime
G92 E0.0000
G1 X89.2240 Y111.8000 E0.1810 F5280 ; custom feedrate
G1 X86.2000 Y111.8000 E0.3331
G1 X86.2000 Y108.2000 E0.5141
G1 X89.2240 Y108.2000 E0.6662
G1 X89.7040 Y107.7200 F11000 ; custom feedrate
G92 E0.0000
G1 X89.7040 Y112.2800 E0.2293 F5280 ; custom feedrate
G1 X85.7200 Y112.2800 E0.4297
G1 X85.7200 Y107.7200 E0.6590
G1 X89.7040 Y107.7200 E0.8593
G1 X90.1840 Y107.2400 F11000 ; custom feedrate
G92 E0.0000
G1 X90.1840 Y112.7600 E0.2776 F3960 ; custom feedrate
G1 X85.2400 Y112.7600 E0.5262
G1 X85.2400 Y107.2400 E0.8038
G1 X90.1840 Y107.2400 E1.0524
G92 E0.0000
G1 E-6 F2400 ; custom retraction
;zhop1
G1 X81.8640 Y109.6360 F11000 ; custom feedrate
G1 Z3.640 F1200
G1 E0 F2400 ; custom un-retraction/prime
G92 E0.0000
G1 X81.8640 Y110.3640 E0.0366 F3960 ; custom feedrate
G1 X81.1360 Y110.3640 E0.0732
G1 X81.1360 Y109.6360 E0.1098
G1 X81.8640 Y109.6360 E0.1465
G1 X81.4240 Y109.9340 F11000 ; custom feedrate
G92 E0.0000
G1 X81.5650 Y110.0760 E0.0101 F6600 ; custom feedrate
G92 E0.0000
G1 E-6 F2400 ; custom retraction
;layer 14, Z = 3.920
;fan14;
G1 Z3.920 F1200
G1 X81.8200 Y110.3200 F11000 ; custom feedrate
G1 E0 F2400 ; custom un-retraction/prime
G92 E0.0000
G1 X81.1800 Y110.3200 E0.0322 F3960 ; custom feedrate
G1 X81.1800 Y109.6800 E0.0643
G1 X81.8200 Y109.6800 E0.0965
G1 X81.8200 Y110.3200 E0.1286
G1 X81.5210 Y109.9680 F11000 ; custom feedrate
G92 E0.0000
G1 X81.4680 Y110.0210 E0.0038 F6600 ; custom feedrate
G92 E0.0000
G1 E-6 F2400 ; custom retraction
;zhop1
G1 X81.8200 Y110.1530 F11000 ; custom feedrate
G1 X81.8200 Y110.3200
G1 X85.2400 Y111.4390
G1 X86.2000 Y111.8000
G1 Z3.920 F1200
G1 E0 F2400 ; custom un-retraction/prime
G92 E0.0000
G1 X86.2000 Y108.2000 E0.1810 F5280 ; custom feedrate
G1 X89.3270 Y108.2000 E0.3383
G1 X89.3270 Y111.8000 E0.5193
G1 X86.2000 Y111.8000 E0.6766
G1 X85.7200 Y112.2800 F11000 ; custom feedrate
G92 E0.0000
G1 X85.7200 Y107.7200 E0.2293 F5280 ; custom feedrate
G1 X89.8070 Y107.7200 E0.4348
G1 X89.8070 Y112.2800 E0.6642
G1 X85.7200 Y112.2800 E0.8697
G1 X85.2400 Y112.7600 F11000 ; custom feedrate
G92 E0.0000
G1 X85.2400 Y107.2400 E0.2776 F3960 ; custom feedrate
G1 X90.2870 Y107.2400 E0.5314
G1 X90.2870 Y112.7600 E0.8090
G1 X85.2400 Y112.7600 E1.0628
G92 E0.0000
G1 E-6 F2400 ; custom retraction
;zhop1
G1 X90.2870 Y112.6480 F11000 ; custom feedrate
G1 X127.7130 Y112.7600
G1 X127.7130 Y111.8210
G1 X128.6730 Y111.8000
G1 Z3.920 F1200
G1 E0 F2400 ; custom un-retraction/prime
G92 E0.0000
G1 X128.6730 Y108.2000 E0.1810 F5280 ; custom feedrate
G1 X136.8000 Y108.2000 E0.5897
G1 X136.8000 Y111.8000 E0.7708
G1 X128.6730 Y111.8000 E1.1795
G1 X128.1930 Y112.2800 F11000 ; custom feedrate
G92 E0.0000
G1 X128.1930 Y107.7200 E0.2293 F5280 ; custom feedrate
G1 X137.2800 Y107.7200 E0.6863
G1 X137.2800 Y112.2800 E0.9156
G1 X128.1930 Y112.2800 E1.3726
G1 X127.7130 Y112.7600 F11000 ; custom feedrate
G92 E0.0000
G1 X127.7130 Y107.2400 E0.2776 F3960 ; custom feedrate
G1 X137.7600 Y107.2400 E0.7829
G1 X137.7600 Y112.7600 E1.0604
G1 X127.7130 Y112.7600 E1.5657
G1 X129.7610 Y111.4520 F11000 ; custom feedrate
G92 E0.0000
G1 X132.6650 Y108.5480 E0.2582 F6600 ; custom feedrate
G1 X136.4520 Y108.5480 E0.4962
G1 X136.4520 Y109.0040 E0.5249
G1 X134.0040 Y111.4520 E0.7425
G92 E0.0000
G1 E-6 F2400 ; custom retraction
;layer 15, Z = 4.200
;fan15;
G1 Z4.200 F1200
G1 X136.8000 Y111.8000 F11000 ; custom feedrate
G1 E0 F2400 ; custom un-retraction/prime
G92 E0.0000
G1 X128.5570 Y111.8000 E0.4145 F5280 ; custom feedrate
G1 X128.5570 Y108.2000 E0.5956
G1 X136.8000 Y108.2000 E1.0101
G1 X136.8000 Y111.8000 E1.1911
G1 X137.2800 Y112.2800 F11000 ; custom feedrate
G92 E0.0000
G1 X128.0770 Y112.2800 E0.4628 F5280 ; custom feedrate
G1 X128.0770 Y107.7200 E0.6921
G1 X137.2800 Y107.7200 E1.1549
G1 X137.2800 Y112.2800 E1.3843
G1 X137.7600 Y112.7600 F11000 ; custom feedrate
G92 E0.0000
G1 X127.5970 Y112.7600 E0.5111 F3960 ; custom feedrate
G1 X127.5970 Y107.2400 E0.7887
G1 X137.7600 Y107.2400 E1.2998
G1 X137.7600 Y112.7600 E1.5774
G1 X134.0040 Y108.5480 F11000 ; custom feedrate
G92 E0.0000
G1 X136.4520 Y110.9960 E0.2176 F6600 ; custom feedrate
G1 X136.4520 Y111.4520 E0.2463
G1 X132.6650 Y111.4520 E0.4843
G1 X129.7610 Y108.5480 E0.7425
G92 E0.0000
G1 E-6 F2400 ; custom retraction
;zhop1
G1 X89.4430 Y108.2000 F11000 ; custom feedrate
G1 Z4.200 F1200
G1 E0 F2400 ; custom un-retraction/prime
G92 E0.0000
G1 X89.4430 Y111.8000 E0.1810 F5280 ; custom feedrate
G1 X86.2000 Y111.8000 E0.3441
G1 X86.2000 Y108.2000 E0.5252
G1 X89.4430 Y108.2000 E0.6882
G1 X89.9230 Y107.7200 F11000 ; custom feedrate
G92 E0.0000
G1 X89.9230 Y112.2800 E0.2293 F5280 ; custom feedrate
G1 X85.7200 Y112.2800 E0.4407
G1 X85.7200 Y107.7200 E0.6700
G1 X89.9230 Y107.7200 E0.8814
G1 X90.4030 Y107.2400 F11000 ; custom feedrate
G92 E0.0000
G1 X90.4030 Y112.7600 E0.2776 F3960 ; custom feedrate
G1 X85.2400 Y112.7600 E0.5372
G1 X85.2400 Y107.2400 E0.8148
G1 X90.4030 Y107.2400 E1.0745
G92 E0.0000
G1 E-6 F2400 ; custom retraction
;zhop1
G1 X81.7750 Y109.7250 F11000 ; custom feedrate
G1 Z4.200 F1200
G1 E0 F2400 ; custom un-retraction/prime
G92 E0.0000
G1 X81.7750 Y110.2750 E0.0277 F3960 ; custom feedrate
G1 X81.2250 Y110.2750 E0.0554
G1 X81.2250 Y109.7250 E0.0831
G1 X81.7750 Y109.7250 E0.1108
G92 E0.0000
G1 E-6 F2400 ; custom retraction
;layer 16, Z = 4.480
;fan16;
G1 Z4.480 F1200
G1 X81.7310 Y109.7690 F11000 ; custom feedrate
G1 E0 F2400 ; custom un-retraction/prime
G92 E0.0000
G1 X81.7310 Y110.2310 E0.0232 F3960 ; custom feedrate
G1 X81.2690 Y110.2310 E0.0465
G1 X81.2690 Y109.7690 E0.0697
G1 X81.7310 Y109.7690 E0.0929
G92 E0.0000
G1 E-6 F2400 ; custom retraction
;zhop1
G1 X86.2000 Y108.2000 F11000 ; custom feedrate
G1 Z4.480 F1200
G1 E0 F2400 ; custom un-retraction/prime
G92 E0.0000
G1 X89.5720 Y108.2000 E0.1696 F5280 ; custom feedrate
G1 X89.5720 Y111.8000 E0.3506
G1 X86.2000 Y111.8000 E0.5202
G1 X86.2000 Y108.2000 E0.7013
G1 X85.7200 Y107.7200 F11000 ; custom feedrate
G92 E0.0000
G1 X90.0520 Y107.7200 E0.2179 F5280 ; custom feedrate
G1 X90.0520 Y112.2800 E0.4472
G1 X85.7200 Y112.2800 E0.6651
G1 X85.7200 Y107.7200 E0.8944
G1 X85.2400 Y107.2400 F11000 ; custom feedrate
G92 E0.0000
G1 X90.5320 Y107.2400 E0.2661 F3960 ; custom feedrate
G1 X90.5320 Y112.7600 E0.5437
G1 X85.2400 Y112.7600 E0.8099
G1 X85.2400 Y107.2400 E1.0875
G92 E0.0000
G1 E-6 F2400 ; custom retraction
;zhop1
G1 X90.5320 Y107.3580 F11000 ; custom feedrate
G1 X127.4680 Y107.2400
G1 X127.4680 Y108.1790
G1 X128.4280 Y108.2000
G1 Z4.480 F1200
G1 E0 F2400 ; custom un-retraction/prime
G92 E0.0000
G1 X136.8000 Y108.2000 E0.4210 F5280 ; custom feedrate
G1 X136.8000 Y111.8000 E0.6021
G1 X128.4280 Y111.8000 E1.0231
G1 X128.4280 Y108.2000 E1.2042
G1 X127.9480 Y107.7200 F11000 ; custom feedrate
G92 E0.0000
G1 X137.2800 Y107.7200 E0.4693 F5280 ; custom feedrate
G1 X137.2800 Y112.2800 E0.6986
G1 X127.9480 Y112.2800 E1.1679
G1 X127.9480 Y107.7200 E1.3973
G1 X127.4680 Y107.2400 F11000 ; custom feedrate
G92 E0.0000
G1 X137.7600 Y107.2400 E0.5176 F3960 ; custom feedrate
G1 X137.7600 Y112.7600 E0.7952
G1 X127.4680 Y112.7600 E1.3128
G1 X127.4680 Y107.2400 E1.5904
G1 X129.7610 Y111.4520 F11000 ; custom feedrate
G92 E0.0000
G1 X132.6650 Y108.5480 E0.2582 F6600 ; custom feedrate
G1 X136.4520 Y108.5480 E0.4962
G1 X136.4520 Y109.0040 E0.5249
G1 X134.0040 Y111.4520 E0.7425
G92 E0.0000
G1 E-6 F2400 ; custom retraction
;layer 17, Z = 4.760
;fan17;
G1 Z4.760 F1200
G1 X136.8000 Y111.8000 F11000 ; custom feedrate
G1 E0 F2400 ; custom un-retraction/prime
G92 E0.0000
G1 X128.2840 Y111.8000 E0.4283 F5280 ; custom feedrate
G1 X128.2840 Y108.2000 E0.6093
G1 X136.8000 Y108.2000 E1.0376
G1 X136.8000 Y111.8000 E1.2186
G1 X137.2800 Y112.2800 F11000 ; custom feedrate
G92 E0.0000
G1 X127.8040 Y112.2800 E0.4765 F5280 ; custom feedrate
G1 X127.8040 Y107.7200 E0.7059
G1 X137.2800 Y107.7200 E1.1824
G1 X137.2800 Y112.2800 E1.4117
G1 X137.7600 Y112.7600 F11000 ; custom feedrate
G92 E0.0000
G1 X127.3240 Y112.7600 E0.5248 F3960 ; custom feedrate
G1 X127.3240 Y107.2400 E0.8024
G1 X137.7600 Y107.2400 E1.3272
G1 X137.7600 Y112.7600 E1.6048
G1 X134.0040 Y108.5480 F11000 ; custom feedrate
G92 E0.0000
G1 X136.4520 Y110.9960 E0.2176 F6600 ; custom feedrate
G1 X136.4520 Y111.4520 E0.2463
G1 X132.6650 Y111.4520 E0.4843
G1 X129.7610 Y108.5480 E0.7425
G92 E0.0000
G1 E-6 F2400 ; custom retraction
;zhop1
G1 X89.7160 Y108.2000 F11000 ; custom feedrate
G1 Z4.760 F1200
G1 E0 F2400 ; custom un-retraction/prime
G92 E0.0000
G1 X89.7160 Y111.8000 E0.1810 F5280 ; custom feedrate
G1 X86.2000 Y111.8000 E0.3579
G1 X86.2000 Y108.2000 E0.5389
G1 X89.7160 Y108.2000 E0.7157
G1 X90.1960 Y107.7200 F11000 ; custom feedrate
G92 E0.0000
G1 X90.1960 Y112.2800 E0.2293 F5280 ; custom feedrate
G1 X85.7200 Y112.2800 E0.4544
G1 X85.7200 Y107.7200 E0.6837
G1 X90.1960 Y107.7200 E0.9088
G1 X90.6760 Y107.2400 F11000 ; custom feedrate
G92 E0.0000
G1 X90.6760 Y112.7600 E0.2776 F3960 ; custom feedrate
G1 X85.2400 Y112.7600 E0.5510
G1 X85.2400 Y107.2400 E0.8286
G1 X90.6760 Y107.2400 E1.1019
G92 E0.0000
G1 E-6 F2400 ; custom retraction
;zhop1
G1 X85.2400 Y108.7960 F11000 ; custom feedrate
G1 X81.6870 Y109.8130
G1 Z4.760 F1200
G1 E0 F2400 ; custom un-retraction/prime
G92 E0.0000
G1 X81.6870 Y110.1870 E0.0188 F3960 ; custom feedrate
G1 X81.3130 Y110.1870 E0.0375
G1 X81.3130 Y109.8130 E0.0563
G1 X81.6870 Y109.8130 E0.0751
G92 E0.0000
G1 E-6 F2400 ; custom retraction
;layer 18, Z = 5.040
;fan18;
G1 Z5.040 F1200
G1 X81.6420 Y109.8580 F11000 ; custom feedrate
G1 E0 F2400 ; custom un-retraction/prime
G92 E0.0000
G1 X81.6420 Y110.1420 E0.0143 F3960 ; custom feedrate
G1 X81.3580 Y110.1420 E0.0286
G1 X81.3580 Y109.8580 E0.0429
G1 X81.6420 Y109.8580 E0.0573
G92 E0.0000
G1 E-6 F2400 ; custom retraction
;zhop1
G1 X86.2000 Y108.2000 F11000 ; custom feedrate
G1 Z5.040 F1200
G1 E0 F2400 ; custom un-retraction/prime
G92 E0.0000
G1 X89.8750 Y108.2000 E0.1848 F5280 ; custom feedrate
G1 X89.8750 Y111.8000 E0.3658
G1 X86.2000 Y111.8000 E0.5506
G1 X86.2000 Y108.2000 E0.7317
G1 X85.7200 Y107.7200 F11000 ; custom feedrate
G92 E0.0000
G1 X90.3550 Y107.7200 E0.2331 F5280 ; custom feedrate
G1 X90.3550 Y112.2800 E0.4624
G1 X85.7200 Y112.2800 E0.6955
G1 X85.7200 Y107.7200 E0.9248
G1 X85.2400 Y107.2400 F11000 ; custom feedrate
G92 E0.0000
G1 X90.8350 Y107.2400 E0.2814 F3960 ; custom feedrate
G1 X90.8350 Y112.7600 E0.5590
G1 X85.2400 Y112.7600 E0.8403
G1 X85.2400 Y107.2400 E1.1179
G92 E0.0000
G1 E-6 F2400 ; custom retraction
;zhop1
G1 X90.8350 Y107.3650 F11000 ; custom feedrate
G1 X127.1650 Y107.2400
G1 X127.1650 Y108.1790
G1 X128.1250 Y108.2000
G1 Z5.040 F1200
G1 E0 F2400 ; custom un-retraction/prime
G92 E0.0000
G1 X136.8000 Y108.2000 E0.4363 F5280 ; custom feedrate
G1 X136.8000 Y111.8000 E0.6173
G1 X128.1250 Y111.8000 E1.0535
G1 X128.1250 Y108.2000 E1.2346
G1 X127.6450 Y107.7200 F11000 ; custom feedrate
G92 E0.0000
G1 X137.2800 Y107.7200 E0.4845 F5280 ; custom feedrate
G1 X137.2800 Y112.2800 E0.7138
G1 X127.6450 Y112.2800 E1.1984
G1 X127.6450 Y107.7200 E1.4277
G1 X127.1650 Y107.2400 F11000 ; custom feedrate
G92 E0.0000
G1 X137.7600 Y107.2400 E0.5328 F3960 ; custom feedrate
G1 X137.7600 Y112.7600 E0.8104
G1 X127.1650 Y112.7600 E1.3432
G1 X127.1650 Y107.2400 E1.6208
G1 X129.7610 Y111.4520 F11000 ; custom feedrate
G92 E0.0000
G1 X132.6650 Y108.5480 E0.2582 F6600 ; custom feedrate
G1 X136.4520 Y108.5480 E0.4962
G1 X136.4520 Y109.0040 E0.5249
G1 X134.0040 Y111.4520 E0.7425
G92 E0.0000
G1 E-6 F2400 ; custom retraction
;layer 19, Z = 5.320
;fan19;
G1 Z5.320 F1200
G1 X136.8000 Y111.8000 F11000 ; custom feedrate
G1 E0 F2400 ; custom un-retraction/prime
G92 E0.0000
G1 X127.9500 Y111.8000 E0.4451 F5280 ; custom feedrate
G1 X127.9500 Y108.2000 E0.6261
G1 X136.8000 Y108.2000 E1.0712
G1 X136.8000 Y111.8000 E1.2522
G1 X137.2800 Y112.2800 F11000 ; custom feedrate
G92 E0.0000
G1 X127.4700 Y112.2800 E0.4933 F5280 ; custom feedrate
G1 X127.4700 Y107.7200 E0.7227
G1 X137.2800 Y107.7200 E1.2160
G1 X137.2800 Y112.2800 E1.4453
G1 X137.7600 Y112.7600 F11000 ; custom feedrate
G92 E0.0000
G1 X126.9900 Y112.7600 E0.5416 F3960 ; custom feedrate
G1 X126.9900 Y107.2400 E0.8192
G1 X137.7600 Y107.2400 E1.3608
G1 X137.7600 Y112.7600 E1.6384
G1 X134.0040 Y108.5480 F11000 ; custom feedrate
G92 E0.0000
G1 X136.4520 Y110.9960 E0.2176 F6600 ; custom feedrate
G1 X136.4520 Y111.4520 E0.2463
G1 X132.6650 Y111.4520 E0.4843
G1 X129.7610 Y108.5480 E0.7425
G1 X128.2980 Y108.5480 E0.8345
G1 X128.2980 Y111.3270 E1.0092
G1 X128.4230 Y111.4520 E1.0203
G92 E0.0000
G1 E-6 F2400 ; custom retraction
;zhop1
G1 X90.0500 Y111.8000 F11000 ; custom feedrate
G1 Z5.320 F1200
G1 E0 F2400 ; custom un-retraction/prime
G92 E0.0000
G1 X86.2000 Y111.8000 E0.1936 F5280 ; custom feedrate
G1 X86.2000 Y108.2000 E0.3747
G1 X90.0500 Y108.2000 E0.5683
G1 X90.0500 Y111.8000 E0.7493
G1 X90.5300 Y112.2800 F11000 ; custom feedrate
G92 E0.0000
G1 X85.7200 Y112.2800 E0.2419 F5280 ; custom feedrate
G1 X85.7200 Y107.7200 E0.4712
G1 X90.5300 Y107.7200 E0.7131
G1 X90.5300 Y112.2800 E0.9424
G1 X91.0100 Y112.7600 F11000 ; custom feedrate
G92 E0.0000
G1 X85.2400 Y112.7600 E0.2902 F3960 ; custom feedrate
G1 X85.2400 Y107.2400 E0.5678
G1 X91.0100 Y107.2400 E0.8580
G1 X91.0100 Y112.7600 E1.1355
G92 E0.0000
G1 E-6 F2400 ; custom retraction
;zhop1
G1 X81.5980 Y110.0980 F11000 ; custom feedrate
G1 Z5.320 F1200
G1 E0 F2400 ; custom un-retraction/prime
G92 E0.0000
G1 X81.4020 Y110.0980 E0.0099 F3960 ; custom feedrate
G1 X81.4020 Y109.9020 E0.0197
G1 X81.5980 Y109.9020 E0.0296
G1 X81.5980 Y110.0980 E0.0394
G92 E0.0000
G1 E-6 F2400 ; custom retraction
;layer 20, Z = 5.600
;fan20;
G1 Z5.600 F1200
G1 X81.5540 Y110.0540 F11000 ; custom feedrate
G1 E0 F2400 ; custom un-retraction/prime
G92 E0.0000
G1 X81.4460 Y110.0540 E0.0054 F3960 ; custom feedrate
G1 X81.4460 Y109.9460 E0.0108
G1 X81.5540 Y109.9460 E0.0162
G1 X81.5540 Y110.0540 E0.0216
G92 E0.0000
G1 E-6 F2400 ; custom retraction
;zhop1
G1 X86.2000 Y111.8000 F11000 ; custom feedrate
G1 Z5.600 F1200
G1 E0 F2400 ; custom un-retraction/prime
G92 E0.0000
G1 X86.2000 Y108.2000 E0.1810 F5280 ; custom feedrate
G1 X90.2430 Y108.2000 E0.3844
G1 X90.2430 Y111.8000 E0.5654
G1 X86.2000 Y111.8000 E0.7688
G1 X85.7200 Y112.2800 F11000 ; custom feedrate
G92 E0.0000
G1 X85.7200 Y107.7200 E0.2293 F5280 ; custom feedrate
G1 X90.7230 Y107.7200 E0.4809
G1 X90.7230 Y112.2800 E0.7103
G1 X85.7200 Y112.2800 E0.9619
G1 X85.2400 Y112.7600 F11000 ; custom feedrate
G92 E0.0000
G1 X85.2400 Y107.2400 E0.2776 F3960 ; custom feedrate
G1 X91.2030 Y107.2400 E0.5775
G1 X91.2030 Y112.7600 E0.8551
G1 X85.2400 Y112.7600 E1.1550
G1 X89.9080 Y111.0850 F11000 ; custom feedrate
G92 E0.0000
G1 X89.9550 Y111.0380 E0.0034 F5280 ; custom feedrate
G1 X89.9550 Y110.3590 E0.0375
G1 X89.9080 Y110.4060 E0.0409
G1 X89.9080 Y109.7270 E0.0750
G1 X89.9550 Y109.6800 E0.0784
G1 X89.9550 Y109.0010 E0.1125
G1 X89.9080 Y109.0490 E0.1159
G92 E0.0000
G1 E-6 F2400 ; custom retraction
;zhop1
G1 X127.7570 Y108.2000 F11000 ; custom feedrate
G1 Z5.600 F1200
G1 E0 F2400 ; custom un-retraction/prime
G92 E0.0000
G1 X136.8000 Y108.2000 E0.4548 F5280 ; custom feedrate
G1 X136.8000 Y111.8000 E0.6358
G1 X127.7570 Y111.8000 E1.0906
G1 X127.7570 Y108.2000 E1.2717
G1 X127.2770 Y107.7200 F11000 ; custom feedrate
G92 E0.0000
G1 X137.2800 Y107.7200 E0.5031 F5280 ; custom feedrate
G1 X137.2800 Y112.2800 E0.7324
G1 X127.2770 Y112.2800 E1.2354
G1 X127.2770 Y107.7200 E1.4648
G1 X126.7970 Y107.2400 F11000 ; custom feedrate
G92 E0.0000
G1 X137.7600 Y107.2400 E0.5513 F3960 ; custom feedrate
G1 X137.7600 Y112.7600 E0.8289
G1 X126.7970 Y112.7600 E1.3803
G1 X126.7970 Y107.2400 E1.6579
G1 X128.0450 Y108.9260 F11000 ; custom feedrate
G92 E0.0000
G1 X128.0920 Y108.8790 E0.0034 F5280 ; custom feedrate
G1 X128.0920 Y109.5570 E0.0375
G1 X128.0450 Y109.6050 E0.0409
G1 X128.0450 Y110.2840 E0.0750
G1 X128.0920 Y110.2360 E0.0784
G1 X128.0920 Y110.9150 E0.1125
G1 X128.0450 Y110.9620 E0.1159
G1 X129.7610 Y111.4520 F11000 ; custom feedrate
G92 E0.0000
G1 X132.6650 Y108.5480 E0.2582 F6600 ; custom feedrate
G1 X136.4520 Y108.5480 E0.4962
G1 X136.4520 Y109.0040 E0.5249
G1 X134.0040 Y111.4520 E0.7425
G92 E0.0000
G1 E-6 F2400 ; custom retraction
;layer 21, Z = 5.880
;fan21;
G1 Z5.880 F1200
G1 X136.8000 Y111.8000 F11000 ; custom feedrate
G1 E0 F2400 ; custom un-retraction/prime
G92 E0.0000
G1 X127.5440 Y111.8000 E0.4655 F5280 ; custom feedrate
G1 X127.5440 Y108.2000 E0.6465
G1 X136.8000 Y108.2000 E1.1120
G1 X136.8000 Y111.8000 E1.2931
G1 X137.2800 Y112.2800 F11000 ; custom feedrate
G92 E0.0000
G1 X127.0640 Y112.2800 E0.5138 F5280 ; custom feedrate
G1 X127.0640 Y107.7200 E0.7431
G1 X137.2800 Y107.7200 E1.2568
G1 X137.2800 Y112.2800 E1.4862
G1 X137.7600 Y112.7600 F11000 ; custom feedrate
G92 E0.0000
G1 X126.5840 Y112.7600 E0.5620 F3960 ; custom feedrate
G1 X126.5840 Y107.2400 E0.8396
G1 X137.7600 Y107.2400 E1.4017
G1 X137.7600 Y112.7600 E1.6793
G1 X127.8320 Y110.8610 F11000 ; custom feedrate
G92 E0.0000
G1 X127.9330 Y110.9630 E0.0072 F5280 ; custom feedrate
G1 X127.9330 Y110.2840 E0.0413
G1 X127.8320 Y110.1820 E0.0486
G1 X127.8320 Y109.5040 E0.0827
G1 X127.9330 Y109.6050 E0.0899
G1 X127.9330 Y108.9260 E0.1240
G1 X127.8320 Y108.8250 E0.1313
G1 X129.7610 Y108.5480 F11000 ; custom feedrate
G92 E0.0000
G1 X132.6650 Y111.4520 E0.2582 F6600 ; custom feedrate
G1 X136.4520 Y111.4520 E0.4962
G1 X136.4520 Y110.9960 E0.5249
G1 X134.0040 Y108.5480 E0.7425
G92 E0.0000
G1 E-6 F2400 ; custom retraction
;zhop1
G1 X90.4560 Y108.2000 F11000 ; custom feedrate
G1 Z5.880 F1200
G1 E0 F2400 ; custom un-retraction/prime
G92 E0.0000
G1 X90.4560 Y111.8000 E0.1810 F5280 ; custom feedrate
G1 X86.2000 Y111.8000 E0.3951
G1 X86.2000 Y110.5020 E0.4603
G1 X85.8560 Y110.3050 E0.4803
G1 X85.8560 Y109.6950 E0.5110
G1 X86.2000 Y109.4980 E0.5309
G1 X86.2000 Y108.2000 E0.5962
G1 X90.4560 Y108.2000 E0.8102
G1 X90.9360 Y107.7200 F11000 ; custom feedrate
G92 E0.0000
G1 X90.9360 Y112.2800 E0.2293 F5280 ; custom feedrate
G1 X85.7200 Y112.2800 E0.4916
G1 X85.7200 Y110.7800 E0.5671
G1 X85.3760 Y110.5830 E0.5870
G1 X85.3760 Y109.4170 E0.6456
G1 X85.7200 Y109.2200 E0.6656
G1 X85.7200 Y107.7200 E0.7410
G1 X90.9360 Y107.7200 E1.0033
G1 X91.4160 Y107.2400 F11000 ; custom feedrate
G92 E0.0000
G1 X91.4160 Y112.7600 E0.2776 F3960 ; custom feedrate
G1 X85.2400 Y112.7600 E0.5882
G1 X85.2400 Y111.0580 E0.6738
G1 X84.8960 Y110.8610 E0.6937
G1 X84.8960 Y109.1390 E0.7803
G1 X85.2400 Y108.9420 E0.8003
G1 X85.2400 Y107.2400 E0.8858
G1 X91.4160 Y107.2400 E1.1964
G1 X90.1600 Y108.4880 F11000 ; custom feedrate
G92 E0.0000
G1 X90.1680 Y108.4960 E0.0006 F5280 ; custom feedrate
G1 X90.1680 Y109.1750 E0.0347
G1 X90.0670 Y109.0740 E0.0419
G1 X90.0670 Y109.7530 E0.0761
G1 X90.1680 Y109.8540 E0.0833
G1 X90.1680 Y110.5330 E0.1174
G1 X90.0670 Y110.4310 E0.1246
G1 X90.0670 Y111.1100 E0.1588
G1 X90.1680 Y111.2120 E0.1660
G92 E0.0000
G1 E-6 F2400 ; custom retraction
;zhop1
G1 X81.5090 Y110.0090 F11000 ; custom feedrate
G1 Z5.880 F1200
G1 E0 F2400 ; custom un-retraction/prime
G92 E0.0000
G1 X81.4910 Y110.0090 E0.0009 F3960 ; custom feedrate
G1 X81.4910 Y109.9910 E0.0019
G1 X81.5090 Y109.9910 E0.0028
G1 X81.5090 Y110.0090 E0.0037
G92 E0.0000
G1 E-6 F2400 ; custom retraction
;layer 22, Z = 6.160
;fan22;
G1 Z6.160 F1200
G1 X85.4560 Y110.3050 F11000 ; custom feedrate
G1 E0 F2400 ; custom un-retraction/prime
G92 E0.0000
G1 X85.4560 Y109.6950 E0.0307 F5280 ; custom feedrate
G1 X86.2000 Y109.2680 E0.0738
G1 X86.2000 Y108.2000 E0.1275
G1 X90.6910 Y108.2000 E0.3534
G1 X90.6910 Y111.8000 E0.5344
G1 X86.2000 Y111.8000 E0.7602
G1 X86.2000 Y110.7320 E0.8140
G1 X85.4560 Y110.3050 E0.8571
G1 X84.9760 Y110.5830 F11000 ; custom feedrate
G92 E0.0000
G1 X84.9760 Y109.4170 E0.0586 F5280 ; custom feedrate
G1 X85.7200 Y108.9900 E0.1018
G1 X85.7200 Y107.7200 E0.1657
G1 X91.1710 Y107.7200 E0.4398
G1 X91.1710 Y112.2800 E0.6691
G1 X85.7200 Y112.2800 E0.9432
G1 X85.7200 Y111.0100 E1.0071
G1 X84.9760 Y110.5830 E1.0502
G1 X84.4960 Y110.8610 F11000 ; custom feedrate
G92 E0.0000
G1 X84.4960 Y109.1390 E0.0866 F3960 ; custom feedrate
G1 X85.2400 Y108.7120 E0.1297
G1 X85.2400 Y107.2400 E0.2038
G1 X91.6510 Y107.2400 E0.5262
G1 X91.6510 Y112.7600 E0.8038
G1 X85.2400 Y112.7600 E1.1261
G1 X85.2400 Y111.2880 E1.2002
G1 X84.4960 Y110.8610 E1.2433
G1 X85.9720 Y110.2690 F11000 ; custom feedrate
G92 E0.0000
G1 X86.0080 Y110.2330 E0.0025 F5280 ; custom feedrate
G1 X90.2420 Y108.7140 F11000 ; custom feedrate
G92 E0.0000
G1 X90.4030 Y108.5540 E0.0114 F5280 ; custom feedrate
G1 X90.4030 Y109.2330 E0.0456
G1 X90.2420 Y109.3930 E0.0570
G1 X90.2420 Y110.0720 E0.0911
G1 X90.4030 Y109.9120 E0.1025
G1 X90.4030 Y110.5900 E0.1367
G1 X90.2420 Y110.7510 E0.1481
G1 X90.2420 Y111.4300 E0.1822
G1 X90.4030 Y111.2690 E0.1936
G92 E0.0000
G1 E-6 F2400 ; custom retraction
;zhop1
G1 X127.3090 Y111.8000 F11000 ; custom feedrate
G1 Z6.160 F1200
G1 E0 F2400 ; custom un-retraction/prime
G92 E0.0000
G1 X127.3090 Y108.2000 E0.1810 F5280 ; custom feedrate
G1 X136.8000 Y108.2000 E0.6583
G1 X136.8000 Y111.8000 E0.8394
G1 X127.3090 Y111.8000 E1.3166
G1 X126.8290 Y112.2800 F11000 ; custom feedrate
G92 E0.0000
G1 X126.8290 Y107.7200 E0.2293 F5280 ; custom feedrate
G1 X137.2800 Y107.7200 E0.7549
G1 X137.2800 Y112.2800 E0.9842
G1 X126.8290 Y112.2800 E1.5097
G1 X126.3490 Y112.7600 F11000 ; custom feedrate
G92 E0.0000
G1 X126.3490 Y107.2400 E0.2776 F3960 ; custom feedrate
G1 X137.7600 Y107.2400 E0.8514
G1 X137.7600 Y112.7600 E1.1290
G1 X126.3490 Y112.7600 E1.7029
G1 X127.7580 Y111.2490 F11000 ; custom feedrate
G92 E0.0000
G1 X127.5970 Y111.4100 E0.0114 F5280 ; custom feedrate
G1 X127.5970 Y110.7310 E0.0455
G1 X127.7580 Y110.5700 E0.0570
G1 X127.7580 Y109.8920 E0.0911
G1 X127.5970 Y110.0520 E0.1025
G1 X127.5970 Y109.3730 E0.1366
G1 X127.7580 Y109.2130 E0.1481
G1 X127.7580 Y108.5340 E0.1822
G1 X127.5970 Y108.6940 E0.1936
G1 X128.2980 Y108.6730 F11000 ; custom feedrate
G92 E0.0000
G1 X128.4230 Y108.5480 E0.0111 F6600 ; custom feedrate
G1 X132.6650 Y108.5480 E0.2778
G1 X129.7610 Y111.4520 E0.5360
G1 X134.0040 Y111.4520 E0.8027
G1 X136.4520 Y109.0040 E1.0203
G92 E0.0000
G1 E-6 F2400 ; custom retraction
;layer 23, Z = 6.440
;fan23;
G1 Z6.440 F1200
G1 X136.8000 Y108.2000 F11000 ; custom feedrate
G1 E0 F2400 ; custom un-retraction/prime
G92 E0.0000
G1 X136.8000 Y111.8000 E0.1810 F5280 ; custom feedrate
G1 X127.0510 Y111.8000 E0.6713
G1 X127.0510 Y108.2000 E0.8524
G1 X136.8000 Y108.2000 E1.3426
G1 X137.2800 Y107.7200 F11000 ; custom feedrate
G92 E0.0000
G1 X137.2800 Y112.2800 E0.2293 F5280 ; custom feedrate
G1 X126.5710 Y112.2800 E0.7679
G1 X126.5710 Y107.7200 E0.9972
G1 X137.2800 Y107.7200 E1.5358
G1 X137.7600 Y107.2400 F11000 ; custom feedrate
G92 E0.0000
G1 X137.7600 Y112.7600 E0.2776 F3960 ; custom feedrate
G1 X126.0910 Y112.7600 E0.8644
G1 X126.0910 Y107.2400 E1.1420
G1 X137.7600 Y107.2400 E1.7289
G1 X127.4950 Y108.4880 F11000 ; custom feedrate
G92 E0.0000
G1 X127.5650 Y108.5580 E0.0049 F5280 ; custom feedrate
G1 X127.5650 Y109.2360 E0.0391
G1 X127.3390 Y109.0110 E0.0551
G1 X127.3390 Y109.6890 E0.0893
G1 X127.5650 Y109.9150 E0.1053
G1 X127.5650 Y110.5940 E0.1395
G1 X127.3390 Y110.3680 E0.1555
G1 X127.3390 Y111.0470 E0.1897
G1 X127.5650 Y111.2730 E0.2058
G1 X128.4230 Y111.4520 F11000 ; custom feedrate
G92 E0.0000
G1 X128.1050 Y111.1340 E0.0283 F6600 ; custom feedrate
G1 X128.1050 Y108.5480 E0.1908
G1 X129.7610 Y108.5480 E0.2950
G1 X132.6650 Y111.4520 E0.5531
G1 X136.4520 Y111.4520 E0.7912
G1 X136.4520 Y110.9960 E0.8198
G1 X134.0040 Y108.5480 E1.0375
G92 E0.0000
G1 E-6 F2400 ; custom retraction
;zhop1
G1 X90.9490 Y108.2000 F11000 ; custom feedrate
G1 Z6.440 F1200
G1 E0 F2400 ; custom un-retraction/prime
G92 E0.0000
G1 X90.9490 Y111.8000 E0.1810 F5280 ; custom feedrate
G1 X86.2000 Y111.8000 E0.4199
G1 X86.2000 Y110.9610 E0.4621
G1 X85.0560 Y110.3050 E0.5284
G1 X85.0560 Y109.6950 E0.5591
G1 X86.2000 Y109.0390 E0.6254
G1 X86.2000 Y108.2000 E0.6676
G1 X90.9490 Y108.2000 E0.9064
G1 X91.4290 Y107.7200 F11000 ; custom feedrate
G92 E0.0000
G1 X91.4290 Y112.2800 E0.2293 F5280 ; custom feedrate
G1 X85.7200 Y112.2800 E0.5164
G1 X85.7200 Y111.2390 E0.5688
G1 X84.5760 Y110.5830 E0.6351
G1 X84.5760 Y109.4170 E0.6937
G1 X85.7200 Y108.7610 E0.7601
G1 X85.7200 Y107.7200 E0.8124
G1 X91.4290 Y107.7200 E1.0995
G1 X91.9090 Y107.2400 F11000 ; custom feedrate
G92 E0.0000
G1 X91.9090 Y112.7600 E0.2776 F3960 ; custom feedrate
G1 X85.2400 Y112.7600 E0.6130
G1 X85.2400 Y111.5170 E0.6755
G1 X84.0960 Y110.8610 E0.7418
G1 X84.0960 Y109.1390 E0.8284
G1 X85.2400 Y108.4830 E0.8947
G1 X85.2400 Y107.2400 E0.9572
G1 X91.9090 Y107.2400 E1.2926
G1 X90.4350 Y108.7640 F11000 ; custom feedrate
G92 E0.0000
G1 X90.6610 Y108.9890 E0.0161 F5280 ; custom feedrate
G1 X90.6610 Y109.6680 E0.0502
G1 X90.4350 Y109.4420 E0.0663
G1 X90.4350 Y110.1210 E0.1004
G1 X90.6610 Y110.3470 E0.1165
G1 X90.6610 Y111.0260 E0.1506
G1 X90.4350 Y110.8000 E0.1667
G1 X90.4350 Y111.4790 E0.2008
G1 X90.4690 Y111.5120 E0.2032
G1 X85.8260 Y109.5850 F11000 ; custom feedrate
G92 E0.0000
G1 X86.0080 Y109.7670 E0.0129 F5280 ; custom feedrate
G1 X86.0080 Y110.4460 E0.0471
G1 X85.3950 Y109.8330 E0.0906
G92 E0.0000
G1 E-6 F2400 ; custom retraction
;layer 24, Z = 6.720
;fan24;
G1 Z6.720 F1200
G1 X84.6560 Y109.6950 F11000 ; custom feedrate
G1 E0 F2400 ; custom un-retraction/prime
G92 E0.0000
G1 X86.2000 Y108.8100 E0.0895 F5280 ; custom feedrate
G1 X86.2000 Y108.2000 E0.1202
G1 X91.2350 Y108.2000 E0.3734
G1 X91.2350 Y111.8000 E0.5544
G1 X86.2000 Y111.8000 E0.8076
G1 X86.2000 Y111.1900 E0.8383
G1 X84.6560 Y110.3050 E0.9278
G1 X84.6560 Y109.6950 E0.9585
G1 X84.1760 Y109.4170 F11000 ; custom feedrate
G92 E0.0000
G1 X85.7200 Y108.5320 E0.0895 F5280 ; custom feedrate
G1 X85.7200 Y107.7200 E0.1303
G1 X91.7150 Y107.7200 E0.4318
G1 X91.7150 Y112.2800 E0.6611
G1 X85.7200 Y112.2800 E0.9626
G1 X85.7200 Y111.4680 E1.0034
G1 X84.1760 Y110.5830 E1.0929
G1 X84.1760 Y109.4170 E1.1516
G1 X83.6960 Y109.1390 F11000 ; custom feedrate
G92 E0.0000
G1 X85.2400 Y108.2530 E0.0895 F3960 ; custom feedrate
G1 X85.2400 Y107.2400 E0.1405
G1 X92.1950 Y107.2400 E0.4902
G1 X92.1950 Y112.7600 E0.7678
G1 X85.2400 Y112.7600 E1.1176
G1 X85.2400 Y111.7470 E1.1686
G1 X83.6960 Y110.8610 E1.2581
G1 X83.6960 Y109.1390 E1.3447
G1 X84.9440 Y109.9390 F11000 ; custom feedrate
G92 E0.0000
G1 X85.1260 Y109.7580 E0.0129 F5280 ; custom feedrate
G1 X86.0080 Y109.2520 E0.0641
G1 X86.0080 Y109.3860 E0.0708
G1 X85.6640 Y109.5840 E0.0908
G1 X85.6640 Y109.8990 E0.1066
G1 X85.2490 Y110.3130 E0.1361
G1 X85.6810 Y110.5610 E0.1611
G1 X85.7660 Y110.4750 E0.1672
G1 X90.6480 Y108.9870 F11000 ; custom feedrate
G92 E0.0000
G1 X90.9470 Y108.6880 E0.0213 F5280 ; custom feedrate
G1 X90.9470 Y109.3670 E0.0554
G1 X90.6480 Y109.6660 E0.0767
G1 X90.6480 Y110.3450 E0.1108
G1 X90.9470 Y110.0460 E0.1320
G1 X90.9470 Y110.7250 E0.1662
G1 X90.6480 Y111.0240 E0.1874
G1 X90.6480 Y111.5120 E0.2120
G1 X90.8390 Y111.5120 E0.2216
G1 X90.9470 Y111.4040 E0.2293
G92 E0.0000
G1 E-6 F2400 ; custom retraction
;zhop1
G1 X126.7650 Y111.8000 F11000 ; custom feedrate
G1 Z6.720 F1200
G1 E0 F2400 ; custom un-retraction/prime
G92 E0.0000
G1 X126.7650 Y108.2000 E0.1810 F5280 ; custom feedrate
G1 X136.8000 Y108.2000 E0.6857
G1 X136.8000 Y111.8000 E0.8667
G1 X126.7650 Y111.8000 E1.3714
G1 X126.2850 Y112.2800 F11000 ; custom feedrate
G92 E0.0000
G1 X126.2850 Y107.7200 E0.2293 F5280 ; custom feedrate
G1 X137.2800 Y107.7200 E0.7823
G1 X137.2800 Y112.2800 E1.0116
G1 X126.2850 Y112.2800 E1.5645
G1 X125.8050 Y112.7600 F11000 ; custom feedrate
G92 E0.0000
G1 X125.8050 Y107.2400 E0.2776 F3960 ; custom feedrate
G1 X137.7600 Y107.2400 E0.8788
G1 X137.7600 Y112.7600 E1.1564
G1 X125.8050 Y112.7600 E1.7576
G1 X127.3520 Y110.9760 F11000 ; custom feedrate
G92 E0.0000
G1 X127.0530 Y111.2750 E0.0213 F5280 ; custom feedrate
G1 X127.0530 Y110.5960 E0.0554
G1 X127.3520 Y110.2980 E0.0767
G1 X127.3520 Y109.6190 E0.1108
G1 X127.0530 Y109.9180 E0.1320
G1 X127.0530 Y109.2390 E0.1662
G1 X127.3520 Y108.9400 E0.1874
G1 X127.3520 Y108.4880 E0.2102
G1 X127.1250 Y108.4880 E0.2216
G1 X127.0530 Y108.5600 E0.2267
G1 X127.8920 Y109.0790 F11000 ; custom feedrate
G92 E0.0000
G1 X128.4230 Y108.5480 E0.0472 F6600 ; custom feedrate
G1 X132.6650 Y108.5480 E0.3139
G1 X129.7610 Y111.4520 E0.5721
G1 X134.0040 Y111.4520 E0.8388
G1 X136.4520 Y109.0040 E1.0564
G92 E0.0000
G1 E-6 F2400 ; custom retraction
;layer 25, Z = 7.000
;fan25;
G1 Z7.000 F1200
G1 X136.8000 Y108.2000 F11000 ; custom feedrate
G1 E0 F2400 ; custom un-retraction/prime
G92 E0.0000
G1 X136.8000 Y111.8000 E0.1810 F5280 ; custom feedrate
G1 X126.4480 Y111.8000 E0.7016
G1 X126.4480 Y108.2000 E0.8827
G1 X136.8000 Y108.2000 E1.4033
G1 X137.2800 Y107.7200 F11000 ; custom feedrate
G92 E0.0000
G1 X137.2800 Y112.2800 E0.2293 F5280 ; custom feedrate
G1 X125.9680 Y112.2800 E0.7982
G1 X125.9680 Y107.7200 E1.0275
G1 X137.2800 Y107.7200 E1.5964
G1 X137.7600 Y107.2400 F11000 ; custom feedrate
G92 E0.0000
G1 X137.7600 Y112.7600 E0.2776 F3960 ; custom feedrate
G1 X125.4880 Y112.7600 E0.8947
G1 X125.4880 Y107.2400 E1.1723
G1 X137.7600 Y107.2400 E1.7895
G1 X126.8160 Y108.4880 F11000 ; custom feedrate
G92 E0.0000
G1 X127.1170 Y108.7890 E0.0214 F5280 ; custom feedrate
G1 X127.1170 Y109.4680 E0.0556
G1 X126.7360 Y109.0870 E0.0827
G1 X126.7360 Y109.7650 E0.1168
G1 X127.1170 Y110.1470 E0.1439
G1 X127.1170 Y110.8260 E0.1781
G1 X126.7360 Y110.4440 E0.2052
G1 X126.7360 Y111.1230 E0.2393
G1 X127.1170 Y111.5040 E0.2665
G1 X128.4230 Y111.4520 F11000 ; custom feedrate
G92 E0.0000
G1 X127.6570 Y110.6870 E0.0680 F6600 ; custom feedrate
G1 X127.6570 Y108.5480 E0.2025
G1 X129.7610 Y108.5480 E0.3347
G1 X132.6650 Y111.4520 E0.5929
G1 X136.4520 Y111.4520 E0.8309
G1 X136.4520 Y110.9960 E0.8596
G1 X134.0040 Y108.5480 E1.0772
G92 E0.0000
G1 E-6 F2400 ; custom retraction
;zhop1
G1 X91.5520 Y108.2000 F11000 ; custom feedrate
G1 Z7.000 F1200
G1 E0 F2400 ; custom un-retraction/prime
G92 E0.0000
G1 X91.5520 Y111.8000 E0.1810 F5280 ; custom feedrate
G1 X86.2000 Y111.8000 E0.4502
G1 X86.2000 Y111.4200 E0.4693
G1 X84.2560 Y110.3050 E0.5820
G1 X84.2560 Y109.6950 E0.6127
G1 X86.2000 Y108.5800 E0.7254
G1 X86.2000 Y108.2000 E0.7445
G1 X91.5520 Y108.2000 E1.0136
G1 X92.0320 Y107.7200 F11000 ; custom feedrate
G92 E0.0000
G1 X92.0320 Y112.2800 E0.2293 F5280 ; custom feedrate
G1 X85.7200 Y112.2800 E0.5467
G1 X85.7200 Y111.6980 E0.5760
G1 X83.7760 Y110.5830 E0.6887
G1 X83.7760 Y109.4170 E0.7473
G1 X85.7200 Y108.3020 E0.8600
G1 X85.7200 Y107.7200 E0.8893
G1 X92.0320 Y107.7200 E1.2067
G1 X92.5120 Y107.2400 F11000 ; custom feedrate
G92 E0.0000
G1 X92.5120 Y112.7600 E0.2776 F3960 ; custom feedrate
G1 X85.2400 Y112.7600 E0.6433
G1 X85.2400 Y111.9760 E0.6827
G1 X83.2960 Y110.8610 E0.7954
G1 X83.2960 Y109.1390 E0.8820
G1 X85.2400 Y108.0240 E0.9947
G1 X85.2400 Y107.2400 E1.0341
G1 X92.5120 Y107.2400 E1.3998
G1 X90.8830 Y108.5320 F11000 ; custom feedrate
G92 E0.0000
G1 X91.2640 Y108.9130 E0.0271 F5280 ; custom feedrate
G1 X91.2640 Y109.5920 E0.0613
G1 X90.8830 Y109.2110 E0.0884
G1 X90.8830 Y109.8900 E0.1225
G1 X91.2640 Y110.2710 E0.1496
G1 X91.2640 Y110.9500 E0.1838
G1 X90.8830 Y110.5680 E0.2109
G1 X90.8830 Y111.2470 E0.2450
G1 X91.1470 Y111.5120 E0.2639
G1 X85.9660 Y109.0460 F11000 ; custom feedrate
G92 E0.0000
G1 X86.0080 Y109.0880 E0.0030 F5280 ; custom feedrate
G1 X86.0080 Y109.1570 E0.0064
G1 X85.6210 Y109.3790 E0.0289
G1 X85.5350 Y109.2940 E0.0350
G1 X85.1040 Y109.5410 E0.0600
G1 X85.2640 Y109.7010 E0.0714
G1 X85.2640 Y110.3800 E0.1055
G1 X84.6720 Y109.7890 E0.1476
G1 X84.5440 Y109.8620 E0.1550
G1 X84.5440 Y110.1380 E0.1689
G1 X85.6640 Y110.7800 E0.2338
G1 X85.3480 Y110.4640 E0.2563
G92 E0.0000
G1 E-6 F2400 ; custom retraction
;layer 26, Z = 7.280
;fan26;
G1 Z7.280 F1200
G1 X86.2000 Y111.6490 F11000 ; custom feedrate
G1 E0 F2400 ; custom un-retraction/prime
G92 E0.0000
G1 X83.8560 Y110.3050 E0.1359 F5280 ; custom feedrate
G1 X83.8560 Y109.6950 E0.1665
G1 X86.2000 Y108.3510 E0.3024
G1 X86.2000 Y108.2000 E0.3100
G1 X91.9130 Y108.2000 E0.5973
G1 X91.9130 Y111.8000 E0.7783
G1 X86.2000 Y111.8000 E1.0656
G1 X86.2000 Y111.6490 E1.0732
G1 X85.7200 Y111.9270 F11000 ; custom feedrate
G92 E0.0000
G1 X83.3760 Y110.5830 E0.1359 F5280 ; custom feedrate
G1 X83.3760 Y109.4170 E0.1945
G1 X85.7200 Y108.0730 E0.3304
G1 X85.7200 Y107.7200 E0.3481
G1 X92.3930 Y107.7200 E0.6837
G1 X92.3930 Y112.2800 E0.9130
G1 X85.7200 Y112.2800 E1.2486
G1 X85.7200 Y111.9270 E1.2663
G1 X85.2400 Y112.2050 F11000 ; custom feedrate
G92 E0.0000
G1 X82.8960 Y110.8610 E0.1359 F3960 ; custom feedrate
G1 X82.8960 Y109.1390 E0.2225
G1 X85.2400 Y107.7950 E0.3583
G1 X85.2400 Y107.2400 E0.3862
G1 X92.8730 Y107.2400 E0.7701
G1 X92.8730 Y112.7600 E1.0477
G1 X85.2400 Y112.7600 E1.4315
G1 X85.2400 Y112.2050 E1.4594
G1 X85.9060 Y111.0140 F11000 ; custom feedrate
G92 E0.0000
G1 X85.8210 Y111.0990 E0.0061 F5280 ; custom feedrate
G1 X85.3890 Y110.8520 E0.0311
G1 X85.4750 Y110.7660 E0.0372
G1 X85.0430 Y110.5190 E0.0622
G1 X84.9580 Y110.6050 E0.0683
G1 X84.5260 Y110.3570 E0.0933
G1 X84.8640 Y110.0200 E0.1173
G1 X84.8640 Y109.5840 E0.1392
G1 X85.8860 Y108.9980 E0.1985
G1 X86.0080 Y108.8760 E0.2071
G1 X86.0080 Y108.7930 E0.2113
G1 X84.6100 Y109.5950 E0.2924
G1 X84.1440 Y110.0600 E0.3255
G1 X91.1410 Y108.4940 F11000 ; custom feedrate
G92 E0.0000
G1 X91.1470 Y108.4880 E0.0004 F5280 ; custom feedrate
G1 X91.6250 Y108.4880 E0.0245
G1 X91.6250 Y108.6890 E0.0346
G1 X91.1410 Y109.1730 E0.0690
G1 X91.1410 Y109.8520 E0.1031
G1 X91.6250 Y109.3680 E0.1375
G1 X91.6250 Y110.0470 E0.1717
G1 X91.1410 Y110.5310 E0.2061
G1 X91.1410 Y111.2090 E0.2402
G1 X91.6250 Y110.7260 E0.2746
G1 X91.6250 Y111.4050 E0.3087
G1 X91.5170 Y111.5120 E0.3164
G92 E0.0000
G1 E-6 F2400 ; custom retraction
;zhop1
G1 X126.0870 Y111.8000 F11000 ; custom feedrate
G1 Z7.280 F1200
G1 E0 F2400 ; custom un-retraction/prime
G92 E0.0000
G1 X126.0870 Y108.2000 E0.1810 F5280 ; custom feedrate
G1 X136.8000 Y108.2000 E0.7198
G1 X136.8000 Y111.8000 E0.9008
G1 X126.0870 Y111.8000 E1.4396
G1 X125.6070 Y112.2800 F11000 ; custom feedrate
G92 E0.0000
G1 X125.6070 Y107.7200 E0.2293 F5280 ; custom feedrate
G1 X137.2800 Y107.7200 E0.8163
G1 X137.2800 Y112.2800 E1.0457
G1 X125.6070 Y112.2800 E1.6327
G1 X125.1270 Y112.7600 F11000 ; custom feedrate
G92 E0.0000
G1 X125.1270 Y107.2400 E0.2776 F3960 ; custom feedrate
G1 X137.7600 Y107.2400 E0.9129
G1 X137.7600 Y112.7600 E1.1905
G1 X125.1270 Y112.7600 E1.8258
G1 X126.8160 Y111.5120 F11000 ; custom feedrate
G92 E0.0000
G1 X126.8590 Y111.4690 E0.0030 F5280 ; custom feedrate
G1 X126.8590 Y110.7910 E0.0372
G1 X126.3750 Y111.2740 E0.0716
G1 X126.3750 Y110.5960 E0.1057
G1 X126.8590 Y110.1120 E0.1401
G1 X126.8590 Y109.4330 E0.1742
G1 X126.3750 Y109.9170 E0.2086
G1 X126.3750 Y109.2380 E0.2428
G1 X126.8590 Y108.7540 E0.2772
G1 X126.8590 Y108.4880 E0.2906
G1 X126.4460 Y108.4880 E0.3113
G1 X126.3750 Y108.5590 E0.3164
G1 X127.3990 Y109.5720 F11000 ; custom feedrate
G92 E0.0000
G1 X128.4230 Y108.5480 E0.0910 F6600 ; custom feedrate
G1 X132.6650 Y108.5480 E0.3577
G1 X129.7610 Y111.4520 E0.6159
G1 X134.0040 Y111.4520 E0.8826
G1 X136.4520 Y109.0040 E1.1002
G92 E0.0000
G1 E-6 F2400 ; custom retraction
;layer 27, Z = 7.560
;fan27;
G1 Z7.560 F1200
G1 X136.8000 Y108.2000 F11000 ; custom feedrate
G1 E0 F2400 ; custom un-retraction/prime
G92 E0.0000
G1 X136.8000 Y111.8000 E0.1810 F5280 ; custom feedrate
G1 X125.6790 Y111.8000 E0.7403
G1 X125.6790 Y108.2000 E0.9213
G1 X136.8000 Y108.2000 E1.4806
G1 X137.2800 Y107.7200 F11000 ; custom feedrate
G92 E0.0000
G1 X137.2800 Y112.2800 E0.2293 F5280 ; custom feedrate
G1 X125.1990 Y112.2800 E0.8368
G1 X125.1990 Y107.7200 E1.0662
G1 X137.2800 Y107.7200 E1.6737
G1 X137.7600 Y107.2400 F11000 ; custom feedrate
G92 E0.0000
G1 X137.7600 Y112.7600 E0.2776 F3960 ; custom feedrate
G1 X124.7190 Y112.7600 E0.9334
G1 X124.7190 Y107.2400 E1.2110
G1 X137.7600 Y107.2400 E1.8668
G1 X126.1370 Y108.4880 F11000 ; custom feedrate
G92 E0.0000
G1 X126.5730 Y108.9240 E0.0310 F5280 ; custom feedrate
G1 X126.5730 Y109.6020 E0.0651
G1 X125.9670 Y108.9970 E0.1082
G1 X125.9670 Y109.6760 E0.1423
G1 X126.5730 Y110.2810 E0.1854
G1 X126.5730 Y110.9600 E0.2195
G1 X125.9670 Y110.3540 E0.2626
G1 X125.9670 Y111.0330 E0.2967
G1 X126.4460 Y111.5120 E0.3308
G1 X128.4230 Y111.4520 F11000 ; custom feedrate
G92 E0.0000
G1 X127.1130 Y110.1420 E0.1164 F6600 ; custom feedrate
G1 X127.1130 Y108.5480 E0.2167
G1 X129.7610 Y108.5480 E0.3831
G1 X132.6650 Y111.4520 E0.6413
G1 X136.4520 Y111.4520 E0.8793
G1 X136.4520 Y110.9960 E0.9080
G1 X134.0040 Y108.5480 E1.1256
G92 E0.0000
G1 E-6 F2400 ; custom retraction
;zhop1
G1 X92.3210 Y108.2000 F11000 ; custom feedrate
G1 Z7.560 F1200
G1 E0 F2400 ; custom un-retraction/prime
G92 E0.0000
G1 X92.3210 Y111.8000 E0.1810 F5280 ; custom feedrate
G1 X86.0630 Y111.8000 E0.4957
G1 X83.4560 Y110.3050 E0.6468
G1 X83.4560 Y109.6950 E0.6775
G1 X86.0630 Y108.2000 E0.8286
G1 X92.3210 Y108.2000 E1.1433
G1 X92.8010 Y107.7200 F11000 ; custom feedrate
G92 E0.0000
G1 X92.8010 Y112.2800 E0.2293 F5280 ; custom feedrate
G1 X85.7200 Y112.2800 E0.5854
G1 X85.7200 Y112.1570 E0.5916
G1 X82.9760 Y110.5830 E0.7507
G1 X82.9760 Y109.4170 E0.8093
G1 X85.7200 Y107.8430 E0.9683
G1 X85.7200 Y107.7200 E0.9746
G1 X92.8010 Y107.7200 E1.3306
G1 X93.2810 Y107.2400 F11000 ; custom feedrate
G92 E0.0000
G1 X93.2810 Y112.7600 E0.2776 F3960 ; custom feedrate
G1 X85.2400 Y112.7600 E0.6820
G1 X85.2400 Y112.4350 E0.6983
G1 X82.4960 Y110.8610 E0.8574
G1 X82.4960 Y109.1390 E0.9440
G1 X85.2400 Y107.5650 E1.1030
G1 X85.2400 Y107.2400 E1.1194
G1 X93.2810 Y107.2400 E1.5237
G1 X91.5170 Y108.4880 F11000 ; custom feedrate
G92 E0.0000
G1 X92.0330 Y109.0030 E0.0366 F5280 ; custom feedrate
G1 X92.0330 Y109.6820 E0.0708
G1 X91.4270 Y109.0760 E0.1138
G1 X91.4270 Y109.7550 E0.1480
G1 X92.0330 Y110.3610 E0.1910
G1 X92.0330 Y111.0400 E0.2252
G1 X91.4270 Y110.4340 E0.2682
G1 X91.4270 Y111.1130 E0.3024
G1 X91.8260 Y111.5120 E0.3308
G1 X85.1480 Y110.9430 F11000 ; custom feedrate
G92 E0.0000
G1 X84.8320 Y110.6270 E0.0225 F5280 ; custom feedrate
G1 X84.4640 Y110.4160 E0.0438
G1 X84.4640 Y110.2590 E0.0517
G1 X83.9490 Y109.7440 E0.0883
G1 X84.3810 Y109.4970 E0.1133
G1 X84.4660 Y109.5830 E0.1194
G1 X84.8980 Y109.3350 E0.1444
G1 X84.8120 Y109.2500 E0.1505
G1 X85.2430 Y109.0020 E0.1755
G1 X85.3290 Y109.0880 E0.1816
G1 X85.7600 Y108.8400 E0.2066
G1 X85.6750 Y108.7550 E0.2127
G92 E0.0000
G1 E-6 F2400 ; custom retraction
;layer 28, Z = 7.840
;fan28;
G1 Z7.840 F1200
G1 X85.6630 Y108.2000 F11000 ; custom feedrate
G1 E0 F2400 ; custom un-retraction/prime
G92 E0.0000
G1 X92.7990 Y108.2000 E0.3588 F5280 ; custom feedrate
G1 X92.7990 Y111.8000 E0.5399
G1 X85.6630 Y111.8000 E0.8987
G1 X83.0570 Y110.3050 E1.0498
G1 X83.0570 Y109.6950 E1.0805
G1 X85.6630 Y108.2000 E1.2316
G1 X85.5350 Y107.7200 F11000 ; custom feedrate
G92 E0.0000
G1 X93.2790 Y107.7200 E0.3894 F5280 ; custom feedrate
G1 X93.2790 Y112.2800 E0.6187
G1 X85.5350 Y112.2800 E1.0081
G1 X82.5770 Y110.5830 E1.1797
G1 X82.5770 Y109.4170 E1.2383
G1 X85.5350 Y107.7200 E1.4098
G1 X85.2400 Y107.3360 F11000 ; custom feedrate
G92 E0.0000
G1 X85.2400 Y107.2400 E0.0048 F3960 ; custom feedrate
G1 X93.7590 Y107.2400 E0.4332
G1 X93.7590 Y112.7600 E0.7108
G1 X85.2400 Y112.7600 E1.1392
G1 X85.2400 Y112.6640 E1.1441
G1 X82.0970 Y110.8610 E1.3263
G1 X82.0970 Y109.1390 E1.4129
G1 X85.2400 Y107.3360 E1.5951
G1 X83.3720 Y110.1540 F11000 ; custom feedrate
G92 E0.0000
G1 X84.0940 Y109.4320 E0.0513 F5280 ; custom feedrate
G1 X85.6860 Y108.5190 E0.1436
G1 X85.3700 Y108.8350 E0.1661
G1 X84.0640 Y109.5840 E0.2418
G1 X84.0640 Y110.1410 E0.2698
G1 X83.8030 Y110.4010 E0.2883
G1 X84.2350 Y110.6490 E0.3133
G1 X84.3200 Y110.5630 E0.3194
G1 X84.7520 Y110.8110 E0.3444
G1 X84.6660 Y110.8960 E0.3505
G1 X85.0980 Y111.1440 E0.3755
G1 X85.1830 Y111.0580 E0.3816
G1 X85.6150 Y111.3050 E0.4066
G1 X85.5290 Y111.3910 E0.4127
G1 X92.1960 Y111.5120 F11000 ; custom feedrate
G92 E0.0000
G1 X92.5110 Y111.1980 E0.0224 F5280 ; custom feedrate
G1 X92.5110 Y110.5190 E0.0565
G1 X91.7440 Y111.2850 E0.1110
G1 X91.7440 Y110.6070 E0.1452
G1 X92.5110 Y109.8400 E0.1997
G1 X92.5110 Y109.1610 E0.2338
G1 X91.7440 Y109.9280 E0.2884
G1 X91.7440 Y109.2490 E0.3225
G1 X92.5050 Y108.4880 E0.3766
G1 X91.8260 Y108.4880 E0.4108
G1 X91.7440 Y108.5700 E0.4166
G1 X87.3350 Y111.4520 F11000 ; custom feedrate
G92 E0.0000
G1 X90.2390 Y108.5480 E0.2582 F6600 ; custom feedrate
G1 X86.5500 Y108.5480 E0.4901
G1 X86.6030 Y108.7500 E0.5032
G1 X84.7060 Y109.8380 E0.6407
G1 X84.6040 Y109.9400 E0.6498
G92 E0.0000
G1 E-6 F2400 ; custom retraction
;zhop1
G1 X93.7590 Y109.5480 F11000 ; custom feedrate
G1 X93.7590 Y107.2400
G1 X124.2410 Y107.2400
G1 X124.2410 Y108.2410
G1 X125.2010 Y108.2000
G1 Z7.840 F1200
G1 E0 F2400 ; custom un-retraction/prime
G92 E0.0000
G1 X136.8000 Y108.2000 E0.5833 F5280 ; custom feedrate
G1 X136.8000 Y111.8000 E0.7643
G1 X125.2010 Y111.8000 E1.3476
G1 X125.2010 Y108.2000 E1.5287
G1 X124.7210 Y107.7200 F11000 ; custom feedrate
G92 E0.0000
G1 X137.2800 Y107.7200 E0.6316 F5280 ; custom feedrate
G1 X137.2800 Y112.2800 E0.8609
G1 X124.7210 Y112.2800 E1.4925
G1 X124.7210 Y107.7200 E1.7218
G1 X124.2410 Y107.2400 F11000 ; custom feedrate
G92 E0.0000
G1 X137.7600 Y107.2400 E0.6798 F3960 ; custom feedrate
G1 X137.7600 Y112.7600 E0.9574
G1 X124.2410 Y112.7600 E1.6373
G1 X124.2410 Y107.2400 E1.9149
G1 X125.4890 Y108.7660 F11000 ; custom feedrate
G92 E0.0000
G1 X125.7670 Y108.4880 E0.0198 F5280 ; custom feedrate
G1 X126.2560 Y108.4880 E0.0444
G1 X126.2560 Y108.6780 E0.0539
G1 X125.4890 Y109.4450 E0.1084
G1 X125.4890 Y110.1240 E0.1426
G1 X126.2560 Y109.3570 E0.1971
G1 X126.2560 Y110.0360 E0.2312
G1 X125.4890 Y110.8030 E0.2858
G1 X125.4890 Y111.4810 E0.3199
G1 X126.2560 Y110.7150 E0.3744
G1 X126.2560 Y111.3930 E0.4086
G1 X126.1370 Y111.5120 E0.4170
G1 X126.7960 Y110.1750 F11000 ; custom feedrate
G92 E0.0000
G1 X128.4230 Y108.5480 E0.1446 F6600 ; custom feedrate
G1 X132.6650 Y108.5480 E0.4113
G1 X129.7610 Y111.4520 E0.6695
G1 X134.0040 Y111.4520 E0.9362
G1 X136.4520 Y109.0040 E1.1538
G92 E0.0000
G1 E-6 F2400 ; custom retraction
;layer 29, Z = 8.120
;fan29;
G1 Z8.120 F1200
G1 X136.8000 Y108.2000 F11000 ; custom feedrate
G1 E0 F2400 ; custom un-retraction/prime
G92 E0.0000
G1 X136.8000 Y111.8000 E0.1810 F5280 ; custom feedrate
G1 X124.6260 Y111.8000 E0.7933
G1 X124.6260 Y108.2000 E0.9743
G1 X136.8000 Y108.2000 E1.5865
G1 X137.2800 Y107.7200 F11000 ; custom feedrate
G92 E0.0000
G1 X137.2800 Y112.2800 E0.2293 F5280 ; custom feedrate
G1 X124.1460 Y112.2800 E0.8898
G1 X124.1460 Y107.7200 E1.1191
G1 X137.2800 Y107.7200 E1.7796
G1 X137.7600 Y107.2400 F11000 ; custom feedrate
G92 E0.0000
G1 X137.7600 Y112.7600 E0.2776 F3960 ; custom feedrate
G1 X123.6660 Y112.7600 E0.9864
G1 X123.6660 Y107.2400 E1.2640
G1 X137.7600 Y107.2400 E1.9728
G1 X128.8530 Y108.4880 F11000 ; custom feedrate
G92 E0.0000
G1 X129.3860 Y109.0220 E0.0379 F5280 ; custom feedrate
G1 X129.3860 Y109.7000 E0.0721
G1 X128.1740 Y108.4880 E0.1583
G1 X127.4950 Y108.4880 E0.1924
G1 X129.3860 Y110.3790 E0.3269
G1 X129.3860 Y111.0580 E0.3611
G1 X126.8160 Y108.4880 E0.5439
G1 X126.1370 Y108.4880 E0.5780
G1 X129.1610 Y111.5120 E0.7931
G1 X128.4830 Y111.5120 E0.8272
G1 X125.4590 Y108.4880 E1.0423
G1 X124.9140 Y108.4880 E1.0697
G1 X124.9140 Y108.6220 E1.0764
G1 X127.8040 Y111.5120 E1.2819
G1 X127.1250 Y111.5120 E1.3161
G1 X124.9140 Y109.3010 E1.4733
G1 X124.9140 Y109.9800 E1.5074
G1 X126.4460 Y111.5120 E1.6164
G1 X125.7670 Y111.5120 E1.6506
G1 X124.9140 Y110.6590 E1.7112
G1 X124.9140 Y111.3370 E1.7454
G1 X125.0880 Y111.5120 E1.7578
G1 X129.9260 Y108.7130 F11000 ; custom feedrate
G92 E0.0000
G1 X132.6650 Y111.4520 E0.2435 F6600 ; custom feedrate
G1 X136.4520 Y111.4520 E0.4815
G1 X136.4520 Y110.9960 E0.5102
G1 X134.0040 Y108.5480 E0.7278
G92 E0.0000
G1 E-6 F2400 ; custom retraction
;zhop1
G1 X93.3740 Y108.2000 F11000 ; custom feedrate
G1 Z8.120 F1200
G1 E0 F2400 ; custom un-retraction/prime
G92 E0.0000
G1 X93.3740 Y111.8000 E0.1810 F5280 ; custom feedrate
G1 X85.2630 Y111.8000 E0.5889
G1 X82.6570 Y110.3050 E0.7400
G1 X82.6570 Y109.6950 E0.7707
G1 X85.2630 Y108.2000 E0.9218
G1 X93.3740 Y108.2000 E1.3297
G1 X93.8540 Y107.7200 F11000 ; custom feedrate
G92 E0.0000
G1 X93.8540 Y112.2800 E0.2293 F5280 ; custom feedrate
G1 X85.1350 Y112.2800 E0.6678
G1 X82.1770 Y110.5830 E0.8393
G1 X82.1770 Y109.4170 E0.8979
G1 X85.1350 Y107.7200 E1.0695
G1 X93.8540 Y107.7200 E1.5079
G1 X94.3340 Y107.2400 F11000 ; custom feedrate
G92 E0.0000
G1 X94.3340 Y112.7600 E0.2776 F3960 ; custom feedrate
G1 X85.0080 Y112.7600 E0.7466
G1 X81.6970 Y110.8610 E0.9386
G1 X81.6970 Y109.1390 E1.0252
G1 X85.0080 Y107.2400 E1.2171
G1 X94.3340 Y107.2400 E1.6861
G1 X92.8750 Y108.4880 F11000 ; custom feedrate
G92 E0.0000
G1 X93.0860 Y108.6990 E0.0150 F5280 ; custom feedrate
G1 X93.0860 Y109.3780 E0.0491
G1 X92.1960 Y108.4880 E0.1124
G1 X91.5170 Y108.4880 E0.1466
G1 X93.0860 Y110.0570 E0.2581
G1 X93.0860 Y110.7350 E0.2923
G1 X90.8390 Y108.4880 E0.4521
G1 X90.1600 Y108.4880 E0.4862
G1 X93.0860 Y111.4140 E0.6943
G1 X93.0860 Y111.5120 E0.6993
G1 X92.5050 Y111.5120 E0.7285
G1 X89.4810 Y108.4880 E0.9435
G1 X88.8020 Y108.4880 E0.9777
G1 X91.8260 Y111.5120 E1.1928
G1 X91.1470 Y111.5120 E1.2269
G1 X88.6140 Y108.9780 E1.4071
G1 X88.6140 Y109.6570 E1.4412
G1 X90.4690 Y111.5120 E1.5731
G1 X89.7900 Y111.5120 E1.6073
G1 X88.6140 Y110.3360 E1.6909
G1 X88.6140 Y111.0150 E1.7250
G1 X89.1110 Y111.5120 E1.7604
G1 X86.0870 Y108.4880 F11000 ; custom feedrate
G92 E0.0000
G1 X86.4080 Y108.8090 E0.0228 F5280 ; custom feedrate
G1 X86.4080 Y109.4880 E0.0570
G1 X85.4080 Y108.4880 E0.1281
G1 X85.3400 Y108.4880 E0.1315
G1 X84.9520 Y108.7110 E0.1540
G1 X86.4080 Y110.1670 E0.2576
G1 X86.4080 Y110.8460 E0.2917
G1 X84.5200 Y108.9580 E0.4260
G1 X84.0890 Y109.2060 E0.4510
G1 X86.3960 Y111.5120 E0.6150
G1 X85.7170 Y111.5120 E0.6491
G1 X83.6580 Y109.4530 E0.7956
G1 X83.2260 Y109.7000 E0.8206
G1 X84.6320 Y111.1060 E0.9205
G1 X83.0400 Y110.1930 E1.0128
G1 X82.9450 Y110.0980 E1.0196
G92 E0.0000
G1 E-6 F2400 ; custom retraction
;layer 30, Z = 8.400
;fan30;
G1 Z8.400 F1200
G1 X82.2570 Y110.3050 F11000 ; custom feedrate
G1 E0 F2400 ; custom un-retraction/prime
G92 E0.0000
G1 X82.2570 Y109.6950 E0.0307 F5280 ; custom feedrate
G1 X84.8630 Y108.2000 E0.1818
G1 X94.1170 Y108.2000 E0.6471
G1 X94.1170 Y111.8000 E0.8282
G1 X84.8630 Y111.8000 E1.2935
G1 X82.2570 Y110.3050 E1.4446
G1 X81.7770 Y110.5830 F11000 ; custom feedrate
G92 E0.0000
G1 X81.7770 Y109.4170 E0.0586 F5280 ; custom feedrate
G1 X84.7360 Y107.7200 E0.2302
G1 X94.5970 Y107.7200 E0.7261
G1 X94.5970 Y112.2800 E0.9554
G1 X84.7360 Y112.2800 E1.4513
G1 X81.7770 Y110.5830 E1.6229
G1 X81.2970 Y110.8610 F11000 ; custom feedrate
G92 E0.0000
G1 X81.2970 Y109.1390 E0.0866 F3960 ; custom feedrate
G1 X84.6080 Y107.2400 E0.2785
G1 X95.0770 Y107.2400 E0.8050
G1 X95.0770 Y112.7600 E1.0826
G1 X84.6080 Y112.7600 E1.6091
G1 X81.2970 Y110.8610 E1.8011
G1 X82.6490 Y110.1980 F11000 ; custom feedrate
G92 E0.0000
G1 X83.5780 Y109.2700 E0.0660 F5280 ; custom feedrate
G1 X84.9400 Y108.4880 E0.1450
G1 X85.0380 Y108.4880 E0.1499
G1 X83.0810 Y110.4450 E0.2891
G1 X83.5120 Y110.6930 E0.3142
G1 X85.7170 Y108.4880 E0.4710
G1 X86.3960 Y108.4880 E0.5051
G1 X83.9430 Y110.9400 E0.6795
G1 X84.3750 Y111.1880 E0.7045
G1 X86.4080 Y109.1540 E0.8491
G1 X86.4080 Y109.8330 E0.8833
G1 X84.8060 Y111.4350 E0.9972
G1 X84.9400 Y111.5120 E1.0050
G1 X85.4080 Y111.5120 E1.0285
G1 X86.4080 Y110.5120 E1.0996
G1 X86.4080 Y111.1910 E1.1337
G1 X86.0870 Y111.5120 E1.1566
G1 X88.6140 Y108.9850 F11000 ; custom feedrate
G92 E0.0000
G1 X89.1110 Y108.4880 E0.0354 F5280 ; custom feedrate
G1 X89.7900 Y108.4880 E0.0695
G1 X88.6140 Y109.6640 E0.1531
G1 X88.6140 Y110.3430 E0.1873
G1 X90.4690 Y108.4880 E0.3192
G1 X91.1470 Y108.4880 E0.3533
G1 X88.6140 Y111.0220 E0.5335
G1 X88.6140 Y111.5120 E0.5582
G1 X88.8020 Y111.5120 E0.5676
G1 X91.8260 Y108.4880 E0.7827
G1 X92.5050 Y108.4880 E0.8168
G1 X89.4810 Y111.5120 E1.0319
G1 X90.1600 Y111.5120 E1.0660
G1 X93.1840 Y108.4880 E1.2811
G1 X93.8290 Y108.4880 E1.3135
G1 X93.8290 Y108.5220 E1.3152
G1 X90.8390 Y111.5120 E1.5279
G1 X91.5170 Y111.5120 E1.5621
G1 X93.8290 Y109.2010 E1.7264
G1 X93.8290 Y109.8790 E1.7606
G1 X92.1960 Y111.5120 E1.8767
G1 X92.8750 Y111.5120 E1.9108
G1 X93.8290 Y110.5580 E1.9787
G1 X93.8290 Y111.2370 E2.0128
G1 X93.5540 Y111.5120 E2.0324
G92 E0.0000
G1 E-6 F2400 ; custom retraction
;zhop1
G1 X123.8830 Y111.8000 F11000 ; custom feedrate
G1 Z8.400 F1200
G1 E0 F2400 ; custom un-retraction/prime
G92 E0.0000
G1 X123.8830 Y108.2000 E0.1810 F5280 ; custom feedrate
G1 X136.8000 Y108.2000 E0.8306
G1 X136.8000 Y111.8000 E1.0117
G1 X123.8830 Y111.8000 E1.6612
G1 X123.4030 Y112.2800 F11000 ; custom feedrate
G92 E0.0000
G1 X123.4030 Y107.7200 E0.2293 F5280 ; custom feedrate
G1 X137.2800 Y107.7200 E0.9272
G1 X137.2800 Y112.2800 E1.1565
G1 X123.4030 Y112.2800 E1.8544
G1 X122.9230 Y112.7600 F11000 ; custom feedrate
G92 E0.0000
G1 X122.9230 Y107.2400 E0.2776 F3960 ; custom feedrate
G1 X137.7600 Y107.2400 E1.0237
G1 X137.7600 Y112.7600 E1.3013
G1 X122.9230 Y112.7600 E2.0475
G1 X124.1710 Y108.7270 F11000 ; custom feedrate
G92 E0.0000
G1 X124.4100 Y108.4880 E0.0170 F5280 ; custom feedrate
G1 X125.0880 Y108.4880 E0.0511
G1 X124.1710 Y109.4050 E0.1164
G1 X124.1710 Y110.0840 E0.1505
G1 X125.7670 Y108.4880 E0.2640
G1 X126.4460 Y108.4880 E0.2981
G1 X124.1710 Y110.7630 E0.4600
G1 X124.1710 Y111.4420 E0.4941
G1 X127.1250 Y108.4880 E0.7042
G1 X127.8040 Y108.4880 E0.7383
G1 X124.7800 Y111.5120 E0.9534
G1 X125.4590 Y111.5120 E0.9875
G1 X128.4830 Y108.4880 E1.2026
G1 X129.1610 Y108.4880 E1.2367
G1 X126.1370 Y111.5120 E1.4518
G1 X126.8160 Y111.5120 E1.4859
G1 X129.3860 Y108.9420 E1.6687
G1 X129.3860 Y109.6210 E1.7028
G1 X127.4950 Y111.5120 E1.8373
G1 X128.1740 Y111.5120 E1.8715
G1 X129.3860 Y110.3000 E1.9577
G1 X129.3860 Y110.9780 E1.9918
G1 X128.8530 Y111.5120 E2.0298
G1 X129.9260 Y111.2870 F11000 ; custom feedrate
G92 E0.0000
G1 X132.6650 Y108.5480 E0.2435 F6600 ; custom feedrate
G1 X136.4520 Y108.5480 E0.4815
G1 X136.4520 Y109.0040 E0.5102
G1 X134.0040 Y111.4520 E0.7278
G92 E0.0000
G1 E-6 F2400 ; custom retraction
;layer 31, Z = 8.680
;fan31;
G1 Z8.680 F1200
G1 X136.8000 Y111.8000 F11000 ; custom feedrate
G1 E0 F2400 ; custom un-retraction/prime
G92 E0.0000
G1 X84.4640 Y111.8000 E2.6320 F5280 ; custom feedrate
G1 X81.8570 Y110.3050 E2.7831
G1 X81.8570 Y109.6950 E2.8137
G1 X84.4640 Y108.2000 E2.9649
G1 X136.8000 Y108.2000 E5.5968
G1 X136.8000 Y111.8000 E5.7779
G1 X137.2800 Y112.2800 F11000 ; custom feedrate
G92 E0.0000
G1 X84.3360 Y112.2800 E2.6625 F5280 ; custom feedrate
G1 X81.3770 Y110.5830 E2.8341
G1 X81.3770 Y109.4170 E2.8927
G1 X84.3360 Y107.7200 E3.0642
G1 X137.2800 Y107.7200 E5.7268
G1 X137.2800 Y112.2800 E5.9561
G1 X137.7600 Y112.7600 F11000 ; custom feedrate
G92 E0.0000
G1 X84.2080 Y112.7600 E2.6931 F3960 ; custom feedrate
G1 X80.8970 Y110.8610 E2.8850
G1 X80.8970 Y109.1390 E2.9716
G1 X84.2080 Y107.2400 E3.1636
G1 X137.7600 Y107.2400 E5.8567
G1 X137.7600 Y112.7600 E6.1343
G1 X128.8530 Y108.4880 F11000 ; custom feedrate
G92 E0.0000
G1 X129.3860 Y109.0220 E0.0379 F5280 ; custom feedrate
G1 X129.3860 Y109.7000 E0.0721
G1 X128.1740 Y108.4880 E0.1583
G1 X127.4950 Y108.4880 E0.1924
G1 X129.3860 Y110.3790 E0.3269
G1 X129.3860 Y111.0580 E0.3611
G1 X126.8160 Y108.4880 E0.5439
